(.../Tools/pcb/gcode/pcb-gcode.ulp)
(Copyright 2005 - 2012 by John Johnson)
(See readme.txt for licensing terms.)
(This file generated from the board:)
(.../BaseProximity/BaseProximity.brd)
(Current profile is .../pcb/gcode/profiles/generic.pp  )
(This file generated 3/19/2017 17:30)
(Settings from pcb-machine.h)
(spindle on time = 3.0000)
(  Tool Size)
(0.1000 )
(spindle speed = 30000.0000)
(tool change at 0.0000 0.0000 25.4000 )
(feed rate xy = F508.00 )
(feed rate z  = F254.00 )
(Z Axis Settings)
(  High     Up        Down     Drill)
(12.7000 	2.5400 	-0.1778 	-0.8128 )
(Settings from pcb-defaults.h)
(isolate min = 0.0254)
(isolate max = 0.5080)
(isolate step = 0.1270)
(Generated top outlines, top drill, bottom outlines, bottom drill, )
(Unit of measure: mm)
(Metric Mode)
G21
(Absolute Coordinates)
G90
S30000
G00 Z12.7000 
G00 X0.0000 Y0.0000 
M03
G04 P3.000000
G00 Z2.5400 
G00 X-1.0471 Y6.1789 
G01 Z-0.1778 F254.00 
G01 X-3.5871 Y3.6389 F508.00 
G01 X-4.9089 Y2.3171 
G01 X-4.9725 Y2.2804 
G01 X-5.0433 Y2.2614 
G01 X-39.3967 Y2.2614 
G01 X-39.4675 Y2.2804 
G01 X-39.5311 Y2.3171 
G01 X-40.0000 Y2.7860 
G01 X-40.4171 Y2.3689 
G01 X-40.4689 Y2.3171 
G01 X-40.5325 Y2.2804 
G01 X-40.6033 Y2.2614 
G01 X-74.9667 Y2.2614 
G01 X-75.0375 Y2.2804 
G01 X-75.1011 Y2.3171 
G01 X-75.1529 Y2.3689 
G01 X-76.3711 Y3.5871 
G01 X-78.9111 Y6.1271 
G01 X-78.9629 Y6.1789 
G01 X-78.9996 Y6.2425 
G01 X-79.0186 Y6.3133 
G01 X-79.0186 Y29.2467 
G01 X-78.9996 Y29.3175 
G01 X-78.9629 Y29.3811 
G01 X-78.9111 Y29.4329 
G01 X-77.8640 Y30.4800 
G01 X-78.9111 Y31.5271 
G01 X-78.9629 Y31.5789 
G01 X-78.9996 Y31.6425 
G01 X-79.0186 Y31.7133 
G01 X-79.0186 Y53.3767 
G01 X-78.9996 Y53.4475 
G01 X-78.9629 Y53.5111 
G01 X-77.6929 Y54.7811 
G01 X-77.6411 Y54.8329 
G01 X-77.5775 Y54.8696 
G01 X-77.5067 Y54.8886 
G01 X-74.8933 Y54.8886 
G01 X-74.8225 Y54.8696 
G01 X-74.7589 Y54.8329 
G01 X-74.6359 Y54.7099 
G01 X-74.4938 Y54.7688 
G01 X-74.3222 Y54.8029 
G01 X-74.1472 Y54.8029 
G01 X-73.9757 Y54.7688 
G01 X-73.8140 Y54.7018 
G01 X-73.6685 Y54.6046 
G01 X-72.3954 Y53.3315 
G01 X-72.2982 Y53.1860 
G01 X-72.2312 Y53.0243 
G01 X-72.1971 Y52.8527 
G01 X-72.1971 Y52.6778 
G01 X-72.2312 Y52.5062 
G01 X-72.2982 Y52.3445 
G01 X-72.3954 Y52.1991 
G01 X-72.5191 Y52.0754 
G01 X-72.6645 Y51.9782 
G01 X-72.8262 Y51.9112 
G01 X-72.9978 Y51.8771 
G01 X-73.1727 Y51.8771 
G01 X-73.3443 Y51.9112 
G01 X-73.5060 Y51.9782 
G01 X-73.6515 Y52.0754 
G01 X-74.9246 Y53.3485 
G01 X-75.0218 Y53.4940 
G01 X-75.0888 Y53.6557 
G01 X-75.1229 Y53.8272 
G01 X-75.1229 Y54.0022 
G01 X-75.0888 Y54.1738 
G01 X-75.0299 Y54.3159 
G01 X-75.0454 Y54.3314 
G01 X-77.3546 Y54.3314 
G01 X-78.4614 Y53.2246 
G01 X-78.4614 Y31.8654 
G01 X-77.3546 Y30.7586 
G01 X-76.5888 Y30.7586 
G01 X-76.5299 Y30.9007 
G01 X-76.4327 Y31.0462 
G01 X-76.3090 Y31.1699 
G01 X-76.1635 Y31.2671 
G01 X-76.0019 Y31.3341 
G01 X-75.8303 Y31.3682 
G01 X-74.0297 Y31.3682 
G01 X-73.8581 Y31.3341 
G01 X-73.6965 Y31.2671 
G01 X-73.5510 Y31.1699 
G01 X-73.4273 Y31.0462 
G01 X-73.3301 Y30.9007 
G01 X-73.2631 Y30.7391 
G01 X-73.2290 Y30.5675 
G01 X-73.2290 Y30.3925 
G01 X-73.2631 Y30.2209 
G01 X-73.3301 Y30.0593 
G01 X-73.4273 Y29.9138 
G01 X-73.5510 Y29.7901 
G01 X-73.6965 Y29.6929 
G01 X-73.8581 Y29.6259 
G01 X-74.0297 Y29.5918 
G01 X-75.8303 Y29.5918 
G01 X-76.0019 Y29.6259 
G01 X-76.1635 Y29.6929 
G01 X-76.3090 Y29.7901 
G01 X-76.4327 Y29.9138 
G01 X-76.5299 Y30.0593 
G01 X-76.5888 Y30.2014 
G01 X-77.3546 Y30.2014 
G01 X-78.4614 Y29.0946 
G01 X-78.4614 Y6.4654 
G01 X-76.2000 Y4.2040 
G01 X-75.0299 Y5.3741 
G01 X-75.0888 Y5.5162 
G01 X-75.1229 Y5.6878 
G01 X-75.1229 Y5.8627 
G01 X-75.0888 Y6.0343 
G01 X-75.0218 Y6.1960 
G01 X-74.9246 Y6.3415 
G01 X-73.6515 Y7.6146 
G01 X-73.5060 Y7.7118 
G01 X-73.3443 Y7.7788 
G01 X-73.1727 Y7.8129 
G01 X-72.9978 Y7.8129 
G01 X-72.8262 Y7.7788 
G01 X-72.6645 Y7.7118 
G01 X-72.5191 Y7.6146 
G01 X-72.3954 Y7.4909 
G01 X-72.2982 Y7.3455 
G01 X-72.2312 Y7.1838 
G01 X-72.1971 Y7.0122 
G01 X-72.1971 Y6.8373 
G01 X-72.2312 Y6.6657 
G01 X-72.2982 Y6.5040 
G01 X-72.3954 Y6.3585 
G01 X-73.6685 Y5.0854 
G01 X-73.8140 Y4.9882 
G01 X-73.9757 Y4.9212 
G01 X-74.1472 Y4.8871 
G01 X-74.3222 Y4.8871 
G01 X-74.4938 Y4.9212 
G01 X-74.6359 Y4.9801 
G01 X-75.8060 Y3.8100 
G01 X-74.8146 Y2.8186 
G01 X-40.7554 Y2.8186 
G01 X-40.2786 Y3.2954 
G01 X-40.2786 Y3.4212 
G01 X-40.4207 Y3.4801 
G01 X-40.5662 Y3.5773 
G01 X-40.6899 Y3.7010 
G01 X-40.7871 Y3.8465 
G01 X-40.8541 Y4.0081 
G01 X-40.8882 Y4.1797 
G01 X-40.8882 Y5.9803 
G01 X-40.8541 Y6.1519 
G01 X-40.7871 Y6.3135 
G01 X-40.6899 Y6.4590 
G01 X-40.5662 Y6.5827 
G01 X-40.4207 Y6.6799 
G01 X-40.2786 Y6.7388 
G01 X-40.2786 Y8.1346 
G01 X-40.7554 Y8.6114 
G01 X-44.7403 Y8.6114 
G01 X-44.7438 Y8.5939 
G01 X-44.8203 Y8.4091 
G01 X-44.9314 Y8.2428 
G01 X-45.0728 Y8.1014 
G01 X-45.2391 Y7.9903 
G01 X-45.4239 Y7.9138 
G01 X-45.6200 Y7.8748 
G01 X-45.8200 Y7.8748 
G01 X-46.0161 Y7.9138 
G01 X-46.2009 Y7.9903 
G01 X-46.3672 Y8.1014 
G01 X-46.5086 Y8.2428 
G01 X-46.6197 Y8.4091 
G01 X-46.6962 Y8.5939 
G01 X-46.7352 Y8.7900 
G01 X-46.7352 Y8.9900 
G01 X-46.6962 Y9.1861 
G01 X-46.6197 Y9.3709 
G01 X-46.5086 Y9.5372 
G01 X-46.3672 Y9.6786 
G01 X-46.2009 Y9.7897 
G01 X-46.0161 Y9.8662 
G01 X-45.8200 Y9.9052 
G01 X-45.6200 Y9.9052 
G01 X-45.4239 Y9.8662 
G01 X-45.2391 Y9.7897 
G01 X-45.0728 Y9.6786 
G01 X-44.9314 Y9.5372 
G01 X-44.8203 Y9.3709 
G01 X-44.7438 Y9.1861 
G01 X-44.7403 Y9.1686 
G01 X-40.6033 Y9.1686 
G01 X-40.5325 Y9.1496 
G01 X-40.4689 Y9.1129 
G01 X-40.4171 Y9.0611 
G01 X-39.7771 Y8.4211 
G01 X-39.7404 Y8.3575 
G01 X-39.7214 Y8.2867 
G01 X-39.7214 Y6.7388 
G01 X-39.5793 Y6.6799 
G01 X-39.4338 Y6.5827 
G01 X-39.3101 Y6.4590 
G01 X-39.2129 Y6.3135 
G01 X-39.1459 Y6.1519 
G01 X-39.1118 Y5.9803 
G01 X-39.1118 Y4.1797 
G01 X-39.1459 Y4.0081 
G01 X-39.2129 Y3.8465 
G01 X-39.3101 Y3.7010 
G01 X-39.4338 Y3.5773 
G01 X-39.5793 Y3.4801 
G01 X-39.7214 Y3.4212 
G01 X-39.7214 Y3.2954 
G01 X-39.2446 Y2.8186 
G01 X-5.1954 Y2.8186 
G01 X-4.2040 Y3.8100 
G01 X-5.3741 Y4.9801 
G01 X-5.5162 Y4.9212 
G01 X-5.6878 Y4.8871 
G01 X-5.8627 Y4.8871 
G01 X-6.0343 Y4.9212 
G01 X-6.1960 Y4.9882 
G01 X-6.3415 Y5.0854 
G01 X-7.6146 Y6.3585 
G01 X-7.7118 Y6.5040 
G01 X-7.7788 Y6.6657 
G01 X-7.8129 Y6.8373 
G01 X-7.8129 Y7.0122 
G01 X-7.7788 Y7.1838 
G01 X-7.7118 Y7.3455 
G01 X-7.6146 Y7.4909 
G01 X-7.4909 Y7.6146 
G01 X-7.3455 Y7.7118 
G01 X-7.1838 Y7.7788 
G01 X-7.0122 Y7.8129 
G01 X-6.8373 Y7.8129 
G01 X-6.6657 Y7.7788 
G01 X-6.5040 Y7.7118 
G01 X-6.3585 Y7.6146 
G01 X-5.0854 Y6.3415 
G01 X-4.9882 Y6.1960 
G01 X-4.9212 Y6.0343 
G01 X-4.8871 Y5.8627 
G01 X-4.8871 Y5.6878 
G01 X-4.9212 Y5.5162 
G01 X-4.9801 Y5.3741 
G01 X-3.8100 Y4.2040 
G01 X-1.5486 Y6.4654 
G01 X-1.5486 Y27.8246 
G01 X-2.3375 Y28.6136 
G01 X-2.4310 Y28.5201 
G01 X-2.5765 Y28.4229 
G01 X-2.7381 Y28.3559 
G01 X-2.9097 Y28.3218 
G01 X-4.7103 Y28.3218 
G01 X-4.8819 Y28.3559 
G01 X-5.0435 Y28.4229 
G01 X-5.1890 Y28.5201 
G01 X-5.3127 Y28.6438 
G01 X-5.4099 Y28.7893 
G01 X-5.4769 Y28.9509 
G01 X-5.5110 Y29.1225 
G01 X-5.5110 Y29.2975 
G01 X-5.4769 Y29.4691 
G01 X-5.4099 Y29.6307 
G01 X-5.3127 Y29.7762 
G01 X-5.1890 Y29.8999 
G01 X-5.0435 Y29.9971 
G01 X-4.8819 Y30.0641 
G01 X-4.7103 Y30.0982 
G01 X-2.9097 Y30.0982 
G01 X-2.7381 Y30.0641 
G01 X-2.5765 Y29.9971 
G01 X-2.4310 Y29.8999 
G01 X-2.3375 Y29.8064 
G01 X-1.5486 Y30.5954 
G01 X-1.5486 Y53.2246 
G01 X-3.8100 Y55.4860 
G01 X-4.9801 Y54.3159 
G01 X-4.9212 Y54.1738 
G01 X-4.8871 Y54.0022 
G01 X-4.8871 Y53.8272 
G01 X-4.9212 Y53.6557 
G01 X-4.9882 Y53.4940 
G01 X-5.0854 Y53.3485 
G01 X-6.3585 Y52.0754 
G01 X-6.5040 Y51.9782 
G01 X-6.6657 Y51.9112 
G01 X-6.8373 Y51.8771 
G01 X-7.0122 Y51.8771 
G01 X-7.1838 Y51.9112 
G01 X-7.3455 Y51.9782 
G01 X-7.4909 Y52.0754 
G01 X-7.6146 Y52.1991 
G01 X-7.7118 Y52.3445 
G01 X-7.7788 Y52.5062 
G01 X-7.8129 Y52.6778 
G01 X-7.8129 Y52.8527 
G01 X-7.7788 Y53.0243 
G01 X-7.7118 Y53.1860 
G01 X-7.6146 Y53.3315 
G01 X-6.3415 Y54.6046 
G01 X-6.1960 Y54.7018 
G01 X-6.0343 Y54.7688 
G01 X-5.8627 Y54.8029 
G01 X-5.6878 Y54.8029 
G01 X-5.5162 Y54.7688 
G01 X-5.3741 Y54.7099 
G01 X-4.2040 Y55.8800 
G01 X-6.4654 Y58.1414 
G01 X-31.6346 Y58.1414 
G01 X-32.7414 Y57.0346 
G01 X-32.7414 Y54.5733 
G01 X-32.7604 Y54.5025 
G01 X-32.7971 Y54.4389 
G01 X-34.0671 Y53.1689 
G01 X-34.1189 Y53.1171 
G01 X-34.1825 Y53.0804 
G01 X-34.2533 Y53.0614 
G01 X-39.4067 Y53.0614 
G01 X-39.4775 Y53.0804 
G01 X-39.5411 Y53.1171 
G01 X-40.2229 Y53.7989 
G01 X-40.2596 Y53.8625 
G01 X-40.2786 Y53.9333 
G01 X-40.2786 Y54.2212 
G01 X-40.4207 Y54.2801 
G01 X-40.5662 Y54.3773 
G01 X-40.6899 Y54.5010 
G01 X-40.7871 Y54.6465 
G01 X-40.8541 Y54.8081 
G01 X-40.8882 Y54.9797 
G01 X-40.8882 Y56.7803 
G01 X-40.8541 Y56.9519 
G01 X-40.7871 Y57.1135 
G01 X-40.6899 Y57.2590 
G01 X-40.5662 Y57.3827 
G01 X-40.4207 Y57.4799 
G01 X-40.2591 Y57.5469 
G01 X-40.0875 Y57.5810 
G01 X-39.9125 Y57.5810 
G01 X-39.7409 Y57.5469 
G01 X-39.5793 Y57.4799 
G01 X-39.4338 Y57.3827 
G01 X-39.3101 Y57.2590 
G01 X-39.2129 Y57.1135 
G01 X-39.1459 Y56.9519 
G01 X-39.1118 Y56.7803 
G01 X-39.1118 Y54.9797 
G01 X-39.1459 Y54.8081 
G01 X-39.2129 Y54.6465 
G01 X-39.3101 Y54.5010 
G01 X-39.4338 Y54.3773 
G01 X-39.5793 Y54.2801 
G01 X-39.7214 Y54.2212 
G01 X-39.7214 Y54.0854 
G01 X-39.2546 Y53.6186 
G01 X-34.4054 Y53.6186 
G01 X-33.2986 Y54.7254 
G01 X-33.2986 Y57.1867 
G01 X-33.2796 Y57.2575 
G01 X-33.2429 Y57.3211 
G01 X-33.1911 Y57.3729 
G01 X-31.9211 Y58.6429 
G01 X-31.8575 Y58.6796 
G01 X-31.7867 Y58.6986 
G01 X-6.3133 Y58.6986 
G01 X-6.2425 Y58.6796 
G01 X-6.1789 Y58.6429 
G01 X-3.5871 Y56.0511 
G01 X-1.0471 Y53.5111 
G01 X-1.0104 Y53.4475 
G01 X-0.9914 Y53.3767 
G01 X-0.9914 Y30.4433 
G01 X-1.0104 Y30.3725 
G01 X-1.0471 Y30.3089 
G01 X-1.0989 Y30.2571 
G01 X-2.1090 Y29.2470 
G01 X-2.1090 Y29.1730 
G01 X-1.0989 Y28.1629 
G01 X-1.0471 Y28.1111 
G01 X-1.0104 Y28.0475 
G01 X-0.9914 Y27.9767 
G01 X-0.9914 Y6.3133 
G01 X-1.0104 Y6.2425 
G01 X-1.0471 Y6.1789 
G00 Z2.5400 
G00 X-1.7075 Y6.4525 
G01 Z-0.1778 F254.00 
G01 X-1.7593 Y6.4006 F508.00 
G01 X-3.6389 Y4.5210 
G01 X-3.7025 Y4.4843 
G01 X-3.7733 Y4.4653 
G01 X-3.8467 Y4.4653 
G01 X-3.9175 Y4.4843 
G01 X-3.9811 Y4.5210 
G01 X-4.0329 Y4.5729 
G01 X-4.7138 Y5.2537 
G01 X-4.7284 Y5.2649 
G01 X-4.7396 Y5.2795 
G01 X-4.7526 Y5.2926 
G01 X-4.7619 Y5.3085 
G01 X-4.7731 Y5.3231 
G01 X-4.7801 Y5.3401 
G01 X-4.7893 Y5.3561 
G01 X-4.7941 Y5.3739 
G01 X-4.8011 Y5.3909 
G01 X-4.8035 Y5.4092 
G01 X-4.8083 Y5.4270 
G01 X-4.8083 Y5.4454 
G01 X-4.8107 Y5.4636 
G01 X-4.8083 Y5.4819 
G01 X-4.8083 Y5.5003 
G01 X-4.8035 Y5.5181 
G01 X-4.8011 Y5.5364 
G01 X-4.7941 Y5.5534 
G01 X-4.7893 Y5.5712 
G01 X-4.7839 Y5.5806 
G01 X-4.7839 Y5.9725 
G01 X-4.9348 Y6.3368 
G01 X-6.3632 Y7.7652 
G01 X-6.7275 Y7.9161 
G01 X-7.1219 Y7.9161 
G01 X-7.4863 Y7.7652 
G01 X-7.7652 Y7.4863 
G01 X-7.9161 Y7.1219 
G01 X-7.9161 Y6.7275 
G01 X-7.7652 Y6.3632 
G01 X-6.3368 Y4.9348 
G01 X-5.9725 Y4.7839 
G01 X-5.5806 Y4.7839 
G01 X-5.5712 Y4.7893 
G01 X-5.5534 Y4.7941 
G01 X-5.5364 Y4.8011 
G01 X-5.5181 Y4.8035 
G01 X-5.5003 Y4.8083 
G01 X-5.4819 Y4.8083 
G01 X-5.4636 Y4.8107 
G01 X-5.4454 Y4.8083 
G01 X-5.4270 Y4.8083 
G01 X-5.4092 Y4.8035 
G01 X-5.3909 Y4.8011 
G01 X-5.3739 Y4.7941 
G01 X-5.3561 Y4.7893 
G01 X-5.3401 Y4.7801 
G01 X-5.3231 Y4.7731 
G01 X-5.3085 Y4.7619 
G01 X-5.2926 Y4.7526 
G01 X-5.2795 Y4.7396 
G01 X-5.2649 Y4.7284 
G01 X-5.2537 Y4.7138 
G01 X-4.5729 Y4.0329 
G01 X-4.5210 Y3.9811 
G01 X-4.4843 Y3.9175 
G01 X-4.4656 Y3.8475 
G01 X-4.4653 Y3.7733 
G01 X-4.4843 Y3.7025 
G01 X-4.5210 Y3.6389 
G01 X-5.1825 Y2.9775 
G01 X-5.2460 Y2.9408 
G01 X-5.3169 Y2.9218 
G01 X-6.5908 Y2.9218 
G01 X-6.6279 Y2.9318 
G01 X-6.6616 Y2.9408 
G01 X-6.6706 Y2.9460 
G01 X-6.7251 Y2.9775 
G01 X-6.7770 Y3.0293 
G01 X-6.8137 Y3.0929 
G01 X-6.8327 Y3.1637 
G01 X-6.8327 Y3.2371 
G01 X-6.8227 Y3.2742 
G01 X-6.8137 Y3.3079 
G01 X-6.8085 Y3.3170 
G01 X-6.7770 Y3.3715 
G01 X-6.7308 Y3.4176 
G01 X-6.5799 Y3.7820 
G01 X-6.5799 Y4.1764 
G01 X-6.7308 Y4.5408 
G01 X-8.1592 Y5.9691 
G01 X-8.5236 Y6.1201 
G01 X-8.9180 Y6.1201 
G01 X-9.2824 Y5.9691 
G01 X-9.5613 Y5.6903 
G01 X-9.7122 Y5.3259 
G01 X-9.7122 Y5.1777 
G01 X-9.7312 Y5.1068 
G01 X-9.7678 Y5.0433 
G01 X-9.8197 Y4.9914 
G01 X-9.8832 Y4.9547 
G01 X-9.9541 Y4.9357 
G01 X-10.4555 Y4.9357 
G01 X-10.5263 Y4.9547 
G01 X-10.5899 Y4.9914 
G01 X-10.6417 Y5.0433 
G01 X-10.6784 Y5.1068 
G01 X-10.6974 Y5.1777 
G01 X-10.6974 Y5.3834 
G01 X-11.1265 Y5.8126 
G01 X-11.7334 Y5.8126 
G01 X-12.1626 Y5.3834 
G01 X-12.1626 Y4.7765 
G01 X-11.7334 Y4.3474 
G01 X-11.3161 Y4.3474 
G01 X-11.2452 Y4.3284 
G01 X-11.1817 Y4.2917 
G01 X-11.1298 Y4.2399 
G01 X-11.1202 Y4.2303 
G01 X-10.9799 Y4.1721 
G01 X-9.2450 Y4.1721 
G01 X-9.1742 Y4.1532 
G01 X-9.1106 Y4.1165 
G01 X-9.0588 Y4.0646 
G01 X-8.4175 Y3.4233 
G01 X-8.3656 Y3.3715 
G01 X-8.3289 Y3.3079 
G01 X-8.3102 Y3.2379 
G01 X-8.3099 Y3.1637 
G01 X-8.3289 Y3.0929 
G01 X-8.3656 Y3.0293 
G01 X-8.4175 Y2.9775 
G01 X-8.4810 Y2.9408 
G01 X-8.5511 Y2.9220 
G01 X-36.7674 Y2.9218 
G01 X-36.8383 Y2.9408 
G01 X-36.9018 Y2.9775 
G01 X-36.9537 Y3.0293 
G01 X-36.9904 Y3.0929 
G01 X-37.0093 Y3.1637 
G01 X-37.0093 Y3.2371 
G01 X-36.9904 Y3.3079 
G01 X-36.9537 Y3.3715 
G01 X-36.9018 Y3.4233 
G01 X-36.6195 Y3.7056 
G01 X-36.4686 Y4.0700 
G01 X-36.4686 Y4.4563 
G01 X-36.4496 Y4.5271 
G01 X-36.4129 Y4.5907 
G01 X-36.3611 Y4.6425 
G01 X-36.2975 Y4.6792 
G01 X-36.2267 Y4.6982 
G01 X-20.2441 Y4.6982 
G01 X-20.1037 Y4.7563 
G01 X-18.8470 Y6.0131 
G01 X-18.7263 Y6.1337 
G01 X-18.6682 Y6.2740 
G01 X-18.6682 Y10.7679 
G01 X-18.6706 Y10.7861 
G01 X-18.6682 Y10.8044 
G01 X-18.6682 Y10.8228 
G01 X-18.6634 Y10.8406 
G01 X-18.6610 Y10.8588 
G01 X-18.6540 Y10.8758 
G01 X-18.6492 Y10.8936 
G01 X-18.6400 Y10.9096 
G01 X-18.6330 Y10.9266 
G01 X-18.6217 Y10.9412 
G01 X-18.6125 Y10.9572 
G01 X-18.5995 Y10.9702 
G01 X-18.5883 Y10.9848 
G01 X-18.5737 Y10.9960 
G01 X-18.5607 Y11.0090 
G01 X-18.5447 Y11.0183 
G01 X-18.5301 Y11.0295 
G01 X-18.5131 Y11.0365 
G01 X-18.4971 Y11.0457 
G01 X-18.4866 Y11.0485 
G01 X-18.2095 Y11.3256 
G01 X-18.0586 Y11.6900 
G01 X-18.0586 Y11.7653 
G01 X-18.0609 Y11.7799 
G01 X-18.0586 Y11.8018 
G01 X-18.0586 Y13.5982 
G01 X-18.0609 Y13.6201 
G01 X-18.0586 Y13.6346 
G01 X-18.0586 Y13.7100 
G01 X-18.2095 Y14.0744 
G01 X-18.4866 Y14.3514 
G01 X-18.4971 Y14.3543 
G01 X-18.5131 Y14.3635 
G01 X-18.5301 Y14.3705 
G01 X-18.5447 Y14.3817 
G01 X-18.5607 Y14.3910 
G01 X-18.5737 Y14.4040 
G01 X-18.5883 Y14.4152 
G01 X-18.5995 Y14.4298 
G01 X-18.6125 Y14.4428 
G01 X-18.6217 Y14.4588 
G01 X-18.6330 Y14.4734 
G01 X-18.6400 Y14.4904 
G01 X-18.6492 Y14.5063 
G01 X-18.6540 Y14.5241 
G01 X-18.6610 Y14.5412 
G01 X-18.6634 Y14.5594 
G01 X-18.6682 Y14.5772 
G01 X-18.6682 Y14.5956 
G01 X-18.6706 Y14.6139 
G01 X-18.6682 Y14.6321 
G01 X-18.6682 Y15.8479 
G01 X-18.6706 Y15.8661 
G01 X-18.6682 Y15.8844 
G01 X-18.6682 Y15.9028 
G01 X-18.6634 Y15.9206 
G01 X-18.6610 Y15.9388 
G01 X-18.6540 Y15.9558 
G01 X-18.6492 Y15.9736 
G01 X-18.6400 Y15.9896 
G01 X-18.6330 Y16.0066 
G01 X-18.6217 Y16.0212 
G01 X-18.6125 Y16.0372 
G01 X-18.5995 Y16.0502 
G01 X-18.5883 Y16.0648 
G01 X-18.5737 Y16.0760 
G01 X-18.5607 Y16.0890 
G01 X-18.5447 Y16.0983 
G01 X-18.5301 Y16.1095 
G01 X-18.5131 Y16.1165 
G01 X-18.4971 Y16.1257 
G01 X-18.4866 Y16.1285 
G01 X-18.2095 Y16.4056 
G01 X-18.0586 Y16.7700 
G01 X-18.0586 Y16.8453 
G01 X-18.0609 Y16.8599 
G01 X-18.0586 Y16.8818 
G01 X-18.0586 Y18.6782 
G01 X-18.0609 Y18.7001 
G01 X-18.0586 Y18.7146 
G01 X-18.0586 Y18.7900 
G01 X-18.2095 Y19.1544 
G01 X-18.4866 Y19.4315 
G01 X-18.4971 Y19.4343 
G01 X-18.5131 Y19.4435 
G01 X-18.5301 Y19.4505 
G01 X-18.5447 Y19.4617 
G01 X-18.5607 Y19.4709 
G01 X-18.5737 Y19.4840 
G01 X-18.5883 Y19.4952 
G01 X-18.5995 Y19.5098 
G01 X-18.6125 Y19.5228 
G01 X-18.6217 Y19.5388 
G01 X-18.6330 Y19.5534 
G01 X-18.6400 Y19.5704 
G01 X-18.6492 Y19.5863 
G01 X-18.6540 Y19.6041 
G01 X-18.6610 Y19.6212 
G01 X-18.6634 Y19.6394 
G01 X-18.6682 Y19.6572 
G01 X-18.6682 Y19.6756 
G01 X-18.6706 Y19.6939 
G01 X-18.6682 Y19.7121 
G01 X-18.6682 Y20.9279 
G01 X-18.6706 Y20.9461 
G01 X-18.6682 Y20.9644 
G01 X-18.6682 Y20.9828 
G01 X-18.6634 Y21.0006 
G01 X-18.6610 Y21.0188 
G01 X-18.6540 Y21.0358 
G01 X-18.6492 Y21.0536 
G01 X-18.6400 Y21.0696 
G01 X-18.6330 Y21.0866 
G01 X-18.6217 Y21.1012 
G01 X-18.6125 Y21.1172 
G01 X-18.5995 Y21.1302 
G01 X-18.5883 Y21.1448 
G01 X-18.5737 Y21.1560 
G01 X-18.5607 Y21.1690 
G01 X-18.5447 Y21.1783 
G01 X-18.5301 Y21.1895 
G01 X-18.5131 Y21.1965 
G01 X-18.4971 Y21.2057 
G01 X-18.4866 Y21.2085 
G01 X-18.2095 Y21.4856 
G01 X-18.0586 Y21.8500 
G01 X-18.0586 Y21.9253 
G01 X-18.0609 Y21.9399 
G01 X-18.0586 Y21.9618 
G01 X-18.0586 Y23.7582 
G01 X-18.0609 Y23.7801 
G01 X-18.0586 Y23.7947 
G01 X-18.0586 Y23.8700 
G01 X-18.2095 Y24.2344 
G01 X-18.4866 Y24.5114 
G01 X-18.4971 Y24.5143 
G01 X-18.5131 Y24.5235 
G01 X-18.5301 Y24.5305 
G01 X-18.5447 Y24.5417 
G01 X-18.5607 Y24.5510 
G01 X-18.5737 Y24.5640 
G01 X-18.5883 Y24.5752 
G01 X-18.5995 Y24.5898 
G01 X-18.6125 Y24.6028 
G01 X-18.6217 Y24.6188 
G01 X-18.6330 Y24.6334 
G01 X-18.6400 Y24.6504 
G01 X-18.6492 Y24.6664 
G01 X-18.6540 Y24.6842 
G01 X-18.6610 Y24.7012 
G01 X-18.6634 Y24.7194 
G01 X-18.6682 Y24.7372 
G01 X-18.6682 Y24.7556 
G01 X-18.6706 Y24.7739 
G01 X-18.6682 Y24.7921 
G01 X-18.6682 Y26.0079 
G01 X-18.6706 Y26.0261 
G01 X-18.6682 Y26.0444 
G01 X-18.6682 Y26.0628 
G01 X-18.6634 Y26.0806 
G01 X-18.6610 Y26.0988 
G01 X-18.6540 Y26.1158 
G01 X-18.6492 Y26.1336 
G01 X-18.6400 Y26.1496 
G01 X-18.6330 Y26.1666 
G01 X-18.6217 Y26.1812 
G01 X-18.6125 Y26.1972 
G01 X-18.5995 Y26.2102 
G01 X-18.5883 Y26.2248 
G01 X-18.5737 Y26.2360 
G01 X-18.5607 Y26.2490 
G01 X-18.5447 Y26.2583 
G01 X-18.5301 Y26.2695 
G01 X-18.5131 Y26.2765 
G01 X-18.4971 Y26.2857 
G01 X-18.4866 Y26.2885 
G01 X-18.2095 Y26.5656 
G01 X-18.0586 Y26.9300 
G01 X-18.0586 Y27.0053 
G01 X-18.0609 Y27.0199 
G01 X-18.0586 Y27.0418 
G01 X-18.0586 Y28.8382 
G01 X-18.0609 Y28.8601 
G01 X-18.0586 Y28.8746 
G01 X-18.0586 Y28.9500 
G01 X-18.2095 Y29.3144 
G01 X-18.4866 Y29.5914 
G01 X-18.4971 Y29.5943 
G01 X-18.5131 Y29.6035 
G01 X-18.5301 Y29.6105 
G01 X-18.5447 Y29.6217 
G01 X-18.5607 Y29.6309 
G01 X-18.5737 Y29.6440 
G01 X-18.5883 Y29.6552 
G01 X-18.5995 Y29.6698 
G01 X-18.6125 Y29.6828 
G01 X-18.6217 Y29.6988 
G01 X-18.6330 Y29.7134 
G01 X-18.6400 Y29.7304 
G01 X-18.6492 Y29.7463 
G01 X-18.6540 Y29.7641 
G01 X-18.6610 Y29.7812 
G01 X-18.6634 Y29.7994 
G01 X-18.6682 Y29.8172 
G01 X-18.6682 Y29.8356 
G01 X-18.6706 Y29.8539 
G01 X-18.6682 Y29.8721 
G01 X-18.6682 Y33.6663 
G01 X-18.6492 Y33.7371 
G01 X-18.6125 Y33.8007 
G01 X-18.5607 Y33.8525 
G01 X-18.4971 Y33.8892 
G01 X-18.4263 Y33.9082 
G01 X-11.6669 Y33.9082 
G01 X-11.5960 Y33.8892 
G01 X-11.5325 Y33.8525 
G01 X-11.4806 Y33.8007 
G01 X-10.5975 Y32.9175 
G01 X-10.5608 Y32.8540 
G01 X-10.5418 Y32.7831 
G01 X-10.5418 Y25.3240 
G01 X-10.4837 Y25.1837 
G01 X-4.9914 Y19.6915 
G01 X-4.9547 Y19.6279 
G01 X-4.9357 Y19.5571 
G01 X-4.9357 Y9.9541 
G01 X-4.9547 Y9.8832 
G01 X-4.9914 Y9.8197 
G01 X-5.0433 Y9.7678 
G01 X-5.1068 Y9.7312 
G01 X-5.1777 Y9.7122 
G01 X-5.3259 Y9.7122 
G01 X-5.6903 Y9.5613 
G01 X-5.9691 Y9.2824 
G01 X-6.1201 Y8.9180 
G01 X-6.1201 Y8.5236 
G01 X-5.9691 Y8.1592 
G01 X-4.5408 Y6.7308 
G01 X-4.1764 Y6.5799 
G01 X-3.7820 Y6.5799 
G01 X-3.4176 Y6.7308 
G01 X-3.1387 Y7.0097 
G01 X-2.9878 Y7.3741 
G01 X-2.9878 Y7.7685 
G01 X-3.1387 Y8.1329 
G01 X-4.1165 Y9.1106 
G01 X-4.1532 Y9.1742 
G01 X-4.1721 Y9.2450 
G01 X-4.1721 Y19.8699 
G01 X-4.2303 Y20.0102 
G01 X-9.7225 Y25.5025 
G01 X-9.7592 Y25.5660 
G01 X-9.7782 Y25.6369 
G01 X-9.7782 Y31.1263 
G01 X-9.7592 Y31.1971 
G01 X-9.7225 Y31.2607 
G01 X-9.6707 Y31.3125 
G01 X-9.6071 Y31.3492 
G01 X-9.5363 Y31.3682 
G01 X-5.7421 Y31.3682 
G01 X-5.7239 Y31.3706 
G01 X-5.7056 Y31.3682 
G01 X-5.6872 Y31.3682 
G01 X-5.6694 Y31.3634 
G01 X-5.6512 Y31.3610 
G01 X-5.6341 Y31.3540 
G01 X-5.6163 Y31.3492 
G01 X-5.6004 Y31.3400 
G01 X-5.5834 Y31.3330 
G01 X-5.5688 Y31.3217 
G01 X-5.5528 Y31.3125 
G01 X-5.5398 Y31.2995 
G01 X-5.5252 Y31.2883 
G01 X-5.5140 Y31.2737 
G01 X-5.5009 Y31.2607 
G01 X-5.4917 Y31.2447 
G01 X-5.4805 Y31.2301 
G01 X-5.4735 Y31.2131 
G01 X-5.4643 Y31.1971 
G01 X-5.4615 Y31.1866 
G01 X-5.1844 Y30.9095 
G01 X-4.8200 Y30.7586 
G01 X-2.8000 Y30.7586 
G01 X-2.4356 Y30.9095 
G01 X-2.1533 Y31.1918 
G01 X-2.1015 Y31.2437 
G01 X-2.0379 Y31.2804 
G01 X-1.9679 Y31.2991 
G01 X-1.8937 Y31.2994 
G01 X-1.8229 Y31.2804 
G01 X-1.7593 Y31.2437 
G01 X-1.7075 Y31.1918 
G01 X-1.6708 Y31.1283 
G01 X-1.6520 Y31.0582 
G01 X-1.6518 Y30.7169 
G01 X-1.6708 Y30.6460 
G01 X-1.7075 Y30.5825 
G01 X-1.7593 Y30.5306 
G01 X-2.1524 Y30.1376 
G01 X-2.1636 Y30.1229 
G01 X-2.1782 Y30.1117 
G01 X-2.1912 Y30.0987 
G01 X-2.2072 Y30.0895 
G01 X-2.2218 Y30.0783 
G01 X-2.2388 Y30.0712 
G01 X-2.2548 Y30.0620 
G01 X-2.2726 Y30.0573 
G01 X-2.2896 Y30.0502 
G01 X-2.3078 Y30.0478 
G01 X-2.3256 Y30.0430 
G01 X-2.3440 Y30.0430 
G01 X-2.3623 Y30.0406 
G01 X-2.3805 Y30.0430 
G01 X-2.3990 Y30.0430 
G01 X-2.4168 Y30.0478 
G01 X-2.4350 Y30.0502 
G01 X-2.4520 Y30.0573 
G01 X-2.4698 Y30.0620 
G01 X-2.4858 Y30.0712 
G01 X-2.8000 Y30.2014 
G01 X-4.8200 Y30.2014 
G01 X-5.1844 Y30.0505 
G01 X-5.4633 Y29.7716 
G01 X-5.6142 Y29.4072 
G01 X-5.6142 Y29.0128 
G01 X-5.4633 Y28.6484 
G01 X-5.1844 Y28.3695 
G01 X-4.8200 Y28.2186 
G01 X-2.8000 Y28.2186 
G01 X-2.4858 Y28.3487 
G01 X-2.4698 Y28.3580 
G01 X-2.4520 Y28.3627 
G01 X-2.4350 Y28.3698 
G01 X-2.4168 Y28.3722 
G01 X-2.3990 Y28.3769 
G01 X-2.3805 Y28.3769 
G01 X-2.3623 Y28.3793 
G01 X-2.3440 Y28.3769 
G01 X-2.3256 Y28.3769 
G01 X-2.3078 Y28.3722 
G01 X-2.2896 Y28.3698 
G01 X-2.2725 Y28.3627 
G01 X-2.2548 Y28.3580 
G01 X-2.2388 Y28.3488 
G01 X-2.2218 Y28.3417 
G01 X-2.2072 Y28.3305 
G01 X-2.1912 Y28.3213 
G01 X-2.1782 Y28.3083 
G01 X-2.1636 Y28.2970 
G01 X-2.1524 Y28.2824 
G01 X-1.7075 Y27.8375 
G01 X-1.6708 Y27.7740 
G01 X-1.6518 Y27.7031 
G01 X-1.6518 Y27.3626 
G01 X-1.6708 Y27.2917 
G01 X-1.7075 Y27.2282 
G01 X-1.7593 Y27.1763 
G01 X-1.8229 Y27.1396 
G01 X-1.8937 Y27.1206 
G01 X-1.9671 Y27.1206 
G01 X-2.0379 Y27.1396 
G01 X-2.1015 Y27.1763 
G01 X-2.1533 Y27.2282 
G01 X-2.4356 Y27.5105 
G01 X-2.8000 Y27.6614 
G01 X-4.8200 Y27.6614 
G01 X-5.1844 Y27.5105 
G01 X-5.4615 Y27.2334 
G01 X-5.4643 Y27.2229 
G01 X-5.4735 Y27.2069 
G01 X-5.4805 Y27.1899 
G01 X-5.4917 Y27.1753 
G01 X-5.5009 Y27.1593 
G01 X-5.5140 Y27.1463 
G01 X-5.5252 Y27.1317 
G01 X-5.5398 Y27.1205 
G01 X-5.5528 Y27.1075 
G01 X-5.5688 Y27.0983 
G01 X-5.5834 Y27.0870 
G01 X-5.6004 Y27.0800 
G01 X-5.6163 Y27.0708 
G01 X-5.6341 Y27.0660 
G01 X-5.6512 Y27.0590 
G01 X-5.6694 Y27.0566 
G01 X-5.6872 Y27.0518 
G01 X-5.7056 Y27.0518 
G01 X-5.7239 Y27.0494 
G01 X-5.7421 Y27.0518 
G01 X-6.8870 Y27.0518 
G01 X-6.9579 Y27.0708 
G01 X-7.0214 Y27.1075 
G01 X-7.0733 Y27.1593 
G01 X-7.3165 Y27.4026 
G01 X-7.9234 Y27.4026 
G01 X-8.3526 Y26.9734 
G01 X-8.3526 Y26.3665 
G01 X-7.9234 Y25.9374 
G01 X-7.3165 Y25.9374 
G01 X-7.0214 Y26.2325 
G01 X-6.9579 Y26.2692 
G01 X-6.8870 Y26.2882 
G01 X-5.7421 Y26.2882 
G01 X-5.7239 Y26.2906 
G01 X-5.7056 Y26.2882 
G01 X-5.6872 Y26.2882 
G01 X-5.6694 Y26.2834 
G01 X-5.6512 Y26.2810 
G01 X-5.6341 Y26.2740 
G01 X-5.6163 Y26.2692 
G01 X-5.6004 Y26.2600 
G01 X-5.5834 Y26.2530 
G01 X-5.5688 Y26.2417 
G01 X-5.5528 Y26.2325 
G01 X-5.5398 Y26.2195 
G01 X-5.5252 Y26.2083 
G01 X-5.5140 Y26.1937 
G01 X-5.5009 Y26.1807 
G01 X-5.4917 Y26.1647 
G01 X-5.4805 Y26.1501 
G01 X-5.4735 Y26.1331 
G01 X-5.4643 Y26.1171 
G01 X-5.4615 Y26.1066 
G01 X-5.1844 Y25.8295 
G01 X-4.8200 Y25.6786 
G01 X-2.8000 Y25.6786 
G01 X-2.4356 Y25.8295 
G01 X-2.1533 Y26.1118 
G01 X-2.1015 Y26.1637 
G01 X-2.0379 Y26.2004 
G01 X-1.9679 Y26.2191 
G01 X-1.8937 Y26.2193 
G01 X-1.8229 Y26.2004 
G01 X-1.7593 Y26.1637 
G01 X-1.7075 Y26.1118 
G01 X-1.6708 Y26.0483 
G01 X-1.6520 Y25.9782 
G01 X-1.6518 Y6.5869 
G01 X-1.6708 Y6.5160 
G01 X-1.7075 Y6.4525 
G00 Z2.5400 
G00 X-3.2893 Y7.0051 
G01 Z-0.1778 F254.00 
G01 X-3.4130 Y6.8814 F508.00 
G01 X-3.5585 Y6.7842 
G01 X-3.7201 Y6.7172 
G01 X-3.8917 Y6.6831 
G01 X-4.0667 Y6.6831 
G01 X-4.2383 Y6.7172 
G01 X-4.3999 Y6.7842 
G01 X-4.5454 Y6.8814 
G01 X-5.8186 Y8.1546 
G01 X-5.9158 Y8.3001 
G01 X-5.9827 Y8.4617 
G01 X-6.0169 Y8.6333 
G01 X-6.0169 Y8.8083 
G01 X-5.9827 Y8.9799 
G01 X-5.9158 Y9.1415 
G01 X-5.8186 Y9.2870 
G01 X-5.6949 Y9.4107 
G01 X-5.5494 Y9.5079 
G01 X-5.3878 Y9.5748 
G01 X-5.2162 Y9.6090 
G01 X-5.0412 Y9.6090 
G01 X-4.8696 Y9.5748 
G01 X-4.8325 Y9.5595 
G01 X-4.8325 Y19.6785 
G01 X-10.3311 Y25.1771 
G01 X-10.3829 Y25.2289 
G01 X-10.4196 Y25.2925 
G01 X-10.4386 Y25.3633 
G01 X-10.4386 Y32.9046 
G01 X-11.5454 Y34.0114 
G01 X-18.7714 Y34.0114 
G01 X-18.7714 Y29.5988 
G01 X-18.6293 Y29.5399 
G01 X-18.4838 Y29.4427 
G01 X-18.3601 Y29.3190 
G01 X-18.2629 Y29.1735 
G01 X-18.1959 Y29.0119 
G01 X-18.1618 Y28.8403 
G01 X-18.1618 Y27.0397 
G01 X-18.1959 Y26.8681 
G01 X-18.2629 Y26.7065 
G01 X-18.3601 Y26.5610 
G01 X-18.4838 Y26.4373 
G01 X-18.6293 Y26.3401 
G01 X-18.7714 Y26.2812 
G01 X-18.7714 Y24.5188 
G01 X-18.6293 Y24.4599 
G01 X-18.4838 Y24.3627 
G01 X-18.3601 Y24.2390 
G01 X-18.2629 Y24.0935 
G01 X-18.1959 Y23.9319 
G01 X-18.1618 Y23.7603 
G01 X-18.1618 Y21.9597 
G01 X-18.1959 Y21.7881 
G01 X-18.2629 Y21.6265 
G01 X-18.3601 Y21.4810 
G01 X-18.4838 Y21.3573 
G01 X-18.6293 Y21.2601 
G01 X-18.7714 Y21.2012 
G01 X-18.7714 Y19.4388 
G01 X-18.6293 Y19.3799 
G01 X-18.4838 Y19.2827 
G01 X-18.3601 Y19.1590 
G01 X-18.2629 Y19.0135 
G01 X-18.1959 Y18.8519 
G01 X-18.1618 Y18.6803 
G01 X-18.1618 Y16.8797 
G01 X-18.1959 Y16.7081 
G01 X-18.2629 Y16.5465 
G01 X-18.3601 Y16.4010 
G01 X-18.4838 Y16.2773 
G01 X-18.6293 Y16.1801 
G01 X-18.7714 Y16.1212 
G01 X-18.7714 Y14.3588 
G01 X-18.6293 Y14.2999 
G01 X-18.4838 Y14.2027 
G01 X-18.3601 Y14.0790 
G01 X-18.2629 Y13.9335 
G01 X-18.1959 Y13.7719 
G01 X-18.1618 Y13.6003 
G01 X-18.1618 Y11.7997 
G01 X-18.1959 Y11.6281 
G01 X-18.2629 Y11.4665 
G01 X-18.3601 Y11.3210 
G01 X-18.4838 Y11.1973 
G01 X-18.6293 Y11.1001 
G01 X-18.7714 Y11.0412 
G01 X-18.7714 Y6.3133 
G01 X-18.7904 Y6.2425 
G01 X-18.8271 Y6.1789 
G01 X-18.8789 Y6.1271 
G01 X-20.1489 Y4.8571 
G01 X-20.2125 Y4.8204 
G01 X-20.2833 Y4.8014 
G01 X-36.5718 Y4.8014 
G01 X-36.5718 Y4.1797 
G01 X-36.6059 Y4.0081 
G01 X-36.6729 Y3.8465 
G01 X-36.7701 Y3.7010 
G01 X-36.8938 Y3.5773 
G01 X-37.0393 Y3.4801 
G01 X-37.2009 Y3.4131 
G01 X-37.3725 Y3.3790 
G01 X-37.5475 Y3.3790 
G01 X-37.7191 Y3.4131 
G01 X-37.8807 Y3.4801 
G01 X-38.0262 Y3.5773 
G01 X-38.1499 Y3.7010 
G01 X-38.2471 Y3.8465 
G01 X-38.3141 Y4.0081 
G01 X-38.3482 Y4.1797 
G01 X-38.3482 Y5.9803 
G01 X-38.3141 Y6.1519 
G01 X-38.2471 Y6.3135 
G01 X-38.1499 Y6.4590 
G01 X-38.0262 Y6.5827 
G01 X-37.8807 Y6.6799 
G01 X-37.7191 Y6.7469 
G01 X-37.5475 Y6.7810 
G01 X-37.3725 Y6.7810 
G01 X-37.2009 Y6.7469 
G01 X-37.0393 Y6.6799 
G01 X-36.8938 Y6.5827 
G01 X-36.7701 Y6.4590 
G01 X-36.6729 Y6.3135 
G01 X-36.6059 Y6.1519 
G01 X-36.5718 Y5.9803 
G01 X-36.5718 Y5.3586 
G01 X-20.4354 Y5.3586 
G01 X-19.3286 Y6.4654 
G01 X-19.3286 Y11.0412 
G01 X-19.4707 Y11.1001 
G01 X-19.6162 Y11.1973 
G01 X-19.7399 Y11.3210 
G01 X-19.8371 Y11.4665 
G01 X-19.9041 Y11.6281 
G01 X-19.9382 Y11.7997 
G01 X-19.9382 Y13.6003 
G01 X-19.9041 Y13.7719 
G01 X-19.8371 Y13.9335 
G01 X-19.7399 Y14.0790 
G01 X-19.6162 Y14.2027 
G01 X-19.4707 Y14.2999 
G01 X-19.3286 Y14.3588 
G01 X-19.3286 Y16.1212 
G01 X-19.4707 Y16.1801 
G01 X-19.6162 Y16.2773 
G01 X-19.7399 Y16.4010 
G01 X-19.8371 Y16.5465 
G01 X-19.9041 Y16.7081 
G01 X-19.9382 Y16.8797 
G01 X-19.9382 Y18.6803 
G01 X-19.9041 Y18.8519 
G01 X-19.8371 Y19.0135 
G01 X-19.7399 Y19.1590 
G01 X-19.6162 Y19.2827 
G01 X-19.4707 Y19.3799 
G01 X-19.3286 Y19.4388 
G01 X-19.3286 Y21.2012 
G01 X-19.4707 Y21.2601 
G01 X-19.6162 Y21.3573 
G01 X-19.7399 Y21.4810 
G01 X-19.8371 Y21.6265 
G01 X-19.9041 Y21.7881 
G01 X-19.9382 Y21.9597 
G01 X-19.9382 Y23.7603 
G01 X-19.9041 Y23.9319 
G01 X-19.8371 Y24.0935 
G01 X-19.7399 Y24.2390 
G01 X-19.6162 Y24.3627 
G01 X-19.4707 Y24.4599 
G01 X-19.3286 Y24.5188 
G01 X-19.3286 Y26.2812 
G01 X-19.4707 Y26.3401 
G01 X-19.6162 Y26.4373 
G01 X-19.7399 Y26.5610 
G01 X-19.8371 Y26.7065 
G01 X-19.9041 Y26.8681 
G01 X-19.9382 Y27.0397 
G01 X-19.9382 Y28.8403 
G01 X-19.9041 Y29.0119 
G01 X-19.8371 Y29.1735 
G01 X-19.7399 Y29.3190 
G01 X-19.6162 Y29.4427 
G01 X-19.4707 Y29.5399 
G01 X-19.3286 Y29.5988 
G01 X-19.3286 Y34.0114 
G01 X-21.6267 Y34.0114 
G01 X-21.6975 Y34.0304 
G01 X-21.7611 Y34.0671 
G01 X-21.8129 Y34.1189 
G01 X-23.0311 Y35.3371 
G01 X-23.0829 Y35.3889 
G01 X-23.1196 Y35.4525 
G01 X-23.1386 Y35.5233 
G01 X-23.1386 Y43.0646 
G01 X-24.2454 Y44.1714 
G01 X-44.4867 Y44.1714 
G01 X-44.5575 Y44.1904 
G01 X-44.6211 Y44.2271 
G01 X-45.9429 Y45.5489 
G01 X-45.9796 Y45.6125 
G01 X-45.9986 Y45.6833 
G01 X-45.9986 Y55.2685 
G01 X-46.3494 Y55.6193 
G01 X-46.3494 Y56.1407 
G01 X-45.9807 Y56.5094 
G01 X-45.4593 Y56.5094 
G01 X-45.1085 Y56.1586 
G01 X-43.4282 Y56.1586 
G01 X-43.4282 Y56.7803 
G01 X-43.3941 Y56.9519 
G01 X-43.3271 Y57.1135 
G01 X-43.2299 Y57.2590 
G01 X-43.1062 Y57.3827 
G01 X-42.9607 Y57.4799 
G01 X-42.7991 Y57.5469 
G01 X-42.6275 Y57.5810 
G01 X-42.4525 Y57.5810 
G01 X-42.2809 Y57.5469 
G01 X-42.1193 Y57.4799 
G01 X-41.9738 Y57.3827 
G01 X-41.8501 Y57.2590 
G01 X-41.7529 Y57.1135 
G01 X-41.6859 Y56.9519 
G01 X-41.6518 Y56.7803 
G01 X-41.6518 Y54.9797 
G01 X-41.6859 Y54.8081 
G01 X-41.7529 Y54.6465 
G01 X-41.8501 Y54.5010 
G01 X-41.9738 Y54.3773 
G01 X-42.1193 Y54.2801 
G01 X-42.2809 Y54.2131 
G01 X-42.4525 Y54.1790 
G01 X-42.6275 Y54.1790 
G01 X-42.7991 Y54.2131 
G01 X-42.9607 Y54.2801 
G01 X-43.1062 Y54.3773 
G01 X-43.2299 Y54.5010 
G01 X-43.3271 Y54.6465 
G01 X-43.3941 Y54.8081 
G01 X-43.4282 Y54.9797 
G01 X-43.4282 Y55.6014 
G01 X-45.1085 Y55.6014 
G01 X-45.4414 Y55.2685 
G01 X-45.4414 Y45.8354 
G01 X-44.3346 Y44.7286 
G01 X-24.1667 Y44.7286 
G01 X-24.0933 Y44.7286 
G01 X-24.0225 Y44.7096 
G01 X-23.9589 Y44.6729 
G01 X-22.6889 Y43.4029 
G01 X-22.6371 Y43.3511 
G01 X-22.6004 Y43.2875 
G01 X-22.5814 Y43.2167 
G01 X-22.5814 Y35.6754 
G01 X-21.4746 Y34.5686 
G01 X-11.3933 Y34.5686 
G01 X-11.3225 Y34.5496 
G01 X-11.2589 Y34.5129 
G01 X-9.9889 Y33.2429 
G01 X-9.9371 Y33.1911 
G01 X-9.9004 Y33.1275 
G01 X-9.8814 Y33.0567 
G01 X-9.8814 Y32.0286 
G01 X-5.4688 Y32.0286 
G01 X-5.4099 Y32.1707 
G01 X-5.3127 Y32.3162 
G01 X-5.1890 Y32.4399 
G01 X-5.0435 Y32.5371 
G01 X-4.8819 Y32.6041 
G01 X-4.7103 Y32.6382 
G01 X-4.0886 Y32.6382 
G01 X-4.0886 Y45.6046 
G01 X-10.3829 Y51.8989 
G01 X-10.4196 Y51.9625 
G01 X-10.4386 Y52.0333 
G01 X-10.4386 Y53.3767 
G01 X-10.4196 Y53.4475 
G01 X-10.3829 Y53.5111 
G01 X-10.3311 Y53.5629 
G01 X-10.2675 Y53.5996 
G01 X-10.1967 Y53.6186 
G01 X-10.0575 Y53.6186 
G01 X-9.5160 Y54.1601 
G01 X-9.5748 Y54.3022 
G01 X-9.6090 Y54.4738 
G01 X-9.6090 Y54.6488 
G01 X-9.5748 Y54.8204 
G01 X-9.5079 Y54.9820 
G01 X-9.4107 Y55.1275 
G01 X-8.1375 Y56.4007 
G01 X-7.9920 Y56.4979 
G01 X-7.8304 Y56.5648 
G01 X-7.6588 Y56.5990 
G01 X-7.4838 Y56.5990 
G01 X-7.3122 Y56.5648 
G01 X-7.1506 Y56.4979 
G01 X-7.0051 Y56.4007 
G01 X-6.8814 Y56.2770 
G01 X-6.7842 Y56.1315 
G01 X-6.7172 Y55.9699 
G01 X-6.6831 Y55.7983 
G01 X-6.6831 Y55.6233 
G01 X-6.7172 Y55.4517 
G01 X-6.7842 Y55.2901 
G01 X-6.8814 Y55.1446 
G01 X-8.1546 Y53.8714 
G01 X-8.3001 Y53.7742 
G01 X-8.4617 Y53.7073 
G01 X-8.6333 Y53.6731 
G01 X-8.8083 Y53.6731 
G01 X-8.9799 Y53.7073 
G01 X-9.1220 Y53.7661 
G01 X-9.7710 Y53.1171 
G01 X-9.8346 Y53.0804 
G01 X-9.8814 Y53.0678 
G01 X-9.8814 Y52.1854 
G01 X-3.5871 Y45.8911 
G01 X-3.5504 Y45.8275 
G01 X-3.5314 Y45.7567 
G01 X-3.5314 Y32.6382 
G01 X-2.9097 Y32.6382 
G01 X-2.7381 Y32.6041 
G01 X-2.5765 Y32.5371 
G01 X-2.4310 Y32.4399 
G01 X-2.3073 Y32.3162 
G01 X-2.2101 Y32.1707 
G01 X-2.1431 Y32.0091 
G01 X-2.1090 Y31.8375 
G01 X-2.1090 Y31.6625 
G01 X-2.1431 Y31.4909 
G01 X-2.2101 Y31.3293 
G01 X-2.3073 Y31.1838 
G01 X-2.4310 Y31.0601 
G01 X-2.5765 Y30.9629 
G01 X-2.7381 Y30.8959 
G01 X-2.9097 Y30.8618 
G01 X-4.7103 Y30.8618 
G01 X-4.8819 Y30.8959 
G01 X-5.0435 Y30.9629 
G01 X-5.1890 Y31.0601 
G01 X-5.3127 Y31.1838 
G01 X-5.4099 Y31.3293 
G01 X-5.4688 Y31.4714 
G01 X-9.8814 Y31.4714 
G01 X-9.8814 Y25.5154 
G01 X-4.3310 Y19.9650 
G01 X-4.2943 Y19.9015 
G01 X-4.2753 Y19.8306 
G01 X-4.2753 Y9.1236 
G01 X-3.2893 Y8.1375 
G01 X-3.1921 Y7.9920 
G01 X-3.1251 Y7.8304 
G01 X-3.0910 Y7.6588 
G01 X-3.0910 Y7.4838 
G01 X-3.1251 Y7.3122 
G01 X-3.1921 Y7.1506 
G01 X-3.2893 Y7.0051 
G00 Z2.5400 
G00 X-8.1546 Y5.8186 
G01 Z-0.1778 F254.00 
G01 X-6.8814 Y4.5454 F508.00 
G01 X-6.7842 Y4.3999 
G01 X-6.7172 Y4.2383 
G01 X-6.6831 Y4.0667 
G01 X-6.6831 Y3.8917 
G01 X-6.7172 Y3.7201 
G01 X-6.7842 Y3.5585 
G01 X-6.8814 Y3.4130 
G01 X-7.0051 Y3.2893 
G01 X-7.1506 Y3.1921 
G01 X-7.3122 Y3.1251 
G01 X-7.4838 Y3.0910 
G01 X-7.6588 Y3.0910 
G01 X-7.8304 Y3.1251 
G01 X-7.9920 Y3.1921 
G01 X-8.1375 Y3.2893 
G01 X-9.1236 Y4.2753 
G01 X-10.9406 Y4.2753 
G01 X-11.0115 Y4.2943 
G01 X-11.0750 Y4.3310 
G01 X-11.1946 Y4.4506 
G01 X-11.6907 Y4.4506 
G01 X-12.0594 Y4.8193 
G01 X-12.0594 Y5.3407 
G01 X-11.6907 Y5.7094 
G01 X-11.1693 Y5.7094 
G01 X-10.8006 Y5.3407 
G01 X-10.8006 Y4.8446 
G01 X-10.7885 Y4.8325 
G01 X-9.5595 Y4.8325 
G01 X-9.5748 Y4.8696 
G01 X-9.6090 Y5.0412 
G01 X-9.6090 Y5.2162 
G01 X-9.5748 Y5.3878 
G01 X-9.5079 Y5.5494 
G01 X-9.4107 Y5.6949 
G01 X-9.2870 Y5.8186 
G01 X-9.1415 Y5.9158 
G01 X-8.9799 Y5.9827 
G01 X-8.8083 Y6.0169 
G01 X-8.6333 Y6.0169 
G01 X-8.4617 Y5.9827 
G01 X-8.3001 Y5.9158 
G01 X-8.1546 Y5.8186 
G00 Z2.5400 
G00 X-12.9314 Y1.8016 
G01 Z-0.1778 F254.00 
G01 X-12.8817 Y1.7518 F508.00 
G01 X-12.8547 Y1.6867 
G01 X-12.8547 Y1.5068 
G01 X-12.8298 Y1.4965 
G01 X-12.7800 Y1.4467 
G01 X-12.7530 Y1.3817 
G01 X-12.7530 Y1.3113 
G01 X-12.7800 Y1.2462 
G01 X-12.8298 Y1.1964 
G01 X-12.8547 Y1.1861 
G01 X-12.8547 Y1.0062 
G01 X-12.8817 Y0.9411 
G01 X-12.9314 Y0.8913 
G01 X-12.9965 Y0.8644 
G01 X-13.0669 Y0.8644 
G01 X-13.1320 Y0.8913 
G01 X-13.1818 Y0.9411 
G01 X-13.2087 Y1.0062 
G01 X-13.2087 Y1.1695 
G01 X-13.3720 Y1.1695 
G01 X-13.4370 Y1.1964 
G01 X-13.4868 Y1.2462 
G01 X-13.5138 Y1.3113 
G01 X-13.5138 Y1.3817 
G01 X-13.4868 Y1.4467 
G01 X-13.4370 Y1.4965 
G01 X-13.1320 Y1.8016 
G01 X-13.0669 Y1.8285 
G01 X-12.9965 Y1.8285 
G01 X-12.9314 Y1.8016 
G00 Z2.5400 
G00 X-13.7815 Y1.8016 
G01 Z-0.1778 F254.00 
G01 X-13.7318 Y1.7518 F508.00 
G01 X-13.7048 Y1.6867 
G01 X-13.7048 Y1.2184 
G01 X-13.6432 Y1.2184 
G01 X-13.5782 Y1.1914 
G01 X-13.5284 Y1.1417 
G01 X-13.5014 Y1.0766 
G01 X-13.5014 Y1.0062 
G01 X-13.5284 Y0.9411 
G01 X-13.5782 Y0.8913 
G01 X-13.6432 Y0.8644 
G01 X-14.1204 Y0.8644 
G01 X-14.1854 Y0.8913 
G01 X-14.2352 Y0.9411 
G01 X-14.2622 Y1.0062 
G01 X-14.2622 Y1.0766 
G01 X-14.2352 Y1.1417 
G01 X-14.1854 Y1.1914 
G01 X-14.1204 Y1.2184 
G01 X-14.0588 Y1.2184 
G01 X-14.0588 Y1.2711 
G01 X-14.1204 Y1.2711 
G01 X-14.1854 Y1.2981 
G01 X-14.2352 Y1.3479 
G01 X-14.2551 Y1.3959 
G01 X-14.4663 Y0.9735 
G01 X-14.4734 Y0.9520 
G01 X-14.4819 Y0.9423 
G01 X-14.4877 Y0.9307 
G01 X-14.5048 Y0.9159 
G01 X-14.5196 Y0.8988 
G01 X-14.5311 Y0.8931 
G01 X-14.5409 Y0.8846 
G01 X-14.5623 Y0.8775 
G01 X-14.5826 Y0.8673 
G01 X-14.5954 Y0.8664 
G01 X-14.6077 Y0.8623 
G01 X-14.6302 Y0.8640 
G01 X-14.6528 Y0.8623 
G01 X-14.6650 Y0.8664 
G01 X-14.6779 Y0.8673 
G01 X-14.6981 Y0.8775 
G01 X-14.7196 Y0.8846 
G01 X-14.7293 Y0.8931 
G01 X-14.7409 Y0.8988 
G01 X-14.7557 Y0.9159 
G01 X-14.7728 Y0.9308 
G01 X-14.7786 Y0.9423 
G01 X-14.7870 Y0.9520 
G01 X-14.7942 Y0.9735 
G01 X-15.0077 Y1.4005 
G01 X-15.0126 Y1.4707 
G01 X-14.9904 Y1.5375 
G01 X-14.9442 Y1.5907 
G01 X-14.8813 Y1.6222 
G01 X-14.8110 Y1.6272 
G01 X-14.7442 Y1.6049 
G01 X-14.6910 Y1.5588 
G01 X-14.6302 Y1.4372 
G01 X-14.5694 Y1.5588 
G01 X-14.5162 Y1.6049 
G01 X-14.4494 Y1.6272 
G01 X-14.3792 Y1.6222 
G01 X-14.3162 Y1.5907 
G01 X-14.2701 Y1.5375 
G01 X-14.2565 Y1.4969 
G01 X-14.2352 Y1.5484 
G01 X-14.0319 Y1.7518 
G01 X-13.9821 Y1.8016 
G01 X-13.9170 Y1.8285 
G01 X-13.8466 Y1.8285 
G01 X-13.7815 Y1.8016 
G00 Z2.5400 
G00 X-19.4875 Y6.4525 
G01 Z-0.1778 F254.00 
G01 X-19.5393 Y6.4006 F508.00 
G01 X-20.4225 Y5.5175 
G01 X-20.4860 Y5.4808 
G01 X-20.5569 Y5.4618 
G01 X-36.2267 Y5.4618 
G01 X-36.2975 Y5.4808 
G01 X-36.3611 Y5.5175 
G01 X-36.4129 Y5.5693 
G01 X-36.4496 Y5.6329 
G01 X-36.4686 Y5.7037 
G01 X-36.4686 Y6.0900 
G01 X-36.6195 Y6.4544 
G01 X-36.8984 Y6.7333 
G01 X-37.2628 Y6.8842 
G01 X-37.6572 Y6.8842 
G01 X-38.0216 Y6.7333 
G01 X-38.3005 Y6.4544 
G01 X-38.4514 Y6.0900 
G01 X-38.4514 Y4.0700 
G01 X-38.3005 Y3.7056 
G01 X-38.0182 Y3.4233 
G01 X-37.9663 Y3.3715 
G01 X-37.9296 Y3.3079 
G01 X-37.9109 Y3.2379 
G01 X-37.9106 Y3.1637 
G01 X-37.9296 Y3.0929 
G01 X-37.9663 Y3.0293 
G01 X-38.0182 Y2.9775 
G01 X-38.0817 Y2.9408 
G01 X-38.1518 Y2.9220 
G01 X-39.1231 Y2.9218 
G01 X-39.1940 Y2.9408 
G01 X-39.2575 Y2.9775 
G01 X-39.3094 Y3.0293 
G01 X-39.3497 Y3.0696 
G01 X-39.4004 Y3.1204 
G01 X-39.4382 Y3.1850 
G01 X-39.4519 Y3.2361 
G01 X-39.4572 Y3.2559 
G01 X-39.4572 Y3.3292 
G01 X-39.4382 Y3.4001 
G01 X-39.4015 Y3.4636 
G01 X-39.3505 Y3.5147 
G01 X-39.1595 Y3.7056 
G01 X-39.0086 Y4.0700 
G01 X-39.0086 Y6.0900 
G01 X-39.1595 Y6.4544 
G01 X-39.4366 Y6.7314 
G01 X-39.4471 Y6.7343 
G01 X-39.4631 Y6.7435 
G01 X-39.4801 Y6.7505 
G01 X-39.4947 Y6.7617 
G01 X-39.5107 Y6.7710 
G01 X-39.5237 Y6.7840 
G01 X-39.5383 Y6.7952 
G01 X-39.5495 Y6.8098 
G01 X-39.5625 Y6.8228 
G01 X-39.5717 Y6.8388 
G01 X-39.5830 Y6.8534 
G01 X-39.5900 Y6.8704 
G01 X-39.5992 Y6.8864 
G01 X-39.6040 Y6.9041 
G01 X-39.6110 Y6.9212 
G01 X-39.6134 Y6.9394 
G01 X-39.6182 Y6.9572 
G01 X-39.6182 Y6.9756 
G01 X-39.6206 Y6.9939 
G01 X-39.6182 Y7.0121 
G01 X-39.6182 Y8.3259 
G01 X-39.6763 Y8.4663 
G01 X-40.3031 Y9.0930 
G01 X-40.4237 Y9.2137 
G01 X-40.5641 Y9.2718 
G01 X-44.4632 Y9.2718 
G01 X-44.4815 Y9.2694 
G01 X-44.4997 Y9.2718 
G01 X-44.5181 Y9.2718 
G01 X-44.5359 Y9.2766 
G01 X-44.5542 Y9.2790 
G01 X-44.5712 Y9.2860 
G01 X-44.5890 Y9.2908 
G01 X-44.6049 Y9.3000 
G01 X-44.6219 Y9.3070 
G01 X-44.6366 Y9.3183 
G01 X-44.6525 Y9.3275 
G01 X-44.6655 Y9.3405 
G01 X-44.6801 Y9.3517 
G01 X-44.6914 Y9.3663 
G01 X-44.7044 Y9.3793 
G01 X-44.7136 Y9.3953 
G01 X-44.7248 Y9.4099 
G01 X-44.7318 Y9.4269 
G01 X-44.7411 Y9.4429 
G01 X-44.7458 Y9.4607 
G01 X-44.7719 Y9.5235 
G01 X-45.0865 Y9.8381 
G01 X-45.2319 Y9.8984 
G01 X-45.2564 Y9.9063 
G01 X-45.2657 Y9.9124 
G01 X-45.2759 Y9.9166 
G01 X-45.2963 Y9.9323 
G01 X-45.3179 Y9.9463 
G01 X-45.3254 Y9.9545 
G01 X-45.3341 Y9.9613 
G01 X-45.3498 Y9.9817 
G01 X-45.3670 Y10.0008 
G01 X-45.3720 Y10.0107 
G01 X-45.3788 Y10.0195 
G01 X-45.3886 Y10.0432 
G01 X-45.4003 Y10.0662 
G01 X-45.4026 Y10.0770 
G01 X-45.4069 Y10.0872 
G01 X-45.4102 Y10.1127 
G01 X-45.4156 Y10.1379 
G01 X-45.4150 Y10.1490 
G01 X-45.4164 Y10.1600 
G01 X-45.4131 Y10.1855 
G01 X-45.4117 Y10.2112 
G01 X-45.4083 Y10.2217 
G01 X-45.4069 Y10.2327 
G01 X-45.3970 Y10.2565 
G01 X-45.3891 Y10.2809 
G01 X-45.3830 Y10.2902 
G01 X-45.3788 Y10.3005 
G01 X-45.3631 Y10.3209 
G01 X-45.3491 Y10.3425 
G01 X-45.3409 Y10.3499 
G01 X-45.3341 Y10.3587 
G01 X-45.3137 Y10.3743 
G01 X-45.2946 Y10.3915 
G01 X-45.2847 Y10.3966 
G01 X-45.2759 Y10.4033 
G01 X-45.2522 Y10.4132 
G01 X-45.1338 Y10.4735 
G01 X-44.9914 Y10.5769 
G01 X-44.8669 Y10.7014 
G01 X-44.7635 Y10.8438 
G01 X-44.6835 Y11.0007 
G01 X-44.6346 Y11.1514 
G01 X-44.7403 Y11.1514 
G01 X-44.7438 Y11.1339 
G01 X-44.8203 Y10.9491 
G01 X-44.9314 Y10.7828 
G01 X-45.0728 Y10.6414 
G01 X-45.2391 Y10.5303 
G01 X-45.4239 Y10.4538 
G01 X-45.6200 Y10.4148 
G01 X-45.8200 Y10.4148 
G01 X-46.0161 Y10.4538 
G01 X-46.2009 Y10.5303 
G01 X-46.3672 Y10.6414 
G01 X-46.5086 Y10.7828 
G01 X-46.6197 Y10.9491 
G01 X-46.6962 Y11.1339 
G01 X-46.7352 Y11.3300 
G01 X-46.7352 Y11.5300 
G01 X-46.6962 Y11.7261 
G01 X-46.6197 Y11.9109 
G01 X-46.5086 Y12.0771 
G01 X-46.3672 Y12.2186 
G01 X-46.2009 Y12.3297 
G01 X-46.0161 Y12.4062 
G01 X-45.9986 Y12.4097 
G01 X-45.9986 Y12.5154 
G01 X-46.1493 Y12.4665 
G01 X-46.3062 Y12.3865 
G01 X-46.4486 Y12.2831 
G01 X-46.5731 Y12.1586 
G01 X-46.6765 Y12.0162 
G01 X-46.7565 Y11.8593 
G01 X-46.8109 Y11.6919 
G01 X-46.8384 Y11.5180 
G01 X-46.8384 Y11.4799 
G01 X-46.8360 Y11.4617 
G01 X-46.8384 Y11.4434 
G01 X-46.8384 Y11.4250 
G01 X-46.8432 Y11.4072 
G01 X-46.8456 Y11.3889 
G01 X-46.8526 Y11.3719 
G01 X-46.8574 Y11.3541 
G01 X-46.8666 Y11.3382 
G01 X-46.8736 Y11.3212 
G01 X-46.8848 Y11.3066 
G01 X-46.8941 Y11.2906 
G01 X-46.9071 Y11.2776 
G01 X-46.9183 Y11.2630 
G01 X-46.9329 Y11.2518 
G01 X-46.9459 Y11.2387 
G01 X-46.9619 Y11.2295 
G01 X-46.9765 Y11.2183 
G01 X-46.9935 Y11.2113 
G01 X-47.0095 Y11.2021 
G01 X-47.0273 Y11.1973 
G01 X-47.0443 Y11.1902 
G01 X-47.0625 Y11.1878 
G01 X-47.0803 Y11.1831 
G01 X-47.0987 Y11.1831 
G01 X-47.1170 Y11.1807 
G01 X-47.1352 Y11.1831 
G01 X-47.1537 Y11.1831 
G01 X-47.1715 Y11.1878 
G01 X-47.1897 Y11.1902 
G01 X-47.2067 Y11.1973 
G01 X-47.2245 Y11.2021 
G01 X-47.2405 Y11.2113 
G01 X-47.4025 Y11.2784 
G01 X-47.8475 Y11.2784 
G01 X-48.2585 Y11.1081 
G01 X-48.5731 Y10.7935 
G01 X-48.5992 Y10.7307 
G01 X-48.6039 Y10.7129 
G01 X-48.6131 Y10.6969 
G01 X-48.6202 Y10.6799 
G01 X-48.6314 Y10.6653 
G01 X-48.6406 Y10.6493 
G01 X-48.6536 Y10.6363 
G01 X-48.6648 Y10.6217 
G01 X-48.6795 Y10.6105 
G01 X-48.6925 Y10.5975 
G01 X-48.7084 Y10.5883 
G01 X-48.7230 Y10.5770 
G01 X-48.7401 Y10.5700 
G01 X-48.7560 Y10.5608 
G01 X-48.7738 Y10.5560 
G01 X-48.7908 Y10.5490 
G01 X-48.8091 Y10.5466 
G01 X-48.8269 Y10.5418 
G01 X-48.8453 Y10.5418 
G01 X-48.8635 Y10.5394 
G01 X-48.8818 Y10.5418 
G01 X-49.6059 Y10.5418 
G01 X-49.7463 Y10.4837 
G01 X-49.9188 Y10.3111 
G01 X-50.1813 Y10.0487 
G01 X-50.1925 Y10.0341 
G01 X-50.2071 Y10.0228 
G01 X-50.2201 Y10.0098 
G01 X-50.2361 Y10.0006 
G01 X-50.2507 Y9.9894 
G01 X-50.2677 Y9.9824 
G01 X-50.2836 Y9.9731 
G01 X-50.3014 Y9.9684 
G01 X-50.3184 Y9.9613 
G01 X-50.3367 Y9.9589 
G01 X-50.3545 Y9.9542 
G01 X-50.3729 Y9.9542 
G01 X-50.3912 Y9.9518 
G01 X-50.4094 Y9.9542 
G01 X-50.4279 Y9.9542 
G01 X-50.4456 Y9.9589 
G01 X-50.4639 Y9.9613 
G01 X-50.4809 Y9.9684 
G01 X-50.4987 Y9.9731 
G01 X-50.5147 Y9.9824 
G01 X-50.5775 Y10.0084 
G01 X-51.0225 Y10.0084 
G01 X-51.4335 Y9.8381 
G01 X-51.7481 Y9.5235 
G01 X-51.9184 Y9.1125 
G01 X-51.9184 Y8.6675 
G01 X-51.7481 Y8.2565 
G01 X-51.4335 Y7.9419 
G01 X-51.0225 Y7.7716 
G01 X-50.5775 Y7.7716 
G01 X-50.1665 Y7.9419 
G01 X-49.8519 Y8.2565 
G01 X-49.6816 Y8.6675 
G01 X-49.6816 Y9.1125 
G01 X-49.7076 Y9.1753 
G01 X-49.7169 Y9.1913 
G01 X-49.7216 Y9.2091 
G01 X-49.7287 Y9.2261 
G01 X-49.7311 Y9.2443 
G01 X-49.7358 Y9.2621 
G01 X-49.7358 Y9.2806 
G01 X-49.7382 Y9.2988 
G01 X-49.7358 Y9.3171 
G01 X-49.7358 Y9.3355 
G01 X-49.7311 Y9.3533 
G01 X-49.7287 Y9.3715 
G01 X-49.7216 Y9.3886 
G01 X-49.7168 Y9.4064 
G01 X-49.7076 Y9.4223 
G01 X-49.7006 Y9.4393 
G01 X-49.6894 Y9.4539 
G01 X-49.6802 Y9.4699 
G01 X-49.6671 Y9.4829 
G01 X-49.6559 Y9.4975 
G01 X-49.6413 Y9.5087 
G01 X-49.4794 Y9.6707 
G01 X-49.4275 Y9.7225 
G01 X-49.3640 Y9.7592 
G01 X-49.2931 Y9.7782 
G01 X-48.8818 Y9.7782 
G01 X-48.8635 Y9.7806 
G01 X-48.8453 Y9.7782 
G01 X-48.8269 Y9.7782 
G01 X-48.8091 Y9.7734 
G01 X-48.7908 Y9.7710 
G01 X-48.7738 Y9.7640 
G01 X-48.7560 Y9.7592 
G01 X-48.7401 Y9.7500 
G01 X-48.7230 Y9.7430 
G01 X-48.7084 Y9.7317 
G01 X-48.6925 Y9.7225 
G01 X-48.6795 Y9.7095 
G01 X-48.6648 Y9.6983 
G01 X-48.6536 Y9.6837 
G01 X-48.6406 Y9.6707 
G01 X-48.6314 Y9.6547 
G01 X-48.6202 Y9.6401 
G01 X-48.6131 Y9.6231 
G01 X-48.6039 Y9.6071 
G01 X-48.5992 Y9.5893 
G01 X-48.5731 Y9.5265 
G01 X-48.2585 Y9.2119 
G01 X-47.8475 Y9.0416 
G01 X-47.4025 Y9.0416 
G01 X-47.2405 Y9.1087 
G01 X-47.2245 Y9.1179 
G01 X-47.2067 Y9.1227 
G01 X-47.1897 Y9.1297 
G01 X-47.1715 Y9.1321 
G01 X-47.1537 Y9.1369 
G01 X-47.1353 Y9.1369 
G01 X-47.1170 Y9.1393 
G01 X-47.0987 Y9.1369 
G01 X-47.0803 Y9.1369 
G01 X-47.0625 Y9.1322 
G01 X-47.0443 Y9.1297 
G01 X-47.0273 Y9.1227 
G01 X-47.0095 Y9.1179 
G01 X-46.9935 Y9.1087 
G01 X-46.9765 Y9.1017 
G01 X-46.9619 Y9.0905 
G01 X-46.9459 Y9.0813 
G01 X-46.9329 Y9.0682 
G01 X-46.9183 Y9.0570 
G01 X-46.9071 Y9.0424 
G01 X-46.8941 Y9.0294 
G01 X-46.8849 Y9.0134 
G01 X-46.8736 Y8.9988 
G01 X-46.8666 Y8.9818 
G01 X-46.8574 Y8.9659 
G01 X-46.8526 Y8.9481 
G01 X-46.8456 Y8.9311 
G01 X-46.8432 Y8.9128 
G01 X-46.8384 Y8.8950 
G01 X-46.8384 Y8.8766 
G01 X-46.8360 Y8.8583 
G01 X-46.8384 Y8.8401 
G01 X-46.8384 Y8.6675 
G01 X-46.6681 Y8.2565 
G01 X-46.3535 Y7.9419 
G01 X-45.9425 Y7.7716 
G01 X-45.4975 Y7.7716 
G01 X-45.0865 Y7.9419 
G01 X-44.7719 Y8.2565 
G01 X-44.7458 Y8.3193 
G01 X-44.7411 Y8.3371 
G01 X-44.7318 Y8.3531 
G01 X-44.7248 Y8.3701 
G01 X-44.7136 Y8.3847 
G01 X-44.7044 Y8.4007 
G01 X-44.6914 Y8.4137 
G01 X-44.6801 Y8.4283 
G01 X-44.6655 Y8.4395 
G01 X-44.6525 Y8.4525 
G01 X-44.6366 Y8.4617 
G01 X-44.6219 Y8.4730 
G01 X-44.6049 Y8.4800 
G01 X-44.5890 Y8.4892 
G01 X-44.5712 Y8.4940 
G01 X-44.5542 Y8.5010 
G01 X-44.5359 Y8.5034 
G01 X-44.5181 Y8.5082 
G01 X-44.4997 Y8.5082 
G01 X-44.4815 Y8.5106 
G01 X-44.4632 Y8.5082 
G01 X-40.8769 Y8.5082 
G01 X-40.8060 Y8.4892 
G01 X-40.7425 Y8.4525 
G01 X-40.6906 Y8.4007 
G01 X-40.4375 Y8.1475 
G01 X-40.4008 Y8.0840 
G01 X-40.3818 Y8.0131 
G01 X-40.3818 Y7.0121 
G01 X-40.3794 Y6.9939 
G01 X-40.3818 Y6.9756 
G01 X-40.3818 Y6.9572 
G01 X-40.3866 Y6.9394 
G01 X-40.3890 Y6.9212 
G01 X-40.3960 Y6.9041 
G01 X-40.4008 Y6.8864 
G01 X-40.4100 Y6.8704 
G01 X-40.4170 Y6.8534 
G01 X-40.4282 Y6.8388 
G01 X-40.4375 Y6.8228 
G01 X-40.4505 Y6.8098 
G01 X-40.4617 Y6.7952 
G01 X-40.4763 Y6.7840 
G01 X-40.4893 Y6.7710 
G01 X-40.5053 Y6.7617 
G01 X-40.5199 Y6.7505 
G01 X-40.5369 Y6.7435 
G01 X-40.5529 Y6.7343 
G01 X-40.5634 Y6.7314 
G01 X-40.8405 Y6.4544 
G01 X-40.9914 Y6.0900 
G01 X-40.9914 Y4.0700 
G01 X-40.8405 Y3.7056 
G01 X-40.5985 Y3.4636 
G01 X-40.5618 Y3.4001 
G01 X-40.5428 Y3.3292 
G01 X-40.5428 Y3.2559 
G01 X-40.5477 Y3.2377 
G01 X-40.5618 Y3.1850 
G01 X-40.5985 Y3.1215 
G01 X-40.6503 Y3.0696 
G01 X-40.6906 Y3.0293 
G01 X-40.7425 Y2.9775 
G01 X-40.8060 Y2.9408 
G01 X-40.8769 Y2.9218 
G01 X-41.8474 Y2.9218 
G01 X-41.9183 Y2.9408 
G01 X-41.9818 Y2.9775 
G01 X-42.0337 Y3.0293 
G01 X-42.0704 Y3.0929 
G01 X-42.0894 Y3.1637 
G01 X-42.0894 Y3.2371 
G01 X-42.0704 Y3.3079 
G01 X-42.0337 Y3.3715 
G01 X-41.9818 Y3.4233 
G01 X-41.6995 Y3.7056 
G01 X-41.5486 Y4.0700 
G01 X-41.5486 Y6.0900 
G01 X-41.6995 Y6.4544 
G01 X-41.9784 Y6.7333 
G01 X-42.3428 Y6.8842 
G01 X-42.7372 Y6.8842 
G01 X-43.1016 Y6.7333 
G01 X-43.3805 Y6.4544 
G01 X-43.5314 Y6.0900 
G01 X-43.5314 Y5.3473 
G01 X-43.5504 Y5.2764 
G01 X-43.5871 Y5.2129 
G01 X-43.6389 Y5.1610 
G01 X-44.5525 Y4.2475 
G01 X-44.6160 Y4.2108 
G01 X-44.6869 Y4.1918 
G01 X-53.1031 Y4.1918 
G01 X-53.1740 Y4.2108 
G01 X-53.2375 Y4.2475 
G01 X-53.2894 Y4.2993 
G01 X-53.8217 Y4.8317 
G01 X-53.8584 Y4.8952 
G01 X-53.8774 Y4.9661 
G01 X-53.8774 Y5.3834 
G01 X-54.3065 Y5.8126 
G01 X-54.9134 Y5.8126 
G01 X-55.3426 Y5.3834 
G01 X-55.3426 Y4.7765 
G01 X-54.9134 Y4.3474 
G01 X-54.4961 Y4.3474 
G01 X-54.4252 Y4.3284 
G01 X-54.3617 Y4.2917 
G01 X-54.3098 Y4.2399 
G01 X-53.5563 Y3.4863 
G01 X-53.5042 Y3.4648 
G01 X-53.4864 Y3.4600 
G01 X-53.4705 Y3.4508 
G01 X-53.4535 Y3.4438 
G01 X-53.4389 Y3.4325 
G01 X-53.4229 Y3.4233 
G01 X-53.4099 Y3.4103 
G01 X-53.3953 Y3.3991 
G01 X-53.3841 Y3.3845 
G01 X-53.3710 Y3.3715 
G01 X-53.3618 Y3.3555 
G01 X-53.3506 Y3.3409 
G01 X-53.3436 Y3.3239 
G01 X-53.3344 Y3.3079 
G01 X-53.3296 Y3.2901 
G01 X-53.3226 Y3.2731 
G01 X-53.3202 Y3.2549 
G01 X-53.3154 Y3.2371 
G01 X-53.3154 Y3.2187 
G01 X-53.3130 Y3.2004 
G01 X-53.3154 Y3.1821 
G01 X-53.3154 Y3.1637 
G01 X-53.3202 Y3.1459 
G01 X-53.3226 Y3.1277 
G01 X-53.3296 Y3.1107 
G01 X-53.3344 Y3.0929 
G01 X-53.3436 Y3.0769 
G01 X-53.3506 Y3.0599 
G01 X-53.3618 Y3.0453 
G01 X-53.3710 Y3.0293 
G01 X-53.3841 Y3.0163 
G01 X-53.3953 Y3.0017 
G01 X-53.4099 Y2.9905 
G01 X-53.4229 Y2.9775 
G01 X-53.4389 Y2.9682 
G01 X-53.4535 Y2.9570 
G01 X-53.4705 Y2.9500 
G01 X-53.4864 Y2.9408 
G01 X-53.5042 Y2.9360 
G01 X-53.5213 Y2.9290 
G01 X-53.5395 Y2.9266 
G01 X-53.5573 Y2.9218 
G01 X-53.5757 Y2.9218 
G01 X-53.5940 Y2.9194 
G01 X-53.6122 Y2.9218 
G01 X-71.4581 Y2.9218 
G01 X-71.5290 Y2.9408 
G01 X-71.5925 Y2.9775 
G01 X-71.6444 Y3.0293 
G01 X-71.6811 Y3.0929 
G01 X-71.7000 Y3.1637 
G01 X-71.7000 Y3.2371 
G01 X-71.6811 Y3.3079 
G01 X-71.6444 Y3.3715 
G01 X-71.5925 Y3.4233 
G01 X-70.4487 Y4.5671 
G01 X-70.2978 Y4.9315 
G01 X-70.2978 Y5.3259 
G01 X-70.4487 Y5.6903 
G01 X-70.6825 Y5.9241 
G01 X-70.7192 Y5.9876 
G01 X-70.7382 Y6.0584 
G01 X-70.7382 Y8.1570 
G01 X-70.7192 Y8.2279 
G01 X-70.6825 Y8.2914 
G01 X-70.6307 Y8.3433 
G01 X-70.3874 Y8.5865 
G01 X-70.3874 Y9.1934 
G01 X-70.8165 Y9.6226 
G01 X-71.4234 Y9.6226 
G01 X-71.8526 Y9.1934 
G01 X-71.8526 Y8.5865 
G01 X-71.5575 Y8.2914 
G01 X-71.5208 Y8.2279 
G01 X-71.5018 Y8.1570 
G01 X-71.5018 Y6.3181 
G01 X-71.4994 Y6.2999 
G01 X-71.5018 Y6.2816 
G01 X-71.5018 Y6.2632 
G01 X-71.5066 Y6.2454 
G01 X-71.5090 Y6.2271 
G01 X-71.5160 Y6.2101 
G01 X-71.5208 Y6.1923 
G01 X-71.5300 Y6.1764 
G01 X-71.5370 Y6.1594 
G01 X-71.5482 Y6.1448 
G01 X-71.5575 Y6.1288 
G01 X-71.5705 Y6.1158 
G01 X-71.5817 Y6.1012 
G01 X-71.5963 Y6.0900 
G01 X-71.6093 Y6.0769 
G01 X-71.6253 Y6.0677 
G01 X-71.6399 Y6.0565 
G01 X-71.6569 Y6.0495 
G01 X-71.6729 Y6.0402 
G01 X-71.6907 Y6.0355 
G01 X-71.8508 Y5.9691 
G01 X-73.2792 Y4.5408 
G01 X-73.4301 Y4.1764 
G01 X-73.4301 Y3.7820 
G01 X-73.2792 Y3.4176 
G01 X-73.2339 Y3.3723 
G01 X-73.2024 Y3.3186 
G01 X-73.1963 Y3.3079 
G01 X-73.1877 Y3.2759 
G01 X-73.1773 Y3.2371 
G01 X-73.1773 Y3.1637 
G01 X-73.1963 Y3.0929 
G01 X-73.2330 Y3.0293 
G01 X-73.2840 Y2.9783 
G01 X-73.3377 Y2.9469 
G01 X-73.3484 Y2.9408 
G01 X-73.3804 Y2.9322 
G01 X-73.4192 Y2.9218 
G01 X-74.6931 Y2.9218 
G01 X-74.7640 Y2.9408 
G01 X-74.8275 Y2.9775 
G01 X-74.8794 Y3.0293 
G01 X-75.4890 Y3.6389 
G01 X-75.5257 Y3.7025 
G01 X-75.5447 Y3.7733 
G01 X-75.5447 Y3.8467 
G01 X-75.5257 Y3.9175 
G01 X-75.4890 Y3.9811 
G01 X-75.4379 Y4.0321 
G01 X-74.7562 Y4.7138 
G01 X-74.7450 Y4.7284 
G01 X-74.7304 Y4.7396 
G01 X-74.7174 Y4.7526 
G01 X-74.7014 Y4.7619 
G01 X-74.6868 Y4.7731 
G01 X-74.6698 Y4.7801 
G01 X-74.6539 Y4.7893 
G01 X-74.6361 Y4.7941 
G01 X-74.6191 Y4.8011 
G01 X-74.6008 Y4.8035 
G01 X-74.5830 Y4.8083 
G01 X-74.5646 Y4.8083 
G01 X-74.5463 Y4.8107 
G01 X-74.5281 Y4.8083 
G01 X-74.5097 Y4.8083 
G01 X-74.4919 Y4.8035 
G01 X-74.4736 Y4.8011 
G01 X-74.4566 Y4.7941 
G01 X-74.4388 Y4.7893 
G01 X-74.4294 Y4.7839 
G01 X-74.0375 Y4.7839 
G01 X-73.6732 Y4.9348 
G01 X-72.2448 Y6.3632 
G01 X-72.0939 Y6.7275 
G01 X-72.0939 Y7.1219 
G01 X-72.2448 Y7.4863 
G01 X-72.5237 Y7.7652 
G01 X-72.8881 Y7.9161 
G01 X-73.2825 Y7.9161 
G01 X-73.6468 Y7.7652 
G01 X-75.0752 Y6.3368 
G01 X-75.2261 Y5.9725 
G01 X-75.2261 Y5.5806 
G01 X-75.2207 Y5.5712 
G01 X-75.2159 Y5.5534 
G01 X-75.2089 Y5.5364 
G01 X-75.2065 Y5.5181 
G01 X-75.2017 Y5.5003 
G01 X-75.2017 Y5.4819 
G01 X-75.1993 Y5.4637 
G01 X-75.2017 Y5.4454 
G01 X-75.2017 Y5.4270 
G01 X-75.2065 Y5.4092 
G01 X-75.2089 Y5.3909 
G01 X-75.2159 Y5.3739 
G01 X-75.2207 Y5.3561 
G01 X-75.2299 Y5.3401 
G01 X-75.2369 Y5.3232 
G01 X-75.2481 Y5.3086 
G01 X-75.2574 Y5.2926 
G01 X-75.2704 Y5.2796 
G01 X-75.2816 Y5.2650 
G01 X-75.2962 Y5.2537 
G01 X-76.0289 Y4.5210 
G01 X-76.0925 Y4.4843 
G01 X-76.1633 Y4.4653 
G01 X-76.2367 Y4.4653 
G01 X-76.3075 Y4.4843 
G01 X-76.3711 Y4.5210 
G01 X-76.4011 Y4.5511 
G01 X-78.2507 Y6.4006 
G01 X-78.2724 Y6.4224 
G01 X-78.3025 Y6.4525 
G01 X-78.3392 Y6.5160 
G01 X-78.3580 Y6.5861 
G01 X-78.3582 Y28.9731 
G01 X-78.3392 Y29.0440 
G01 X-78.3025 Y29.1075 
G01 X-78.2507 Y29.1594 
G01 X-77.4194 Y29.9907 
G01 X-77.3675 Y30.0425 
G01 X-77.3040 Y30.0792 
G01 X-77.2339 Y30.0980 
G01 X-76.8621 Y30.0982 
G01 X-76.8439 Y30.1006 
G01 X-76.8256 Y30.0982 
G01 X-76.8072 Y30.0982 
G01 X-76.7894 Y30.0934 
G01 X-76.7712 Y30.0910 
G01 X-76.7541 Y30.0840 
G01 X-76.7364 Y30.0792 
G01 X-76.7204 Y30.0700 
G01 X-76.7034 Y30.0630 
G01 X-76.6888 Y30.0517 
G01 X-76.6728 Y30.0425 
G01 X-76.6598 Y30.0295 
G01 X-76.6452 Y30.0183 
G01 X-76.6340 Y30.0037 
G01 X-76.6209 Y29.9907 
G01 X-76.6117 Y29.9747 
G01 X-76.6005 Y29.9601 
G01 X-76.5935 Y29.9431 
G01 X-76.5843 Y29.9271 
G01 X-76.5815 Y29.9166 
G01 X-76.3044 Y29.6395 
G01 X-75.9400 Y29.4886 
G01 X-73.9200 Y29.4886 
G01 X-73.5556 Y29.6395 
G01 X-73.2767 Y29.9184 
G01 X-73.1258 Y30.2828 
G01 X-73.1258 Y30.6772 
G01 X-73.2767 Y31.0416 
G01 X-73.5556 Y31.3205 
G01 X-73.9200 Y31.4714 
G01 X-75.9400 Y31.4714 
G01 X-76.3044 Y31.3205 
G01 X-76.5815 Y31.0434 
G01 X-76.5843 Y31.0329 
G01 X-76.5935 Y31.0169 
G01 X-76.6005 Y30.9999 
G01 X-76.6117 Y30.9853 
G01 X-76.6209 Y30.9693 
G01 X-76.6340 Y30.9563 
G01 X-76.6452 Y30.9417 
G01 X-76.6598 Y30.9305 
G01 X-76.6728 Y30.9175 
G01 X-76.6888 Y30.9082 
G01 X-76.7034 Y30.8970 
G01 X-76.7204 Y30.8900 
G01 X-76.7364 Y30.8808 
G01 X-76.7541 Y30.8760 
G01 X-76.7712 Y30.8690 
G01 X-76.7894 Y30.8666 
G01 X-76.8072 Y30.8618 
G01 X-76.8256 Y30.8618 
G01 X-76.8439 Y30.8594 
G01 X-76.8621 Y30.8618 
G01 X-77.2331 Y30.8618 
G01 X-77.3040 Y30.8808 
G01 X-77.3675 Y30.9175 
G01 X-77.4194 Y30.9693 
G01 X-78.3025 Y31.8525 
G01 X-78.3392 Y31.9160 
G01 X-78.3582 Y31.9869 
G01 X-78.3582 Y36.5578 
G01 X-78.3606 Y36.5760 
G01 X-78.3582 Y36.5943 
G01 X-78.3582 Y36.6127 
G01 X-78.3534 Y36.6305 
G01 X-78.3510 Y36.6487 
G01 X-78.3440 Y36.6657 
G01 X-78.3392 Y36.6835 
G01 X-78.3300 Y36.6995 
G01 X-78.3230 Y36.7165 
G01 X-78.3117 Y36.7311 
G01 X-78.3025 Y36.7471 
G01 X-78.2895 Y36.7601 
G01 X-78.2783 Y36.7747 
G01 X-78.2637 Y36.7859 
G01 X-78.2507 Y36.7989 
G01 X-78.2347 Y36.8082 
G01 X-78.2201 Y36.8194 
G01 X-78.2031 Y36.8264 
G01 X-78.1871 Y36.8356 
G01 X-78.1693 Y36.8404 
G01 X-78.1523 Y36.8474 
G01 X-78.1341 Y36.8498 
G01 X-78.1163 Y36.8546 
G01 X-78.0978 Y36.8546 
G01 X-78.0796 Y36.8570 
G01 X-78.0613 Y36.8546 
G01 X-78.0429 Y36.8546 
G01 X-78.0251 Y36.8498 
G01 X-78.0069 Y36.8474 
G01 X-77.9899 Y36.8404 
G01 X-77.9721 Y36.8356 
G01 X-77.9561 Y36.8264 
G01 X-77.9391 Y36.8194 
G01 X-77.9245 Y36.8081 
G01 X-77.9085 Y36.7989 
G01 X-77.8955 Y36.7859 
G01 X-77.8809 Y36.7747 
G01 X-77.8697 Y36.7601 
G01 X-77.8567 Y36.7471 
G01 X-77.8474 Y36.7311 
G01 X-77.8362 Y36.7165 
G01 X-77.8292 Y36.6995 
G01 X-77.8200 Y36.6835 
G01 X-77.8152 Y36.6657 
G01 X-77.7937 Y36.6137 
G01 X-75.6929 Y34.5129 
G01 X-75.6755 Y34.4956 
G01 X-75.6410 Y34.4611 
G01 X-75.6043 Y34.3975 
G01 X-75.5856 Y34.3275 
G01 X-75.5853 Y34.2533 
G01 X-75.6043 Y34.1825 
G01 X-75.6410 Y34.1189 
G01 X-75.6929 Y34.0671 
G01 X-75.7564 Y34.0304 
G01 X-75.8264 Y34.0116 
G01 X-75.9400 Y34.0114 
G01 X-76.3044 Y33.8605 
G01 X-76.5833 Y33.5816 
G01 X-76.7342 Y33.2172 
G01 X-76.7342 Y32.8228 
G01 X-76.5833 Y32.4584 
G01 X-76.3044 Y32.1795 
G01 X-75.9400 Y32.0286 
G01 X-73.9200 Y32.0286 
G01 X-73.5556 Y32.1795 
G01 X-73.2785 Y32.4566 
G01 X-73.2757 Y32.4671 
G01 X-73.2665 Y32.4831 
G01 X-73.2595 Y32.5001 
G01 X-73.2483 Y32.5147 
G01 X-73.2390 Y32.5307 
G01 X-73.2260 Y32.5437 
G01 X-73.2148 Y32.5583 
G01 X-73.2002 Y32.5695 
G01 X-73.1872 Y32.5825 
G01 X-73.1712 Y32.5917 
G01 X-73.1566 Y32.6030 
G01 X-73.1396 Y32.6100 
G01 X-73.1236 Y32.6192 
G01 X-73.1058 Y32.6240 
G01 X-73.0888 Y32.6310 
G01 X-73.0706 Y32.6334 
G01 X-73.0528 Y32.6382 
G01 X-73.0344 Y32.6382 
G01 X-73.0161 Y32.6406 
G01 X-72.9978 Y32.6382 
G01 X-70.0869 Y32.6382 
G01 X-70.0160 Y32.6192 
G01 X-69.9525 Y32.5825 
G01 X-69.9006 Y32.5307 
G01 X-69.0175 Y31.6475 
G01 X-68.9808 Y31.5840 
G01 X-68.9618 Y31.5131 
G01 X-68.9618 Y14.2069 
G01 X-68.9808 Y14.1360 
G01 X-69.0175 Y14.0725 
G01 X-69.0693 Y14.0206 
G01 X-69.9525 Y13.1375 
G01 X-70.0160 Y13.1008 
G01 X-70.0869 Y13.0818 
G01 X-72.4659 Y13.0818 
G01 X-72.6063 Y13.0237 
G01 X-75.7797 Y9.8502 
G01 X-75.8378 Y9.7099 
G01 X-75.8378 Y9.2450 
G01 X-75.8568 Y9.1742 
G01 X-75.8935 Y9.1106 
G01 X-75.9454 Y9.0588 
G01 X-76.8713 Y8.1329 
G01 X-77.0222 Y7.7685 
G01 X-77.0222 Y7.3741 
G01 X-76.8713 Y7.0097 
G01 X-76.5924 Y6.7308 
G01 X-76.2280 Y6.5799 
G01 X-75.8336 Y6.5799 
G01 X-75.4692 Y6.7308 
G01 X-74.0408 Y8.1592 
G01 X-73.8899 Y8.5236 
G01 X-73.8899 Y8.9180 
G01 X-74.0408 Y9.2824 
G01 X-74.3197 Y9.5613 
G01 X-74.3907 Y9.5907 
G01 X-74.4085 Y9.5954 
G01 X-74.4245 Y9.6047 
G01 X-74.4415 Y9.6117 
G01 X-74.4561 Y9.6229 
G01 X-74.4721 Y9.6321 
G01 X-74.4851 Y9.6451 
G01 X-74.4997 Y9.6563 
G01 X-74.5109 Y9.6709 
G01 X-74.5239 Y9.6840 
G01 X-74.5332 Y9.6999 
G01 X-74.5444 Y9.7145 
G01 X-74.5514 Y9.7315 
G01 X-74.5606 Y9.7475 
G01 X-74.5654 Y9.7653 
G01 X-74.5724 Y9.7823 
G01 X-74.5748 Y9.8006 
G01 X-74.5796 Y9.8184 
G01 X-74.5796 Y9.8368 
G01 X-74.5820 Y9.8550 
G01 X-74.5796 Y9.8733 
G01 X-74.5796 Y9.8917 
G01 X-74.5748 Y9.9095 
G01 X-74.5724 Y9.9278 
G01 X-74.5654 Y9.9448 
G01 X-74.5606 Y9.9626 
G01 X-74.5514 Y9.9786 
G01 X-74.5444 Y9.9955 
G01 X-74.5332 Y10.0101 
G01 X-74.5239 Y10.0261 
G01 X-74.5109 Y10.0391 
G01 X-74.4997 Y10.0537 
G01 X-74.4851 Y10.0649 
G01 X-72.2875 Y12.2625 
G01 X-72.2240 Y12.2992 
G01 X-72.1531 Y12.3182 
G01 X-69.7741 Y12.3182 
G01 X-69.6337 Y12.3763 
G01 X-69.4612 Y12.5488 
G01 X-68.2563 Y13.7537 
G01 X-68.1982 Y13.8941 
G01 X-68.1982 Y31.8259 
G01 X-68.2563 Y31.9663 
G01 X-68.4288 Y32.1388 
G01 X-69.4612 Y33.1711 
G01 X-69.5131 Y33.2230 
G01 X-69.6337 Y33.3437 
G01 X-69.7741 Y33.4018 
G01 X-72.9979 Y33.4018 
G01 X-73.0161 Y33.3994 
G01 X-73.0344 Y33.4018 
G01 X-73.0528 Y33.4018 
G01 X-73.0706 Y33.4066 
G01 X-73.0888 Y33.4090 
G01 X-73.1058 Y33.4160 
G01 X-73.1236 Y33.4208 
G01 X-73.1396 Y33.4300 
G01 X-73.1566 Y33.4370 
G01 X-73.1712 Y33.4482 
G01 X-73.1872 Y33.4575 
G01 X-73.2002 Y33.4705 
G01 X-73.2148 Y33.4817 
G01 X-73.2260 Y33.4963 
G01 X-73.2390 Y33.5093 
G01 X-73.2483 Y33.5253 
G01 X-73.2595 Y33.5399 
G01 X-73.2665 Y33.5569 
G01 X-73.2757 Y33.5729 
G01 X-73.2785 Y33.5834 
G01 X-73.5556 Y33.8605 
G01 X-73.9200 Y34.0114 
G01 X-74.3063 Y34.0114 
G01 X-74.3771 Y34.0304 
G01 X-74.4407 Y34.0671 
G01 X-74.4925 Y34.1189 
G01 X-74.5292 Y34.1825 
G01 X-74.5482 Y34.2533 
G01 X-74.5482 Y34.3659 
G01 X-74.6063 Y34.5063 
G01 X-77.0325 Y36.9325 
G01 X-77.0692 Y36.9960 
G01 X-77.0882 Y37.0669 
G01 X-77.0882 Y37.3931 
G01 X-77.0905 Y37.4150 
G01 X-77.0882 Y37.4296 
G01 X-77.0882 Y37.4444 
G01 X-77.0825 Y37.4657 
G01 X-77.0790 Y37.4875 
G01 X-77.0730 Y37.5009 
G01 X-77.0692 Y37.5152 
G01 X-77.0582 Y37.5343 
G01 X-77.0492 Y37.5545 
G01 X-77.0399 Y37.5660 
G01 X-77.0325 Y37.5787 
G01 X-77.0169 Y37.5944 
G01 X-77.0030 Y37.6115 
G01 X-76.9911 Y37.6202 
G01 X-76.9807 Y37.6306 
G01 X-76.9615 Y37.6416 
G01 X-76.9437 Y37.6546 
G01 X-76.9299 Y37.6599 
G01 X-76.9171 Y37.6673 
G01 X-76.8958 Y37.6730 
G01 X-76.8752 Y37.6809 
G01 X-76.8605 Y37.6825 
G01 X-76.8463 Y37.6863 
G01 X-76.8242 Y37.6863 
G01 X-76.8022 Y37.6886 
G01 X-76.7877 Y37.6863 
G01 X-76.7729 Y37.6863 
G01 X-76.7516 Y37.6806 
G01 X-76.7298 Y37.6771 
G01 X-76.7163 Y37.6711 
G01 X-76.7021 Y37.6673 
G01 X-76.6829 Y37.6562 
G01 X-76.6628 Y37.6473 
G01 X-76.6513 Y37.6380 
G01 X-76.6385 Y37.6306 
G01 X-76.6229 Y37.6150 
G01 X-76.6058 Y37.6011 
G01 X-76.5971 Y37.5892 
G01 X-76.5867 Y37.5787 
G01 X-76.5756 Y37.5596 
G01 X-76.4990 Y37.4541 
G01 X-76.3886 Y37.3438 
G01 X-76.2624 Y37.2521 
G01 X-76.1234 Y37.1812 
G01 X-75.9749 Y37.1330 
G01 X-75.8208 Y37.1086 
G01 X-75.2594 Y37.1086 
G01 X-75.2594 Y37.2118 
G01 X-75.8303 Y37.2118 
G01 X-76.0019 Y37.2459 
G01 X-76.1635 Y37.3129 
G01 X-76.3090 Y37.4101 
G01 X-76.4327 Y37.5338 
G01 X-76.5299 Y37.6793 
G01 X-76.5969 Y37.8409 
G01 X-76.6310 Y38.0125 
G01 X-76.6310 Y38.1875 
G01 X-76.5969 Y38.3591 
G01 X-76.5299 Y38.5207 
G01 X-76.4327 Y38.6662 
G01 X-76.3090 Y38.7899 
G01 X-76.1635 Y38.8871 
G01 X-76.0019 Y38.9541 
G01 X-75.8303 Y38.9882 
G01 X-75.2594 Y38.9882 
G01 X-75.2594 Y39.0914 
G01 X-75.8208 Y39.0914 
G01 X-75.9749 Y39.0670 
G01 X-76.1234 Y39.0188 
G01 X-76.2624 Y38.9479 
G01 X-76.3886 Y38.8562 
G01 X-76.4990 Y38.7458 
G01 X-76.5756 Y38.6404 
G01 X-76.5867 Y38.6213 
G01 X-76.5971 Y38.6108 
G01 X-76.6058 Y38.5989 
G01 X-76.6229 Y38.5850 
G01 X-76.6385 Y38.5694 
G01 X-76.6513 Y38.5620 
G01 X-76.6628 Y38.5527 
G01 X-76.6829 Y38.5438 
G01 X-76.7021 Y38.5327 
G01 X-76.7163 Y38.5289 
G01 X-76.7298 Y38.5229 
G01 X-76.7516 Y38.5194 
G01 X-76.7729 Y38.5137 
G01 X-76.7877 Y38.5137 
G01 X-76.8022 Y38.5114 
G01 X-76.8242 Y38.5137 
G01 X-76.8463 Y38.5137 
G01 X-76.8605 Y38.5175 
G01 X-76.8752 Y38.5191 
G01 X-76.8958 Y38.5270 
G01 X-76.9171 Y38.5327 
G01 X-76.9299 Y38.5401 
G01 X-76.9437 Y38.5454 
G01 X-76.9615 Y38.5583 
G01 X-76.9807 Y38.5694 
G01 X-76.9911 Y38.5798 
G01 X-77.0030 Y38.5885 
G01 X-77.0169 Y38.6056 
G01 X-77.0325 Y38.6213 
G01 X-77.0399 Y38.6340 
G01 X-77.0492 Y38.6455 
G01 X-77.0582 Y38.6656 
G01 X-77.0692 Y38.6848 
G01 X-77.0730 Y38.6990 
G01 X-77.0790 Y38.7125 
G01 X-77.0825 Y38.7343 
G01 X-77.0882 Y38.7556 
G01 X-77.0882 Y38.7704 
G01 X-77.0905 Y38.7850 
G01 X-77.0882 Y38.8069 
G01 X-77.0882 Y39.9474 
G01 X-77.0692 Y40.0183 
G01 X-77.0325 Y40.0818 
G01 X-76.9807 Y40.1337 
G01 X-76.9171 Y40.1704 
G01 X-76.8463 Y40.1893 
G01 X-76.7729 Y40.1893 
G01 X-76.7021 Y40.1704 
G01 X-76.6385 Y40.1337 
G01 X-76.5867 Y40.0818 
G01 X-76.3044 Y39.7995 
G01 X-75.9400 Y39.6486 
G01 X-75.8646 Y39.6486 
G01 X-75.8501 Y39.6509 
G01 X-75.8282 Y39.6486 
G01 X-74.0318 Y39.6486 
G01 X-74.0099 Y39.6509 
G01 X-73.9953 Y39.6486 
G01 X-73.9200 Y39.6486 
G01 X-73.5556 Y39.7995 
G01 X-73.2785 Y40.0766 
G01 X-73.2757 Y40.0871 
G01 X-73.2665 Y40.1031 
G01 X-73.2595 Y40.1201 
G01 X-73.2483 Y40.1347 
G01 X-73.2390 Y40.1507 
G01 X-73.2260 Y40.1637 
G01 X-73.2148 Y40.1783 
G01 X-73.2002 Y40.1895 
G01 X-73.1872 Y40.2025 
G01 X-73.1712 Y40.2117 
G01 X-73.1566 Y40.2230 
G01 X-73.1396 Y40.2300 
G01 X-73.1236 Y40.2392 
G01 X-73.1058 Y40.2440 
G01 X-73.0888 Y40.2510 
G01 X-73.0706 Y40.2534 
G01 X-73.0528 Y40.2582 
G01 X-73.0344 Y40.2582 
G01 X-73.0161 Y40.2606 
G01 X-72.9978 Y40.2582 
G01 X-70.5830 Y40.2582 
G01 X-70.5121 Y40.2392 
G01 X-70.4486 Y40.2025 
G01 X-70.3967 Y40.1507 
G01 X-70.1534 Y39.9074 
G01 X-69.5465 Y39.9074 
G01 X-69.1174 Y40.3365 
G01 X-69.1174 Y40.9434 
G01 X-69.5465 Y41.3726 
G01 X-70.1534 Y41.3726 
G01 X-70.4486 Y41.0775 
G01 X-70.5121 Y41.0408 
G01 X-70.5830 Y41.0218 
G01 X-72.9979 Y41.0218 
G01 X-73.0161 Y41.0194 
G01 X-73.0344 Y41.0218 
G01 X-73.0528 Y41.0218 
G01 X-73.0706 Y41.0266 
G01 X-73.0888 Y41.0290 
G01 X-73.1058 Y41.0360 
G01 X-73.1236 Y41.0408 
G01 X-73.1396 Y41.0500 
G01 X-73.1566 Y41.0570 
G01 X-73.1712 Y41.0682 
G01 X-73.1872 Y41.0775 
G01 X-73.2002 Y41.0905 
G01 X-73.2148 Y41.1017 
G01 X-73.2260 Y41.1163 
G01 X-73.2390 Y41.1293 
G01 X-73.2483 Y41.1453 
G01 X-73.2595 Y41.1599 
G01 X-73.2665 Y41.1769 
G01 X-73.2757 Y41.1929 
G01 X-73.2785 Y41.2034 
G01 X-73.5556 Y41.4805 
G01 X-73.9200 Y41.6314 
G01 X-75.9400 Y41.6314 
G01 X-76.3044 Y41.4805 
G01 X-76.5867 Y41.1982 
G01 X-76.6385 Y41.1463 
G01 X-76.7021 Y41.1096 
G01 X-76.7721 Y41.0909 
G01 X-76.8463 Y41.0906 
G01 X-76.9171 Y41.1096 
G01 X-76.9807 Y41.1463 
G01 X-77.0325 Y41.1982 
G01 X-77.0692 Y41.2617 
G01 X-77.0880 Y41.3318 
G01 X-77.0882 Y42.4874 
G01 X-77.0692 Y42.5583 
G01 X-77.0325 Y42.6218 
G01 X-76.9807 Y42.6737 
G01 X-76.9171 Y42.7104 
G01 X-76.8463 Y42.7293 
G01 X-76.7729 Y42.7293 
G01 X-76.7021 Y42.7104 
G01 X-76.6385 Y42.6737 
G01 X-76.5867 Y42.6218 
G01 X-76.3044 Y42.3395 
G01 X-75.9400 Y42.1886 
G01 X-73.9200 Y42.1886 
G01 X-73.5556 Y42.3395 
G01 X-73.2785 Y42.6166 
G01 X-73.2757 Y42.6271 
G01 X-73.2665 Y42.6431 
G01 X-73.2595 Y42.6601 
G01 X-73.2483 Y42.6747 
G01 X-73.2390 Y42.6907 
G01 X-73.2260 Y42.7037 
G01 X-73.2148 Y42.7183 
G01 X-73.2002 Y42.7295 
G01 X-73.1872 Y42.7425 
G01 X-73.1712 Y42.7517 
G01 X-73.1566 Y42.7630 
G01 X-73.1396 Y42.7700 
G01 X-73.1236 Y42.7792 
G01 X-73.1058 Y42.7840 
G01 X-73.0888 Y42.7910 
G01 X-73.0706 Y42.7934 
G01 X-73.0528 Y42.7982 
G01 X-73.0344 Y42.7982 
G01 X-73.0161 Y42.8006 
G01 X-72.9978 Y42.7982 
G01 X-71.8530 Y42.7982 
G01 X-71.7821 Y42.7792 
G01 X-71.7186 Y42.7425 
G01 X-71.6667 Y42.6907 
G01 X-71.4234 Y42.4474 
G01 X-70.8165 Y42.4474 
G01 X-70.3874 Y42.8765 
G01 X-70.3874 Y43.4834 
G01 X-70.8165 Y43.9126 
G01 X-71.4234 Y43.9126 
G01 X-71.7186 Y43.6175 
G01 X-71.7821 Y43.5808 
G01 X-71.8530 Y43.5618 
G01 X-72.9979 Y43.5618 
G01 X-73.0161 Y43.5594 
G01 X-73.0344 Y43.5618 
G01 X-73.0528 Y43.5618 
G01 X-73.0706 Y43.5666 
G01 X-73.0888 Y43.5690 
G01 X-73.1058 Y43.5760 
G01 X-73.1236 Y43.5808 
G01 X-73.1396 Y43.5900 
G01 X-73.1566 Y43.5970 
G01 X-73.1712 Y43.6082 
G01 X-73.1872 Y43.6175 
G01 X-73.2002 Y43.6305 
G01 X-73.2148 Y43.6417 
G01 X-73.2260 Y43.6563 
G01 X-73.2390 Y43.6693 
G01 X-73.2483 Y43.6853 
G01 X-73.2595 Y43.6999 
G01 X-73.2665 Y43.7169 
G01 X-73.2757 Y43.7329 
G01 X-73.2785 Y43.7434 
G01 X-73.5556 Y44.0205 
G01 X-73.9200 Y44.1714 
G01 X-75.9400 Y44.1714 
G01 X-76.3044 Y44.0205 
G01 X-76.5867 Y43.7382 
G01 X-76.6385 Y43.6863 
G01 X-76.7021 Y43.6496 
G01 X-76.7721 Y43.6309 
G01 X-76.8463 Y43.6306 
G01 X-76.9171 Y43.6496 
G01 X-76.9807 Y43.6863 
G01 X-77.0325 Y43.7382 
G01 X-77.0692 Y43.8017 
G01 X-77.0880 Y43.8718 
G01 X-77.0882 Y44.2131 
G01 X-77.0692 Y44.2840 
G01 X-77.0325 Y44.3475 
G01 X-76.9807 Y44.3994 
G01 X-76.5876 Y44.7924 
G01 X-76.5764 Y44.8070 
G01 X-76.5618 Y44.8183 
G01 X-76.5488 Y44.8313 
G01 X-76.5328 Y44.8405 
G01 X-76.5182 Y44.8517 
G01 X-76.5012 Y44.8588 
G01 X-76.4852 Y44.8680 
G01 X-76.4674 Y44.8727 
G01 X-76.4504 Y44.8798 
G01 X-76.4322 Y44.8822 
G01 X-76.4144 Y44.8869 
G01 X-76.3960 Y44.8869 
G01 X-76.3777 Y44.8894 
G01 X-76.3595 Y44.8869 
G01 X-76.3410 Y44.8869 
G01 X-76.3232 Y44.8822 
G01 X-76.3050 Y44.8798 
G01 X-76.2880 Y44.8727 
G01 X-76.2702 Y44.8680 
G01 X-76.2542 Y44.8587 
G01 X-75.9400 Y44.7286 
G01 X-73.9200 Y44.7286 
G01 X-73.5556 Y44.8795 
G01 X-73.2785 Y45.1566 
G01 X-73.2757 Y45.1671 
G01 X-73.2665 Y45.1831 
G01 X-73.2595 Y45.2001 
G01 X-73.2483 Y45.2147 
G01 X-73.2390 Y45.2307 
G01 X-73.2260 Y45.2437 
G01 X-73.2148 Y45.2583 
G01 X-73.2002 Y45.2695 
G01 X-73.1872 Y45.2825 
G01 X-73.1712 Y45.2917 
G01 X-73.1566 Y45.3030 
G01 X-73.1396 Y45.3100 
G01 X-73.1236 Y45.3192 
G01 X-73.1058 Y45.3240 
G01 X-73.0888 Y45.3310 
G01 X-73.0706 Y45.3334 
G01 X-73.0528 Y45.3382 
G01 X-73.0344 Y45.3382 
G01 X-73.0161 Y45.3406 
G01 X-72.9978 Y45.3382 
G01 X-72.3140 Y45.3382 
G01 X-72.1737 Y45.3963 
G01 X-70.9170 Y46.6531 
G01 X-70.7963 Y46.7737 
G01 X-70.7382 Y46.9141 
G01 X-70.7382 Y53.6316 
G01 X-70.7192 Y53.7024 
G01 X-70.6825 Y53.7659 
G01 X-70.6307 Y53.8178 
G01 X-70.4487 Y53.9997 
G01 X-70.4323 Y54.0393 
G01 X-70.4276 Y54.0571 
G01 X-70.4184 Y54.0731 
G01 X-70.4113 Y54.0901 
G01 X-70.4001 Y54.1047 
G01 X-70.3909 Y54.1207 
G01 X-70.3779 Y54.1337 
G01 X-70.3667 Y54.1483 
G01 X-70.3520 Y54.1595 
G01 X-70.3390 Y54.1725 
G01 X-70.3231 Y54.1817 
G01 X-70.3085 Y54.1930 
G01 X-70.2914 Y54.2000 
G01 X-70.2755 Y54.2092 
G01 X-70.2577 Y54.2140 
G01 X-70.2407 Y54.2210 
G01 X-70.2224 Y54.2234 
G01 X-70.2046 Y54.2282 
G01 X-70.1862 Y54.2282 
G01 X-70.1680 Y54.2306 
G01 X-70.1497 Y54.2282 
G01 X-69.3130 Y54.2282 
G01 X-69.2421 Y54.2092 
G01 X-69.1786 Y54.1725 
G01 X-69.1267 Y54.1207 
G01 X-68.8834 Y53.8774 
G01 X-68.2765 Y53.8774 
G01 X-68.1933 Y53.9606 
G01 X-68.1433 Y54.0106 
G01 X-68.0779 Y54.0492 
G01 X-68.0269 Y54.0628 
G01 X-68.0071 Y54.0682 
G01 X-67.9337 Y54.0682 
G01 X-67.8629 Y54.0492 
G01 X-67.7993 Y54.0125 
G01 X-67.7483 Y53.9614 
G01 X-67.7108 Y53.8971 
G01 X-67.6971 Y53.8460 
G01 X-67.6918 Y53.8262 
G01 X-67.6918 Y42.6430 
G01 X-67.7108 Y42.5721 
G01 X-67.7475 Y42.5086 
G01 X-67.7993 Y42.4567 
G01 X-68.0426 Y42.2134 
G01 X-68.0426 Y41.6065 
G01 X-67.6134 Y41.1774 
G01 X-67.0065 Y41.1774 
G01 X-66.6951 Y41.4888 
G01 X-66.6441 Y41.5399 
G01 X-66.5805 Y41.5766 
G01 X-66.5105 Y41.5953 
G01 X-66.4363 Y41.5956 
G01 X-66.3655 Y41.5766 
G01 X-66.3019 Y41.5399 
G01 X-66.2501 Y41.4880 
G01 X-65.6806 Y40.9186 
G01 X-64.8594 Y40.9186 
G01 X-64.2786 Y41.4993 
G01 X-64.2786 Y42.3206 
G01 X-64.8594 Y42.9014 
G01 X-65.6806 Y42.9014 
G01 X-66.2501 Y42.3320 
G01 X-66.3019 Y42.2801 
G01 X-66.3655 Y42.2434 
G01 X-66.4355 Y42.2247 
G01 X-66.5097 Y42.2244 
G01 X-66.5805 Y42.2434 
G01 X-66.6441 Y42.2801 
G01 X-66.8207 Y42.4567 
G01 X-66.8725 Y42.5086 
G01 X-66.9092 Y42.5721 
G01 X-66.9282 Y42.6430 
G01 X-66.9282 Y56.9131 
G01 X-66.9092 Y56.9840 
G01 X-66.8725 Y57.0475 
G01 X-66.8207 Y57.0994 
G01 X-65.9894 Y57.9307 
G01 X-65.9375 Y57.9825 
G01 X-65.8740 Y58.0192 
G01 X-65.8039 Y58.0380 
G01 X-43.2326 Y58.0382 
G01 X-43.1617 Y58.0192 
G01 X-43.0982 Y57.9825 
G01 X-43.0463 Y57.9307 
G01 X-43.0096 Y57.8671 
G01 X-42.9906 Y57.7963 
G01 X-42.9906 Y57.7229 
G01 X-43.0096 Y57.6521 
G01 X-43.0463 Y57.5885 
G01 X-43.0982 Y57.5367 
G01 X-43.3805 Y57.2544 
G01 X-43.5314 Y56.8900 
G01 X-43.5314 Y56.5037 
G01 X-43.5504 Y56.4329 
G01 X-43.5871 Y56.3693 
G01 X-43.6389 Y56.3175 
G01 X-43.7025 Y56.2808 
G01 X-43.7733 Y56.2618 
G01 X-44.9870 Y56.2618 
G01 X-45.0579 Y56.2808 
G01 X-45.1214 Y56.3175 
G01 X-45.1733 Y56.3693 
G01 X-45.4165 Y56.6126 
G01 X-46.0234 Y56.6126 
G01 X-46.4526 Y56.1834 
G01 X-46.4526 Y55.5765 
G01 X-46.1575 Y55.2814 
G01 X-46.1208 Y55.2179 
G01 X-46.1018 Y55.1470 
G01 X-46.1018 Y45.6441 
G01 X-46.0437 Y45.5037 
G01 X-45.8711 Y45.3312 
G01 X-44.6663 Y44.1263 
G01 X-44.5259 Y44.0682 
G01 X-24.3669 Y44.0682 
G01 X-24.2960 Y44.0492 
G01 X-24.2325 Y44.0125 
G01 X-24.1806 Y43.9607 
G01 X-23.2975 Y43.0775 
G01 X-23.2608 Y43.0140 
G01 X-23.2418 Y42.9431 
G01 X-23.2418 Y35.4841 
G01 X-23.1837 Y35.3437 
G01 X-23.0630 Y35.2231 
G01 X-23.0111 Y35.1712 
G01 X-21.9269 Y34.0870 
G01 X-21.8063 Y33.9663 
G01 X-21.6659 Y33.9082 
G01 X-19.6737 Y33.9082 
G01 X-19.6029 Y33.8892 
G01 X-19.5393 Y33.8525 
G01 X-19.4875 Y33.8007 
G01 X-19.4508 Y33.7371 
G01 X-19.4318 Y33.6663 
G01 X-19.4318 Y29.8721 
G01 X-19.4294 Y29.8539 
G01 X-19.4318 Y29.8356 
G01 X-19.4318 Y29.8172 
G01 X-19.4366 Y29.7994 
G01 X-19.4390 Y29.7812 
G01 X-19.4460 Y29.7641 
G01 X-19.4508 Y29.7463 
G01 X-19.4600 Y29.7304 
G01 X-19.4670 Y29.7134 
G01 X-19.4782 Y29.6988 
G01 X-19.4875 Y29.6828 
G01 X-19.5005 Y29.6698 
G01 X-19.5117 Y29.6552 
G01 X-19.5263 Y29.6440 
G01 X-19.5393 Y29.6309 
G01 X-19.5553 Y29.6217 
G01 X-19.5699 Y29.6105 
G01 X-19.5869 Y29.6035 
G01 X-19.6029 Y29.5943 
G01 X-19.6134 Y29.5914 
G01 X-19.8905 Y29.3144 
G01 X-20.0414 Y28.9500 
G01 X-20.0414 Y26.9300 
G01 X-19.8905 Y26.5656 
G01 X-19.6134 Y26.2885 
G01 X-19.6029 Y26.2857 
G01 X-19.5869 Y26.2765 
G01 X-19.5699 Y26.2695 
G01 X-19.5553 Y26.2583 
G01 X-19.5393 Y26.2490 
G01 X-19.5263 Y26.2360 
G01 X-19.5117 Y26.2248 
G01 X-19.5005 Y26.2102 
G01 X-19.4875 Y26.1972 
G01 X-19.4782 Y26.1812 
G01 X-19.4670 Y26.1666 
G01 X-19.4600 Y26.1496 
G01 X-19.4508 Y26.1336 
G01 X-19.4460 Y26.1158 
G01 X-19.4390 Y26.0988 
G01 X-19.4366 Y26.0806 
G01 X-19.4318 Y26.0628 
G01 X-19.4318 Y26.0444 
G01 X-19.4294 Y26.0261 
G01 X-19.4318 Y26.0079 
G01 X-19.4318 Y24.7921 
G01 X-19.4294 Y24.7739 
G01 X-19.4318 Y24.7556 
G01 X-19.4318 Y24.7372 
G01 X-19.4366 Y24.7194 
G01 X-19.4390 Y24.7012 
G01 X-19.4460 Y24.6841 
G01 X-19.4508 Y24.6664 
G01 X-19.4600 Y24.6504 
G01 X-19.4670 Y24.6334 
G01 X-19.4782 Y24.6188 
G01 X-19.4875 Y24.6028 
G01 X-19.5005 Y24.5898 
G01 X-19.5117 Y24.5752 
G01 X-19.5263 Y24.5640 
G01 X-19.5393 Y24.5510 
G01 X-19.5553 Y24.5417 
G01 X-19.5699 Y24.5305 
G01 X-19.5869 Y24.5235 
G01 X-19.6029 Y24.5143 
G01 X-19.6134 Y24.5114 
G01 X-19.8905 Y24.2344 
G01 X-20.0414 Y23.8700 
G01 X-20.0414 Y21.8500 
G01 X-19.8905 Y21.4856 
G01 X-19.6134 Y21.2085 
G01 X-19.6029 Y21.2057 
G01 X-19.5869 Y21.1965 
G01 X-19.5699 Y21.1895 
G01 X-19.5553 Y21.1783 
G01 X-19.5393 Y21.1690 
G01 X-19.5263 Y21.1560 
G01 X-19.5117 Y21.1448 
G01 X-19.5005 Y21.1302 
G01 X-19.4875 Y21.1172 
G01 X-19.4782 Y21.1012 
G01 X-19.4670 Y21.0866 
G01 X-19.4600 Y21.0696 
G01 X-19.4508 Y21.0536 
G01 X-19.4460 Y21.0358 
G01 X-19.4390 Y21.0188 
G01 X-19.4366 Y21.0006 
G01 X-19.4318 Y20.9828 
G01 X-19.4318 Y20.9644 
G01 X-19.4294 Y20.9461 
G01 X-19.4318 Y20.9278 
G01 X-19.4318 Y19.7121 
G01 X-19.4294 Y19.6939 
G01 X-19.4318 Y19.6756 
G01 X-19.4318 Y19.6572 
G01 X-19.4366 Y19.6394 
G01 X-19.4390 Y19.6212 
G01 X-19.4460 Y19.6041 
G01 X-19.4508 Y19.5863 
G01 X-19.4600 Y19.5704 
G01 X-19.4670 Y19.5534 
G01 X-19.4782 Y19.5388 
G01 X-19.4875 Y19.5228 
G01 X-19.5005 Y19.5098 
G01 X-19.5117 Y19.4952 
G01 X-19.5263 Y19.4840 
G01 X-19.5393 Y19.4709 
G01 X-19.5553 Y19.4617 
G01 X-19.5699 Y19.4505 
G01 X-19.5869 Y19.4435 
G01 X-19.6029 Y19.4343 
G01 X-19.6134 Y19.4315 
G01 X-19.8905 Y19.1544 
G01 X-20.0414 Y18.7900 
G01 X-20.0414 Y16.7700 
G01 X-19.8905 Y16.4056 
G01 X-19.6134 Y16.1285 
G01 X-19.6029 Y16.1257 
G01 X-19.5869 Y16.1165 
G01 X-19.5699 Y16.1095 
G01 X-19.5553 Y16.0983 
G01 X-19.5393 Y16.0890 
G01 X-19.5263 Y16.0760 
G01 X-19.5117 Y16.0648 
G01 X-19.5005 Y16.0502 
G01 X-19.4875 Y16.0372 
G01 X-19.4782 Y16.0212 
G01 X-19.4670 Y16.0066 
G01 X-19.4600 Y15.9896 
G01 X-19.4508 Y15.9736 
G01 X-19.4460 Y15.9558 
G01 X-19.4390 Y15.9388 
G01 X-19.4366 Y15.9206 
G01 X-19.4318 Y15.9028 
G01 X-19.4318 Y15.8844 
G01 X-19.4294 Y15.8661 
G01 X-19.4318 Y15.8478 
G01 X-19.4318 Y14.6321 
G01 X-19.4294 Y14.6139 
G01 X-19.4318 Y14.5956 
G01 X-19.4318 Y14.5772 
G01 X-19.4366 Y14.5594 
G01 X-19.4390 Y14.5412 
G01 X-19.4460 Y14.5241 
G01 X-19.4508 Y14.5063 
G01 X-19.4600 Y14.4904 
G01 X-19.4670 Y14.4734 
G01 X-19.4782 Y14.4588 
G01 X-19.4875 Y14.4428 
G01 X-19.5005 Y14.4298 
G01 X-19.5117 Y14.4152 
G01 X-19.5263 Y14.4040 
G01 X-19.5393 Y14.3910 
G01 X-19.5553 Y14.3817 
G01 X-19.5699 Y14.3705 
G01 X-19.5869 Y14.3635 
G01 X-19.6029 Y14.3543 
G01 X-19.6134 Y14.3514 
G01 X-19.8905 Y14.0744 
G01 X-20.0414 Y13.7100 
G01 X-20.0414 Y11.6900 
G01 X-19.8905 Y11.3256 
G01 X-19.6134 Y11.0485 
G01 X-19.6029 Y11.0457 
G01 X-19.5869 Y11.0365 
G01 X-19.5699 Y11.0295 
G01 X-19.5553 Y11.0183 
G01 X-19.5393 Y11.0090 
G01 X-19.5263 Y10.9960 
G01 X-19.5117 Y10.9848 
G01 X-19.5005 Y10.9702 
G01 X-19.4875 Y10.9572 
G01 X-19.4782 Y10.9412 
G01 X-19.4670 Y10.9266 
G01 X-19.4600 Y10.9096 
G01 X-19.4508 Y10.8936 
G01 X-19.4460 Y10.8758 
G01 X-19.4390 Y10.8588 
G01 X-19.4366 Y10.8406 
G01 X-19.4318 Y10.8228 
G01 X-19.4318 Y10.8044 
G01 X-19.4294 Y10.7861 
G01 X-19.4318 Y10.7678 
G01 X-19.4318 Y6.5869 
G01 X-19.4508 Y6.5160 
G01 X-19.4875 Y6.4525 
G00 Z2.5400 
G00 X-21.0284 Y11.0467 
G01 Z-0.1778 F254.00 
G01 X-20.7495 Y11.3256 F508.00 
G01 X-20.5986 Y11.6900 
G01 X-20.5986 Y13.7100 
G01 X-20.7495 Y14.0744 
G01 X-21.0284 Y14.3533 
G01 X-21.3928 Y14.5042 
G01 X-21.7872 Y14.5042 
G01 X-22.1516 Y14.3533 
G01 X-22.4305 Y14.0744 
G01 X-22.5814 Y13.7100 
G01 X-22.5814 Y13.3237 
G01 X-22.6004 Y13.2529 
G01 X-22.6371 Y13.1893 
G01 X-22.6889 Y13.1375 
G01 X-22.7525 Y13.1008 
G01 X-22.8233 Y13.0818 
G01 X-23.8931 Y13.0818 
G01 X-23.9640 Y13.1008 
G01 X-24.0275 Y13.1375 
G01 X-24.0794 Y13.1893 
G01 X-25.0631 Y14.1730 
G01 X-25.1837 Y14.2937 
G01 X-25.3478 Y14.3616 
G01 X-25.4060 Y14.4063 
G01 X-25.4507 Y14.4645 
G01 X-25.4787 Y14.5323 
G01 X-25.4883 Y14.6050 
G01 X-25.4787 Y14.6777 
G01 X-25.4507 Y14.7455 
G01 X-25.4060 Y14.8037 
G01 X-25.3478 Y14.8483 
G01 X-25.3430 Y14.8503 
G01 X-25.1837 Y14.9163 
G01 X-23.0829 Y17.0171 
G01 X-23.0656 Y17.0344 
G01 X-23.0311 Y17.0690 
G01 X-22.9675 Y17.1057 
G01 X-22.8975 Y17.1244 
G01 X-22.8233 Y17.1247 
G01 X-22.7525 Y17.1057 
G01 X-22.6889 Y17.0690 
G01 X-22.6371 Y17.0171 
G01 X-22.6004 Y16.9536 
G01 X-22.5816 Y16.8835 
G01 X-22.5814 Y16.7700 
G01 X-22.4305 Y16.4056 
G01 X-22.1516 Y16.1267 
G01 X-21.7872 Y15.9758 
G01 X-21.3928 Y15.9758 
G01 X-21.0284 Y16.1267 
G01 X-20.7495 Y16.4056 
G01 X-20.5986 Y16.7700 
G01 X-20.5986 Y18.7900 
G01 X-20.7495 Y19.1544 
G01 X-21.0284 Y19.4333 
G01 X-21.3928 Y19.5842 
G01 X-21.7872 Y19.5842 
G01 X-22.1516 Y19.4333 
G01 X-22.4305 Y19.1544 
G01 X-22.5814 Y18.7900 
G01 X-22.5814 Y18.4037 
G01 X-22.6004 Y18.3329 
G01 X-22.6371 Y18.2693 
G01 X-22.6889 Y18.2175 
G01 X-22.7525 Y18.1808 
G01 X-22.8233 Y18.1618 
G01 X-22.9359 Y18.1618 
G01 X-23.0763 Y18.1037 
G01 X-23.2467 Y17.9333 
G01 X-23.2977 Y17.8822 
G01 X-23.3621 Y17.8447 
G01 X-23.4040 Y17.8335 
G01 X-23.4329 Y17.8257 
G01 X-23.5063 Y17.8257 
G01 X-23.5624 Y17.8408 
G01 X-23.5771 Y17.8447 
G01 X-23.6407 Y17.8814 
G01 X-23.6917 Y17.9325 
G01 X-23.7292 Y17.9968 
G01 X-23.7405 Y18.0388 
G01 X-23.7482 Y18.0676 
G01 X-23.7482 Y21.3531 
G01 X-23.7292 Y21.4240 
G01 X-23.6925 Y21.4875 
G01 X-23.6407 Y21.5394 
G01 X-23.0829 Y22.0971 
G01 X-23.0311 Y22.1490 
G01 X-22.9675 Y22.1857 
G01 X-22.8975 Y22.2044 
G01 X-22.8233 Y22.2047 
G01 X-22.7525 Y22.1857 
G01 X-22.6889 Y22.1490 
G01 X-22.6371 Y22.0971 
G01 X-22.6004 Y22.0336 
G01 X-22.5816 Y21.9635 
G01 X-22.5814 Y21.8500 
G01 X-22.4305 Y21.4856 
G01 X-22.1516 Y21.2067 
G01 X-21.7872 Y21.0558 
G01 X-21.3928 Y21.0558 
G01 X-21.0284 Y21.2067 
G01 X-20.7495 Y21.4856 
G01 X-20.5986 Y21.8500 
G01 X-20.5986 Y23.8700 
G01 X-20.7495 Y24.2344 
G01 X-21.0284 Y24.5133 
G01 X-21.3928 Y24.6642 
G01 X-21.7872 Y24.6642 
G01 X-22.1516 Y24.5133 
G01 X-22.4305 Y24.2344 
G01 X-22.5814 Y23.8700 
G01 X-22.5814 Y23.4837 
G01 X-22.6004 Y23.4129 
G01 X-22.6371 Y23.3493 
G01 X-22.6889 Y23.2975 
G01 X-22.7525 Y23.2608 
G01 X-22.8233 Y23.2418 
G01 X-22.9359 Y23.2418 
G01 X-23.0763 Y23.1837 
G01 X-24.3330 Y21.9269 
G01 X-24.4537 Y21.8063 
G01 X-24.4752 Y21.7543 
G01 X-24.4800 Y21.7365 
G01 X-24.4892 Y21.7205 
G01 X-24.4962 Y21.7035 
G01 X-24.5074 Y21.6889 
G01 X-24.5167 Y21.6729 
G01 X-24.5297 Y21.6599 
G01 X-24.5409 Y21.6453 
G01 X-24.5555 Y21.6341 
G01 X-24.5685 Y21.6211 
G01 X-24.5845 Y21.6118 
G01 X-24.5991 Y21.6006 
G01 X-24.6161 Y21.5936 
G01 X-24.6321 Y21.5844 
G01 X-24.6499 Y21.5796 
G01 X-24.6669 Y21.5726 
G01 X-24.6851 Y21.5702 
G01 X-24.7029 Y21.5654 
G01 X-24.7213 Y21.5654 
G01 X-24.7396 Y21.5630 
G01 X-24.7579 Y21.5654 
G01 X-24.7763 Y21.5654 
G01 X-24.7941 Y21.5702 
G01 X-24.8123 Y21.5726 
G01 X-24.8293 Y21.5796 
G01 X-24.8471 Y21.5844 
G01 X-24.8631 Y21.5936 
G01 X-24.8801 Y21.6006 
G01 X-24.8947 Y21.6118 
G01 X-24.9107 Y21.6211 
G01 X-24.9237 Y21.6341 
G01 X-24.9383 Y21.6453 
G01 X-24.9495 Y21.6599 
G01 X-24.9625 Y21.6729 
G01 X-24.9717 Y21.6889 
G01 X-24.9830 Y21.7035 
G01 X-24.9900 Y21.7205 
G01 X-24.9992 Y21.7365 
G01 X-25.0040 Y21.7542 
G01 X-25.0110 Y21.7713 
G01 X-25.0134 Y21.7895 
G01 X-25.0182 Y21.8073 
G01 X-25.0182 Y21.8257 
G01 X-25.0206 Y21.8440 
G01 X-25.0182 Y21.8622 
G01 X-25.0182 Y26.4331 
G01 X-24.9992 Y26.5040 
G01 X-24.9625 Y26.5675 
G01 X-24.9107 Y26.6194 
G01 X-24.0275 Y27.5025 
G01 X-23.9640 Y27.5392 
G01 X-23.8931 Y27.5582 
G01 X-22.8233 Y27.5582 
G01 X-22.7525 Y27.5392 
G01 X-22.6889 Y27.5025 
G01 X-22.6371 Y27.4507 
G01 X-22.6004 Y27.3871 
G01 X-22.5814 Y27.3163 
G01 X-22.5814 Y26.9300 
G01 X-22.4305 Y26.5656 
G01 X-22.1516 Y26.2867 
G01 X-21.7872 Y26.1358 
G01 X-21.3928 Y26.1358 
G01 X-21.0284 Y26.2867 
G01 X-20.7495 Y26.5656 
G01 X-20.5986 Y26.9300 
G01 X-20.5986 Y28.9500 
G01 X-20.7495 Y29.3144 
G01 X-21.0284 Y29.5933 
G01 X-21.3928 Y29.7442 
G01 X-21.7872 Y29.7442 
G01 X-22.1516 Y29.5933 
G01 X-22.4305 Y29.3144 
G01 X-22.5814 Y28.9500 
G01 X-22.5814 Y28.5637 
G01 X-22.6004 Y28.4929 
G01 X-22.6371 Y28.4293 
G01 X-22.6889 Y28.3775 
G01 X-22.7525 Y28.3408 
G01 X-22.8233 Y28.3218 
G01 X-24.2059 Y28.3218 
G01 X-24.3463 Y28.2637 
G01 X-25.6030 Y27.0069 
G01 X-25.7237 Y26.8863 
G01 X-25.7818 Y26.7459 
G01 X-25.7818 Y19.2869 
G01 X-25.8008 Y19.2160 
G01 X-25.8375 Y19.1525 
G01 X-25.8893 Y19.1006 
G01 X-26.7725 Y18.2175 
G01 X-26.8360 Y18.1808 
G01 X-26.9069 Y18.1618 
G01 X-56.9131 Y18.1618 
G01 X-56.9840 Y18.1808 
G01 X-57.0475 Y18.2175 
G01 X-57.0994 Y18.2693 
G01 X-58.0831 Y19.2530 
G01 X-58.2037 Y19.3737 
G01 X-58.3441 Y19.4318 
G01 X-58.9570 Y19.4318 
G01 X-59.0279 Y19.4508 
G01 X-59.0914 Y19.4875 
G01 X-59.1433 Y19.5393 
G01 X-59.3865 Y19.7826 
G01 X-59.9934 Y19.7826 
G01 X-60.4226 Y19.3534 
G01 X-60.4226 Y18.7465 
G01 X-59.9934 Y18.3174 
G01 X-59.3865 Y18.3174 
G01 X-59.1433 Y18.5607 
G01 X-59.0914 Y18.6125 
G01 X-59.0279 Y18.6492 
G01 X-58.9570 Y18.6682 
G01 X-58.6569 Y18.6682 
G01 X-58.5860 Y18.6492 
G01 X-58.5225 Y18.6125 
G01 X-58.4706 Y18.5607 
G01 X-57.3663 Y17.4563 
G01 X-57.3142 Y17.4348 
G01 X-57.2965 Y17.4300 
G01 X-57.2805 Y17.4208 
G01 X-57.2635 Y17.4138 
G01 X-57.2489 Y17.4025 
G01 X-57.2329 Y17.3933 
G01 X-57.2199 Y17.3803 
G01 X-57.2053 Y17.3691 
G01 X-57.1941 Y17.3545 
G01 X-57.1810 Y17.3415 
G01 X-57.1718 Y17.3255 
G01 X-57.1606 Y17.3109 
G01 X-57.1536 Y17.2939 
G01 X-57.1444 Y17.2779 
G01 X-57.1396 Y17.2601 
G01 X-57.1326 Y17.2431 
G01 X-57.1302 Y17.2249 
G01 X-57.1254 Y17.2071 
G01 X-57.1254 Y17.1887 
G01 X-57.1230 Y17.1704 
G01 X-57.1254 Y17.1521 
G01 X-57.1254 Y17.1337 
G01 X-57.1302 Y17.1159 
G01 X-57.1326 Y17.0977 
G01 X-57.1396 Y17.0807 
G01 X-57.1444 Y17.0629 
G01 X-57.1536 Y17.0469 
G01 X-57.1606 Y17.0299 
G01 X-57.1718 Y17.0153 
G01 X-57.1810 Y16.9993 
G01 X-57.1941 Y16.9863 
G01 X-57.2053 Y16.9717 
G01 X-57.2199 Y16.9605 
G01 X-57.2329 Y16.9475 
G01 X-57.2489 Y16.9382 
G01 X-57.2635 Y16.9270 
G01 X-57.2805 Y16.9200 
G01 X-57.2965 Y16.9108 
G01 X-57.3142 Y16.9060 
G01 X-57.3313 Y16.8990 
G01 X-57.3495 Y16.8966 
G01 X-57.3673 Y16.8918 
G01 X-57.3857 Y16.8918 
G01 X-57.4040 Y16.8894 
G01 X-57.4222 Y16.8918 
G01 X-58.9570 Y16.8918 
G01 X-59.0279 Y16.9108 
G01 X-59.0914 Y16.9475 
G01 X-59.1433 Y16.9993 
G01 X-59.3865 Y17.2426 
G01 X-59.9934 Y17.2426 
G01 X-60.4226 Y16.8134 
G01 X-60.4226 Y16.2065 
G01 X-59.9934 Y15.7774 
G01 X-59.3865 Y15.7774 
G01 X-59.0914 Y16.0725 
G01 X-59.0279 Y16.1092 
G01 X-58.9570 Y16.1282 
G01 X-58.6922 Y16.1282 
G01 X-58.6740 Y16.1306 
G01 X-58.6557 Y16.1282 
G01 X-58.6373 Y16.1282 
G01 X-58.6195 Y16.1234 
G01 X-58.6013 Y16.1210 
G01 X-58.5842 Y16.1140 
G01 X-58.5665 Y16.1092 
G01 X-58.5505 Y16.1000 
G01 X-58.5335 Y16.0930 
G01 X-58.5189 Y16.0817 
G01 X-58.5029 Y16.0725 
G01 X-58.4899 Y16.0595 
G01 X-58.4753 Y16.0483 
G01 X-58.4641 Y16.0337 
G01 X-58.4511 Y16.0207 
G01 X-58.4418 Y16.0047 
G01 X-58.4306 Y15.9901 
G01 X-58.4236 Y15.9731 
G01 X-58.4144 Y15.9571 
G01 X-58.4096 Y15.9393 
G01 X-58.4026 Y15.9223 
G01 X-58.4002 Y15.9041 
G01 X-58.3954 Y15.8863 
G01 X-58.3954 Y15.8679 
G01 X-58.3930 Y15.8496 
G01 X-58.3954 Y15.8313 
G01 X-58.3954 Y15.8129 
G01 X-58.4002 Y15.7951 
G01 X-58.4026 Y15.7769 
G01 X-58.4096 Y15.7599 
G01 X-58.4144 Y15.7421 
G01 X-58.4236 Y15.7261 
G01 X-58.4306 Y15.7091 
G01 X-58.4418 Y15.6945 
G01 X-58.4511 Y15.6785 
G01 X-58.4641 Y15.6655 
G01 X-58.4753 Y15.6509 
G01 X-58.4899 Y15.6397 
G01 X-58.5029 Y15.6267 
G01 X-58.5189 Y15.6174 
G01 X-58.5335 Y15.6062 
G01 X-58.5505 Y15.5992 
G01 X-58.5665 Y15.5900 
G01 X-58.5842 Y15.5852 
G01 X-58.6363 Y15.5637 
G01 X-58.8088 Y15.3911 
G01 X-59.4417 Y14.7583 
G01 X-59.5052 Y14.7216 
G01 X-59.5761 Y14.7026 
G01 X-59.9934 Y14.7026 
G01 X-60.4226 Y14.2734 
G01 X-60.4226 Y13.6665 
G01 X-59.9934 Y13.2374 
G01 X-59.3865 Y13.2374 
G01 X-58.9574 Y13.6665 
G01 X-58.9574 Y14.0839 
G01 X-58.9384 Y14.1548 
G01 X-58.9017 Y14.2183 
G01 X-58.8499 Y14.2702 
G01 X-58.3175 Y14.8025 
G01 X-58.2540 Y14.8392 
G01 X-58.1831 Y14.8582 
G01 X-53.6122 Y14.8582 
G01 X-53.5940 Y14.8606 
G01 X-53.5757 Y14.8582 
G01 X-53.5573 Y14.8582 
G01 X-53.5395 Y14.8534 
G01 X-53.5213 Y14.8510 
G01 X-53.5042 Y14.8440 
G01 X-53.4865 Y14.8392 
G01 X-53.4705 Y14.8300 
G01 X-53.4535 Y14.8230 
G01 X-53.4389 Y14.8117 
G01 X-53.4229 Y14.8025 
G01 X-53.4099 Y14.7895 
G01 X-53.3953 Y14.7783 
G01 X-53.3841 Y14.7637 
G01 X-53.3711 Y14.7507 
G01 X-53.3618 Y14.7347 
G01 X-53.3506 Y14.7201 
G01 X-53.3436 Y14.7031 
G01 X-53.3344 Y14.6871 
G01 X-53.3296 Y14.6693 
G01 X-53.3226 Y14.6523 
G01 X-53.3202 Y14.6341 
G01 X-53.3154 Y14.6163 
G01 X-53.3154 Y14.5978 
G01 X-53.3130 Y14.5796 
G01 X-53.3154 Y14.5613 
G01 X-53.3154 Y14.5429 
G01 X-53.3202 Y14.5251 
G01 X-53.3226 Y14.5069 
G01 X-53.3296 Y14.4899 
G01 X-53.3344 Y14.4721 
G01 X-53.3436 Y14.4561 
G01 X-53.3506 Y14.4391 
G01 X-53.3618 Y14.4245 
G01 X-53.3711 Y14.4085 
G01 X-53.3841 Y14.3955 
G01 X-53.3953 Y14.3809 
G01 X-53.4099 Y14.3697 
G01 X-53.4229 Y14.3567 
G01 X-53.4389 Y14.3475 
G01 X-53.4535 Y14.3362 
G01 X-53.4705 Y14.3292 
G01 X-53.4865 Y14.3200 
G01 X-53.5043 Y14.3152 
G01 X-53.5563 Y14.2937 
G01 X-55.9825 Y11.8675 
G01 X-56.0460 Y11.8308 
G01 X-56.1169 Y11.8118 
G01 X-58.9570 Y11.8118 
G01 X-59.0279 Y11.8308 
G01 X-59.0914 Y11.8675 
G01 X-59.1433 Y11.9193 
G01 X-59.3865 Y12.1626 
G01 X-59.9934 Y12.1626 
G01 X-60.4226 Y11.7334 
G01 X-60.4226 Y11.1265 
G01 X-59.9934 Y10.6974 
G01 X-59.3865 Y10.6974 
G01 X-59.0914 Y10.9925 
G01 X-59.0279 Y11.0292 
G01 X-58.9570 Y11.0482 
G01 X-55.8040 Y11.0482 
G01 X-55.6637 Y11.1063 
G01 X-53.2375 Y13.5325 
G01 X-53.1740 Y13.5692 
G01 X-53.1031 Y13.5882 
G01 X-25.6369 Y13.5882 
G01 X-25.5660 Y13.5692 
G01 X-25.5025 Y13.5325 
G01 X-25.4506 Y13.4807 
G01 X-24.3463 Y12.3763 
G01 X-24.2059 Y12.3182 
G01 X-22.8233 Y12.3182 
G01 X-22.7525 Y12.2992 
G01 X-22.6889 Y12.2625 
G01 X-22.6371 Y12.2107 
G01 X-22.6004 Y12.1471 
G01 X-22.5814 Y12.0763 
G01 X-22.5814 Y11.6900 
G01 X-22.4305 Y11.3256 
G01 X-22.1516 Y11.0467 
G01 X-21.7872 Y10.8958 
G01 X-21.3928 Y10.8958 
G01 X-21.0284 Y11.0467 
G00 Z2.5400 
G00 X-21.0238 Y11.1973 
G01 Z-0.1778 F254.00 
G01 X-21.1693 Y11.1001 F508.00 
G01 X-21.3309 Y11.0331 
G01 X-21.5025 Y10.9990 
G01 X-21.6775 Y10.9990 
G01 X-21.8491 Y11.0331 
G01 X-22.0107 Y11.1001 
G01 X-22.1562 Y11.1973 
G01 X-22.2799 Y11.3210 
G01 X-22.3771 Y11.4665 
G01 X-22.4441 Y11.6281 
G01 X-22.4782 Y11.7997 
G01 X-22.4782 Y12.4214 
G01 X-24.1667 Y12.4214 
G01 X-24.2375 Y12.4404 
G01 X-24.3011 Y12.4771 
G01 X-25.5154 Y13.6914 
G01 X-53.2246 Y13.6914 
G01 X-55.7089 Y11.2071 
G01 X-55.7725 Y11.1704 
G01 X-55.8433 Y11.1514 
G01 X-59.0785 Y11.1514 
G01 X-59.4293 Y10.8006 
G01 X-59.9507 Y10.8006 
G01 X-60.3194 Y11.1693 
G01 X-60.3194 Y11.6907 
G01 X-59.9507 Y12.0594 
G01 X-59.4293 Y12.0594 
G01 X-59.0785 Y11.7086 
G01 X-55.9954 Y11.7086 
G01 X-53.5111 Y14.1929 
G01 X-53.4475 Y14.2296 
G01 X-53.3767 Y14.2486 
G01 X-25.3633 Y14.2486 
G01 X-25.2925 Y14.2296 
G01 X-25.2289 Y14.1929 
G01 X-25.1771 Y14.1411 
G01 X-24.0146 Y12.9786 
G01 X-22.4782 Y12.9786 
G01 X-22.4782 Y13.6003 
G01 X-22.4441 Y13.7719 
G01 X-22.3771 Y13.9335 
G01 X-22.2799 Y14.0790 
G01 X-22.1562 Y14.2027 
G01 X-22.0107 Y14.2999 
G01 X-21.8491 Y14.3669 
G01 X-21.6775 Y14.4010 
G01 X-21.5025 Y14.4010 
G01 X-21.3309 Y14.3669 
G01 X-21.1693 Y14.2999 
G01 X-21.0238 Y14.2027 
G01 X-20.9001 Y14.0790 
G01 X-20.8029 Y13.9335 
G01 X-20.7359 Y13.7719 
G01 X-20.7018 Y13.6003 
G01 X-20.7018 Y11.7997 
G01 X-20.7359 Y11.6281 
G01 X-20.8029 Y11.4665 
G01 X-20.9001 Y11.3210 
G01 X-21.0238 Y11.1973 
G00 Z2.5400 
G00 X-17.2662 Y11.2414 
G01 Z-0.1778 F254.00 
G01 X-17.1558 Y11.1310 F508.00 
G01 X-17.0296 Y11.0393 
G01 X-16.8906 Y10.9684 
G01 X-16.8394 Y10.9518 
G01 X-16.8394 Y11.0623 
G01 X-16.9307 Y11.1001 
G01 X-17.0762 Y11.1973 
G01 X-17.1999 Y11.3210 
G01 X-17.2971 Y11.4665 
G01 X-17.3641 Y11.6281 
G01 X-17.3982 Y11.7997 
G01 X-17.3982 Y12.3706 
G01 X-17.5014 Y12.3706 
G01 X-17.5014 Y11.8092 
G01 X-17.4770 Y11.6550 
G01 X-17.4288 Y11.5066 
G01 X-17.3579 Y11.3676 
G01 X-17.2662 Y11.2414 
G00 Z2.5400 
G00 X-16.1806 Y11.0623 
G01 Z-0.1778 F254.00 
G01 X-16.1806 Y10.9518 F508.00 
G01 X-16.1294 Y10.9684 
G01 X-15.9904 Y11.0393 
G01 X-15.8642 Y11.1310 
G01 X-15.7538 Y11.2414 
G01 X-15.6621 Y11.3676 
G01 X-15.5912 Y11.5066 
G01 X-15.5430 Y11.6550 
G01 X-15.5186 Y11.8092 
G01 X-15.5186 Y12.3706 
G01 X-15.6218 Y12.3706 
G01 X-15.6218 Y11.7997 
G01 X-15.6559 Y11.6281 
G01 X-15.7229 Y11.4665 
G01 X-15.8201 Y11.3210 
G01 X-15.9438 Y11.1973 
G01 X-16.0893 Y11.1001 
G01 X-16.1806 Y11.0623 
G00 Z2.5400 
G00 X-15.6218 Y13.0294 
G01 Z-0.1778 F254.00 
G01 X-15.5186 Y13.0294 F508.00 
G01 X-15.5186 Y13.5908 
G01 X-15.5430 Y13.7449 
G01 X-15.5912 Y13.8934 
G01 X-15.6621 Y14.0324 
G01 X-15.7538 Y14.1586 
G01 X-15.8642 Y14.2690 
G01 X-15.9904 Y14.3607 
G01 X-16.1294 Y14.4316 
G01 X-16.1806 Y14.4482 
G01 X-16.1806 Y14.3377 
G01 X-16.0893 Y14.2999 
G01 X-15.9438 Y14.2027 
G01 X-15.8201 Y14.0790 
G01 X-15.7229 Y13.9335 
G01 X-15.6559 Y13.7719 
G01 X-15.6218 Y13.6003 
G01 X-15.6218 Y13.0294 
G00 Z2.5400 
G00 X-17.3982 Y13.0294 
G01 Z-0.1778 F254.00 
G01 X-17.3982 Y13.6003 F508.00 
G01 X-17.3641 Y13.7719 
G01 X-17.2971 Y13.9335 
G01 X-17.1999 Y14.0790 
G01 X-17.0762 Y14.2027 
G01 X-16.9307 Y14.2999 
G01 X-16.8394 Y14.3377 
G01 X-16.8394 Y14.4482 
G01 X-16.8906 Y14.4316 
G01 X-17.0296 Y14.3607 
G01 X-17.1558 Y14.2690 
G01 X-17.2662 Y14.1586 
G01 X-17.3579 Y14.0324 
G01 X-17.4288 Y13.8934 
G01 X-17.4770 Y13.7449 
G01 X-17.5014 Y13.5908 
G01 X-17.5014 Y13.0294 
G01 X-17.3982 Y13.0294 
G00 Z2.5400 
G00 X-17.2662 Y16.3213 
G01 Z-0.1778 F254.00 
G01 X-17.1558 Y16.2110 F508.00 
G01 X-17.0296 Y16.1193 
G01 X-16.8906 Y16.0484 
G01 X-16.8394 Y16.0318 
G01 X-16.8394 Y16.1423 
G01 X-16.9307 Y16.1801 
G01 X-17.0762 Y16.2773 
G01 X-17.1999 Y16.4010 
G01 X-17.2971 Y16.5465 
G01 X-17.3641 Y16.7081 
G01 X-17.3982 Y16.8797 
G01 X-17.3982 Y17.4506 
G01 X-17.5014 Y17.4506 
G01 X-17.5014 Y16.8892 
G01 X-17.4770 Y16.7351 
G01 X-17.4288 Y16.5866 
G01 X-17.3579 Y16.4476 
G01 X-17.2662 Y16.3213 
G00 Z2.5400 
G00 X-16.1806 Y16.1423 
G01 Z-0.1778 F254.00 
G01 X-16.1806 Y16.0318 F508.00 
G01 X-16.1294 Y16.0484 
G01 X-15.9904 Y16.1193 
G01 X-15.8642 Y16.2110 
G01 X-15.7538 Y16.3213 
G01 X-15.6621 Y16.4476 
G01 X-15.5912 Y16.5866 
G01 X-15.5430 Y16.7351 
G01 X-15.5186 Y16.8892 
G01 X-15.5186 Y17.4506 
G01 X-15.6218 Y17.4506 
G01 X-15.6218 Y16.8797 
G01 X-15.6559 Y16.7081 
G01 X-15.7229 Y16.5465 
G01 X-15.8201 Y16.4010 
G01 X-15.9438 Y16.2773 
G01 X-16.0893 Y16.1801 
G01 X-16.1806 Y16.1423 
G00 Z2.5400 
G00 X-15.6218 Y18.1094 
G01 Z-0.1778 F254.00 
G01 X-15.5186 Y18.1094 F508.00 
G01 X-15.5186 Y18.6708 
G01 X-15.5430 Y18.8249 
G01 X-15.5912 Y18.9734 
G01 X-15.6621 Y19.1124 
G01 X-15.7538 Y19.2386 
G01 X-15.8642 Y19.3490 
G01 X-15.9904 Y19.4407 
G01 X-16.1294 Y19.5116 
G01 X-16.1806 Y19.5282 
G01 X-16.1806 Y19.4177 
G01 X-16.0893 Y19.3799 
G01 X-15.9438 Y19.2827 
G01 X-15.8201 Y19.1590 
G01 X-15.7229 Y19.0135 
G01 X-15.6559 Y18.8519 
G01 X-15.6218 Y18.6803 
G01 X-15.6218 Y18.1094 
G00 Z2.5400 
G00 X-17.3982 Y18.1094 
G01 Z-0.1778 F254.00 
G01 X-17.3982 Y18.6803 F508.00 
G01 X-17.3641 Y18.8519 
G01 X-17.2971 Y19.0135 
G01 X-17.1999 Y19.1590 
G01 X-17.0762 Y19.2827 
G01 X-16.9307 Y19.3799 
G01 X-16.8394 Y19.4177 
G01 X-16.8394 Y19.5282 
G01 X-16.8906 Y19.5116 
G01 X-17.0296 Y19.4407 
G01 X-17.1558 Y19.3490 
G01 X-17.2662 Y19.2386 
G01 X-17.3579 Y19.1124 
G01 X-17.4288 Y18.9734 
G01 X-17.4770 Y18.8249 
G01 X-17.5014 Y18.6708 
G01 X-17.5014 Y18.1094 
G01 X-17.3982 Y18.1094 
G00 Z2.5400 
G00 X-17.1558 Y21.2910 
G01 Z-0.1778 F254.00 
G01 X-17.0296 Y21.1993 F508.00 
G01 X-16.8906 Y21.1284 
G01 X-16.8394 Y21.1118 
G01 X-16.8394 Y21.2223 
G01 X-16.9307 Y21.2601 
G01 X-17.0762 Y21.3573 
G01 X-17.1999 Y21.4810 
G01 X-17.2971 Y21.6265 
G01 X-17.3641 Y21.7881 
G01 X-17.3982 Y21.9597 
G01 X-17.3982 Y22.5306 
G01 X-17.5014 Y22.5306 
G01 X-17.5014 Y21.9692 
G01 X-17.4770 Y21.8150 
G01 X-17.4288 Y21.6666 
G01 X-17.3579 Y21.5276 
G01 X-17.2662 Y21.4014 
G01 X-17.1558 Y21.2910 
G00 Z2.5400 
G00 X-16.1806 Y21.2223 
G01 Z-0.1778 F254.00 
G01 X-16.1806 Y21.1118 F508.00 
G01 X-16.1294 Y21.1284 
G01 X-15.9904 Y21.1993 
G01 X-15.8642 Y21.2910 
G01 X-15.7538 Y21.4014 
G01 X-15.6621 Y21.5276 
G01 X-15.5912 Y21.6666 
G01 X-15.5430 Y21.8150 
G01 X-15.5186 Y21.9692 
G01 X-15.5186 Y22.5306 
G01 X-15.6218 Y22.5306 
G01 X-15.6218 Y21.9597 
G01 X-15.6559 Y21.7881 
G01 X-15.7229 Y21.6265 
G01 X-15.8201 Y21.4810 
G01 X-15.9438 Y21.3573 
G01 X-16.0893 Y21.2601 
G01 X-16.1806 Y21.2223 
G00 Z2.5400 
G00 X-15.6218 Y23.1894 
G01 Z-0.1778 F254.00 
G01 X-15.5186 Y23.1894 F508.00 
G01 X-15.5186 Y23.7508 
G01 X-15.5430 Y23.9049 
G01 X-15.5912 Y24.0534 
G01 X-15.6621 Y24.1924 
G01 X-15.7538 Y24.3186 
G01 X-15.8642 Y24.4290 
G01 X-15.9904 Y24.5207 
G01 X-16.1294 Y24.5916 
G01 X-16.1806 Y24.6082 
G01 X-16.1806 Y24.4977 
G01 X-16.0893 Y24.4599 
G01 X-15.9438 Y24.3627 
G01 X-15.8201 Y24.2390 
G01 X-15.7229 Y24.0935 
G01 X-15.6559 Y23.9319 
G01 X-15.6218 Y23.7603 
G01 X-15.6218 Y23.1894 
G00 Z2.5400 
G00 X-17.3982 Y23.1894 
G01 Z-0.1778 F254.00 
G01 X-17.3982 Y23.7603 F508.00 
G01 X-17.3641 Y23.9319 
G01 X-17.2971 Y24.0935 
G01 X-17.1999 Y24.2390 
G01 X-17.0762 Y24.3627 
G01 X-16.9307 Y24.4599 
G01 X-16.8394 Y24.4977 
G01 X-16.8394 Y24.6082 
G01 X-16.8906 Y24.5916 
G01 X-17.0296 Y24.5207 
G01 X-17.1558 Y24.4290 
G01 X-17.2662 Y24.3186 
G01 X-17.3579 Y24.1924 
G01 X-17.4288 Y24.0534 
G01 X-17.4770 Y23.9049 
G01 X-17.5014 Y23.7508 
G01 X-17.5014 Y23.1894 
G01 X-17.3982 Y23.1894 
G00 Z2.5400 
G00 X-17.2662 Y26.4813 
G01 Z-0.1778 F254.00 
G01 X-17.1558 Y26.3710 F508.00 
G01 X-17.0296 Y26.2793 
G01 X-16.8906 Y26.2084 
G01 X-16.8394 Y26.1918 
G01 X-16.8394 Y26.3023 
G01 X-16.9307 Y26.3401 
G01 X-17.0762 Y26.4373 
G01 X-17.1999 Y26.5610 
G01 X-17.2971 Y26.7065 
G01 X-17.3641 Y26.8681 
G01 X-17.3982 Y27.0397 
G01 X-17.3982 Y27.6106 
G01 X-17.5014 Y27.6106 
G01 X-17.5014 Y27.0492 
G01 X-17.4770 Y26.8951 
G01 X-17.4288 Y26.7466 
G01 X-17.3579 Y26.6076 
G01 X-17.2662 Y26.4813 
G00 Z2.5400 
G00 X-16.1806 Y26.3023 
G01 Z-0.1778 F254.00 
G01 X-16.1806 Y26.1918 F508.00 
G01 X-16.1294 Y26.2084 
G01 X-15.9904 Y26.2793 
G01 X-15.8642 Y26.3710 
G01 X-15.7538 Y26.4813 
G01 X-15.6621 Y26.6076 
G01 X-15.5912 Y26.7466 
G01 X-15.5430 Y26.8951 
G01 X-15.5186 Y27.0492 
G01 X-15.5186 Y27.6106 
G01 X-15.6218 Y27.6106 
G01 X-15.6218 Y27.0397 
G01 X-15.6559 Y26.8681 
G01 X-15.7229 Y26.7065 
G01 X-15.8201 Y26.5610 
G01 X-15.9438 Y26.4373 
G01 X-16.0893 Y26.3401 
G01 X-16.1806 Y26.3023 
G00 Z2.5400 
G00 X-15.6218 Y28.2694 
G01 Z-0.1778 F254.00 
G01 X-15.5186 Y28.2694 F508.00 
G01 X-15.5186 Y28.8308 
G01 X-15.5430 Y28.9849 
G01 X-15.5912 Y29.1334 
G01 X-15.6621 Y29.2724 
G01 X-15.7538 Y29.3986 
G01 X-15.8642 Y29.5090 
G01 X-15.9904 Y29.6007 
G01 X-16.1294 Y29.6716 
G01 X-16.1806 Y29.6882 
G01 X-16.1806 Y29.5777 
G01 X-16.0893 Y29.5399 
G01 X-15.9438 Y29.4427 
G01 X-15.8201 Y29.3190 
G01 X-15.7229 Y29.1735 
G01 X-15.6559 Y29.0119 
G01 X-15.6218 Y28.8403 
G01 X-15.6218 Y28.2694 
G00 Z2.5400 
G00 X-17.3982 Y28.2694 
G01 Z-0.1778 F254.00 
G01 X-17.3982 Y28.8403 F508.00 
G01 X-17.3641 Y29.0119 
G01 X-17.2971 Y29.1735 
G01 X-17.1999 Y29.3190 
G01 X-17.0762 Y29.4427 
G01 X-16.9307 Y29.5399 
G01 X-16.8394 Y29.5777 
G01 X-16.8394 Y29.6882 
G01 X-16.8906 Y29.6716 
G01 X-17.0296 Y29.6007 
G01 X-17.1558 Y29.5090 
G01 X-17.2662 Y29.3986 
G01 X-17.3579 Y29.2724 
G01 X-17.4288 Y29.1334 
G01 X-17.4770 Y28.9849 
G01 X-17.5014 Y28.8308 
G01 X-17.5014 Y28.2694 
G01 X-17.3982 Y28.2694 
G00 Z2.5400 
G00 X-20.7018 Y28.8403 
G01 Z-0.1778 F254.00 
G01 X-20.7018 Y27.0397 F508.00 
G01 X-20.7359 Y26.8681 
G01 X-20.8029 Y26.7065 
G01 X-20.9001 Y26.5610 
G01 X-21.0238 Y26.4373 
G01 X-21.1693 Y26.3401 
G01 X-21.3309 Y26.2731 
G01 X-21.5025 Y26.2390 
G01 X-21.6775 Y26.2390 
G01 X-21.8491 Y26.2731 
G01 X-22.0107 Y26.3401 
G01 X-22.1562 Y26.4373 
G01 X-22.2799 Y26.5610 
G01 X-22.3771 Y26.7065 
G01 X-22.4441 Y26.8681 
G01 X-22.4782 Y27.0397 
G01 X-22.4782 Y27.6614 
G01 X-24.0146 Y27.6614 
G01 X-25.1214 Y26.5546 
G01 X-25.1214 Y19.0133 
G01 X-25.1404 Y18.9425 
G01 X-25.1771 Y18.8789 
G01 X-26.4471 Y17.6089 
G01 X-26.4989 Y17.5571 
G01 X-26.5625 Y17.5204 
G01 X-26.6333 Y17.5014 
G01 X-57.1867 Y17.5014 
G01 X-57.2575 Y17.5204 
G01 X-57.3211 Y17.5571 
G01 X-58.5354 Y18.7714 
G01 X-59.0785 Y18.7714 
G01 X-59.4293 Y18.4206 
G01 X-59.9507 Y18.4206 
G01 X-60.3194 Y18.7893 
G01 X-60.3194 Y19.3107 
G01 X-59.9507 Y19.6794 
G01 X-59.4293 Y19.6794 
G01 X-59.0785 Y19.3286 
G01 X-58.3833 Y19.3286 
G01 X-58.3125 Y19.3096 
G01 X-58.2489 Y19.2729 
G01 X-58.1971 Y19.2211 
G01 X-57.0346 Y18.0586 
G01 X-26.7854 Y18.0586 
G01 X-25.6786 Y19.1654 
G01 X-25.6786 Y26.7067 
G01 X-25.6596 Y26.7775 
G01 X-25.6229 Y26.8411 
G01 X-25.5711 Y26.8929 
G01 X-24.3011 Y28.1629 
G01 X-24.2375 Y28.1996 
G01 X-24.1667 Y28.2186 
G01 X-22.4782 Y28.2186 
G01 X-22.4782 Y28.8403 
G01 X-22.4441 Y29.0119 
G01 X-22.3771 Y29.1735 
G01 X-22.2799 Y29.3190 
G01 X-22.1562 Y29.4427 
G01 X-22.0107 Y29.5399 
G01 X-21.8491 Y29.6069 
G01 X-21.6775 Y29.6410 
G01 X-21.5025 Y29.6410 
G01 X-21.3309 Y29.6069 
G01 X-21.1693 Y29.5399 
G01 X-21.0238 Y29.4427 
G01 X-20.9001 Y29.3190 
G01 X-20.8029 Y29.1735 
G01 X-20.7359 Y29.0119 
G01 X-20.7018 Y28.8403 
G00 Z2.5400 
G00 X-21.0238 Y24.3627 
G01 Z-0.1778 F254.00 
G01 X-20.9001 Y24.2390 F508.00 
G01 X-20.8029 Y24.0935 
G01 X-20.7359 Y23.9319 
G01 X-20.7018 Y23.7603 
G01 X-20.7018 Y21.9597 
G01 X-20.7359 Y21.7881 
G01 X-20.8029 Y21.6265 
G01 X-20.9001 Y21.4810 
G01 X-21.0238 Y21.3573 
G01 X-21.1693 Y21.2601 
G01 X-21.3309 Y21.1931 
G01 X-21.5025 Y21.1590 
G01 X-21.6775 Y21.1590 
G01 X-21.8491 Y21.1931 
G01 X-22.0107 Y21.2601 
G01 X-22.1562 Y21.3573 
G01 X-22.2799 Y21.4810 
G01 X-22.3771 Y21.6265 
G01 X-22.4441 Y21.7881 
G01 X-22.4782 Y21.9597 
G01 X-22.4782 Y22.5814 
G01 X-22.7446 Y22.5814 
G01 X-23.8514 Y21.4746 
G01 X-23.8514 Y17.7433 
G01 X-23.8704 Y17.6725 
G01 X-23.9071 Y17.6089 
G01 X-25.1771 Y16.3389 
G01 X-25.2289 Y16.2871 
G01 X-25.2925 Y16.2504 
G01 X-25.3633 Y16.2314 
G01 X-59.0785 Y16.2314 
G01 X-59.4293 Y15.8806 
G01 X-59.9507 Y15.8806 
G01 X-60.3194 Y16.2493 
G01 X-60.3194 Y16.7707 
G01 X-59.9507 Y17.1394 
G01 X-59.4293 Y17.1394 
G01 X-59.0785 Y16.7886 
G01 X-25.5154 Y16.7886 
G01 X-24.4086 Y17.8954 
G01 X-24.4086 Y21.6267 
G01 X-24.3896 Y21.6975 
G01 X-24.3529 Y21.7611 
G01 X-24.3011 Y21.8129 
G01 X-23.0311 Y23.0829 
G01 X-22.9675 Y23.1196 
G01 X-22.8967 Y23.1386 
G01 X-22.4782 Y23.1386 
G01 X-22.4782 Y23.7603 
G01 X-22.4441 Y23.9319 
G01 X-22.3771 Y24.0935 
G01 X-22.2799 Y24.2390 
G01 X-22.1562 Y24.3627 
G01 X-22.0107 Y24.4599 
G01 X-21.8491 Y24.5269 
G01 X-21.6775 Y24.5610 
G01 X-21.5025 Y24.5610 
G01 X-21.3309 Y24.5269 
G01 X-21.1693 Y24.4599 
G01 X-21.0238 Y24.3627 
G00 Z2.5400 
G00 X-21.0238 Y19.2827 
G01 Z-0.1778 F254.00 
G01 X-20.9001 Y19.1590 F508.00 
G01 X-20.8029 Y19.0135 
G01 X-20.7359 Y18.8519 
G01 X-20.7018 Y18.6803 
G01 X-20.7018 Y16.8797 
G01 X-20.7359 Y16.7081 
G01 X-20.8029 Y16.5465 
G01 X-20.9001 Y16.4010 
G01 X-21.0238 Y16.2773 
G01 X-21.1693 Y16.1801 
G01 X-21.3309 Y16.1131 
G01 X-21.5025 Y16.0790 
G01 X-21.6775 Y16.0790 
G01 X-21.8491 Y16.1131 
G01 X-22.0107 Y16.1801 
G01 X-22.1562 Y16.2773 
G01 X-22.2799 Y16.4010 
G01 X-22.3771 Y16.5465 
G01 X-22.4441 Y16.7081 
G01 X-22.4782 Y16.8797 
G01 X-22.4782 Y17.5014 
G01 X-22.7446 Y17.5014 
G01 X-25.2289 Y15.0171 
G01 X-25.2925 Y14.9804 
G01 X-25.3633 Y14.9614 
G01 X-58.3046 Y14.9614 
G01 X-59.0606 Y14.2054 
G01 X-59.0606 Y13.7093 
G01 X-59.4293 Y13.3406 
G01 X-59.9507 Y13.3406 
G01 X-60.3194 Y13.7093 
G01 X-60.3194 Y14.2307 
G01 X-59.9507 Y14.5994 
G01 X-59.4546 Y14.5994 
G01 X-58.6429 Y15.4111 
G01 X-58.5911 Y15.4629 
G01 X-58.5275 Y15.4996 
G01 X-58.4567 Y15.5186 
G01 X-25.5154 Y15.5186 
G01 X-23.0829 Y17.9511 
G01 X-23.0311 Y18.0029 
G01 X-22.9675 Y18.0396 
G01 X-22.8967 Y18.0586 
G01 X-22.4782 Y18.0586 
G01 X-22.4782 Y18.6803 
G01 X-22.4441 Y18.8519 
G01 X-22.3771 Y19.0135 
G01 X-22.2799 Y19.1590 
G01 X-22.1562 Y19.2827 
G01 X-22.0107 Y19.3799 
G01 X-21.8491 Y19.4469 
G01 X-21.6775 Y19.4810 
G01 X-21.5025 Y19.4810 
G01 X-21.3309 Y19.4469 
G01 X-21.1693 Y19.3799 
G01 X-21.0238 Y19.2827 
G00 Z2.5400 
G00 X-21.3531 Y34.6718 
G01 Z-0.1778 F254.00 
G01 X-21.4240 Y34.6908 F508.00 
G01 X-21.4875 Y34.7275 
G01 X-21.5394 Y34.7793 
G01 X-22.4225 Y35.6625 
G01 X-22.4592 Y35.7260 
G01 X-22.4782 Y35.7969 
G01 X-22.4782 Y43.2559 
G01 X-22.5363 Y43.3963 
G01 X-22.7088 Y43.5688 
G01 X-23.9137 Y44.7737 
G01 X-24.0541 Y44.8318 
G01 X-44.2131 Y44.8318 
G01 X-44.2840 Y44.8508 
G01 X-44.3475 Y44.8875 
G01 X-44.3994 Y44.9393 
G01 X-45.2825 Y45.8225 
G01 X-45.3192 Y45.8860 
G01 X-45.3382 Y45.9569 
G01 X-45.3382 Y55.1470 
G01 X-45.3192 Y55.2179 
G01 X-45.2825 Y55.2814 
G01 X-45.2307 Y55.3333 
G01 X-45.1214 Y55.4425 
G01 X-45.0579 Y55.4792 
G01 X-44.9870 Y55.4982 
G01 X-43.7733 Y55.4982 
G01 X-43.7025 Y55.4792 
G01 X-43.6389 Y55.4425 
G01 X-43.5871 Y55.3907 
G01 X-43.5504 Y55.3271 
G01 X-43.5314 Y55.2563 
G01 X-43.5314 Y54.8700 
G01 X-43.3805 Y54.5056 
G01 X-43.1016 Y54.2267 
G01 X-42.7372 Y54.0758 
G01 X-42.3428 Y54.0758 
G01 X-41.9784 Y54.2267 
G01 X-41.6995 Y54.5056 
G01 X-41.5486 Y54.8700 
G01 X-41.5486 Y56.8900 
G01 X-41.6995 Y57.2544 
G01 X-41.9818 Y57.5367 
G01 X-42.0337 Y57.5885 
G01 X-42.0704 Y57.6521 
G01 X-42.0891 Y57.7221 
G01 X-42.0894 Y57.7963 
G01 X-42.0704 Y57.8671 
G01 X-42.0337 Y57.9307 
G01 X-41.9818 Y57.9825 
G01 X-41.9183 Y58.0192 
G01 X-41.8482 Y58.0380 
G01 X-40.6926 Y58.0382 
G01 X-40.6217 Y58.0192 
G01 X-40.5582 Y57.9825 
G01 X-40.5063 Y57.9307 
G01 X-40.4696 Y57.8671 
G01 X-40.4506 Y57.7963 
G01 X-40.4506 Y57.7229 
G01 X-40.4696 Y57.6521 
