(.../Tools/pcb/gcode/pcb-gcode.ulp)
(Copyright 2005 - 2012 by John Johnson)
(See readme.txt for licensing terms.)
(This file generated from the board:)
(.../BaseProximity/BaseProximity.brd)
(Current profile is .../pcb/gcode/profiles/generic.pp  )
(This file generated 1/7/2017 1:21 PM)
(Settings from pcb-machine.h)
(spindle on time = 3.0000)
(  Tool Size)
(0.1000 )
(spindle speed = 30000.0000)
(tool change at 0.0000 0.0000 30.0000 )
(feed rate xy = F100.00 )
(feed rate z  = F200.00 )
(Z Axis Settings)
(  High     Up        Down     Drill)
(10.0000 	5.0000 	-0.1778 	-1.6000 )
(Settings from pcb-defaults.h)
(isolate min = 0.3000)
(isolate max = 0.2000)
(isolate step = 0.1000)
(Generated top outlines, top drill, bottom outlines, bottom drill, )
(Unit of measure: mm)
(Metric Mode)
G21
(Absolute Coordinates)
G90
S30000
G00 Z10.0000 
G00 X0.0000 Y0.0000 
M03
G04 P3.000000
G00 Z5.0000 
G00 X12.6703 Y0.7641 
G01 Z-0.1778 F200.00 
G01 X12.7544 Y0.6800 F100.00 
G01 X12.8574 Y0.6206 
G01 X12.9723 Y0.5898 
G01 X13.0912 Y0.5898 
G01 X13.2060 Y0.6206 
G01 X13.3090 Y0.6800 
G01 X13.3551 Y0.7261 
G01 X13.4011 Y0.6800 
G01 X13.5041 Y0.6206 
G01 X13.6190 Y0.5898 
G01 X14.1446 Y0.5898 
G01 X14.2595 Y0.6206 
G01 X14.3592 Y0.6781 
G01 X14.3751 Y0.6641 
G01 X14.4040 Y0.6496 
G01 X14.4310 Y0.6318 
G01 X14.4570 Y0.6231 
G01 X14.4814 Y0.6109 
G01 X14.5131 Y0.6044 
G01 X14.5438 Y0.5942 
G01 X14.5711 Y0.5925 
G01 X14.5979 Y0.5870 
G01 X14.6302 Y0.5890 
G01 X14.6625 Y0.5870 
G01 X14.6893 Y0.5925 
G01 X14.7166 Y0.5942 
G01 X14.7473 Y0.6044 
G01 X14.7790 Y0.6109 
G01 X14.8035 Y0.6231 
G01 X14.8294 Y0.6318 
G01 X14.8564 Y0.6496 
G01 X14.8854 Y0.6641 
G01 X14.9058 Y0.6822 
G01 X14.9287 Y0.6973 
G01 X14.9501 Y0.7215 
G01 X14.9743 Y0.7430 
G01 X14.9894 Y0.7658 
G01 X15.0076 Y0.7863 
G01 X15.0220 Y0.8152 
G01 X15.0398 Y0.8422 
G01 X15.0485 Y0.8682 
G01 X15.2641 Y1.2994 
G01 X15.2879 Y1.4159 
G01 X15.2808 Y1.5346 
G01 X15.2432 Y1.6474 
G01 X15.1777 Y1.7466 
G01 X15.0887 Y1.8255 
G01 X14.9824 Y1.8787 
G01 X14.8659 Y1.9025 
G01 X14.7472 Y1.8954 
G01 X14.6344 Y1.8578 
G01 X14.6302 Y1.8550 
G01 X14.6261 Y1.8578 
G01 X14.5133 Y1.8954 
G01 X14.3946 Y1.9025 
G01 X14.2907 Y1.8812 
G01 X14.2432 Y1.9288 
G01 X14.1591 Y2.0129 
G01 X14.0561 Y2.0723 
G01 X13.9413 Y2.1031 
G01 X13.8224 Y2.1031 
G01 X13.7075 Y2.0723 
G01 X13.6045 Y2.0129 
G01 X13.5204 Y1.9288 
G01 X13.4738 Y1.8481 
G01 X13.3090 Y2.0129 
G01 X13.2060 Y2.0723 
G01 X13.0912 Y2.1031 
G01 X12.9723 Y2.1031 
G01 X12.8574 Y2.0723 
G01 X12.7544 Y2.0129 
G01 X12.6703 Y1.9288 
G01 X12.6109 Y1.8258 
G01 X12.5801 Y1.7110 
G01 X12.5801 Y1.6352 
G01 X12.5686 Y1.6237 
G01 X12.5092 Y1.5208 
G01 X12.4784 Y1.4059 
G01 X12.4784 Y1.2870 
G01 X12.5092 Y1.1721 
G01 X12.5686 Y1.0692 
G01 X12.5801 Y1.0577 
G01 X12.5801 Y0.9819 
G01 X12.6109 Y0.8671 
G01 X12.6703 Y0.7641 
G00 Z5.0000 
G00 X13.4057 Y8.1700 
G01 Z-0.1778 F200.00 
G01 X13.4088 Y8.1723 F100.00 
G01 X14.6877 Y9.4512 
G01 X14.7953 Y9.5992 
G01 X14.8784 Y9.7623 
G01 X14.9350 Y9.9364 
G01 X14.9636 Y10.1172 
G01 X14.9636 Y10.3002 
G01 X14.9350 Y10.4810 
G01 X14.8784 Y10.6550 
G01 X14.7953 Y10.8181 
G01 X14.6877 Y10.9662 
G01 X14.5583 Y11.0956 
G01 X14.4102 Y11.2032 
G01 X14.2471 Y11.2863 
G01 X14.0731 Y11.3428 
G01 X13.8923 Y11.3715 
G01 X13.7093 Y11.3715 
G01 X13.5285 Y11.3428 
G01 X13.3544 Y11.2863 
G01 X13.1913 Y11.2032 
G01 X13.0433 Y11.0956 
G01 X11.7644 Y9.8167 
G01 X11.6568 Y9.6686 
G01 X11.5737 Y9.5056 
G01 X11.5171 Y9.3315 
G01 X11.4885 Y9.1507 
G01 X11.4885 Y8.9677 
G01 X11.5171 Y8.7869 
G01 X11.5737 Y8.6128 
G01 X11.6568 Y8.4498 
G01 X11.7644 Y8.3017 
G01 X11.8938 Y8.1723 
G01 X11.8969 Y8.1700 
G01 X8.5240 Y8.1700 
G01 X8.5240 Y8.2201 
G01 X8.5001 Y8.3091 
G01 X8.4541 Y8.3889 
G01 X8.3889 Y8.4541 
G01 X8.3091 Y8.5001 
G01 X8.2201 Y8.5240 
G01 X7.4938 Y8.5240 
G01 X5.6300 Y10.3878 
G01 X5.6300 Y32.4700 
G01 X53.4472 Y32.4700 
G01 X53.4472 Y32.1157 
G01 X53.4758 Y31.9349 
G01 X53.5324 Y31.7608 
G01 X53.6155 Y31.5978 
G01 X53.7231 Y31.4497 
G01 X53.8525 Y31.3203 
G01 X54.0006 Y31.2127 
G01 X54.0600 Y31.1824 
G01 X54.0600 Y29.7776 
G01 X54.0006 Y29.7473 
G01 X53.8525 Y29.6397 
G01 X53.7231 Y29.5103 
G01 X53.6155 Y29.3622 
G01 X53.5324 Y29.1992 
G01 X53.4758 Y29.0251 
G01 X53.4472 Y28.8443 
G01 X53.4472 Y27.0357 
G01 X53.4758 Y26.8549 
G01 X53.5324 Y26.6808 
G01 X53.6155 Y26.5178 
G01 X53.7231 Y26.3697 
G01 X53.8525 Y26.2403 
G01 X54.0006 Y26.1327 
G01 X54.0600 Y26.1024 
G01 X54.0600 Y24.6976 
G01 X54.0006 Y24.6673 
G01 X53.8525 Y24.5597 
G01 X53.7231 Y24.4303 
G01 X53.6155 Y24.2822 
G01 X53.5324 Y24.1192 
G01 X53.4758 Y23.9451 
G01 X53.4472 Y23.7643 
G01 X53.4472 Y21.9557 
G01 X53.4758 Y21.7749 
G01 X53.5324 Y21.6008 
G01 X53.6155 Y21.4378 
G01 X53.7231 Y21.2897 
G01 X53.8525 Y21.1603 
G01 X54.0006 Y21.0527 
G01 X54.0600 Y21.0224 
G01 X54.0600 Y19.6176 
G01 X54.0006 Y19.5873 
G01 X53.8525 Y19.4797 
G01 X53.7231 Y19.3503 
G01 X53.6155 Y19.2022 
G01 X53.5324 Y19.0392 
G01 X53.4758 Y18.8651 
G01 X53.4472 Y18.6843 
G01 X53.4472 Y16.8757 
G01 X53.4758 Y16.6949 
G01 X53.5324 Y16.5208 
G01 X53.6155 Y16.3578 
G01 X53.7231 Y16.2097 
G01 X53.8525 Y16.0803 
G01 X54.0006 Y15.9727 
G01 X54.0600 Y15.9424 
G01 X54.0600 Y11.0640 
G01 X54.0099 Y11.0640 
G01 X53.9209 Y11.0401 
G01 X53.8411 Y10.9941 
G01 X53.7759 Y10.9289 
G01 X53.7299 Y10.8491 
G01 X53.7060 Y10.7601 
G01 X53.7060 Y10.0338 
G01 X51.8422 Y8.1700 
G01 X13.4057 Y8.1700 
G00 Z5.0000 
G00 X11.6128 Y9.9683 
G01 Z-0.1778 F200.00 
G01 X12.8917 Y11.2472 F100.00 
G01 X12.9992 Y11.3953 
G01 X13.0823 Y11.5584 
G01 X13.1389 Y11.7324 
G01 X13.1675 Y11.9132 
G01 X13.1675 Y12.0962 
G01 X13.1389 Y12.2770 
G01 X13.0823 Y12.4511 
G01 X12.9992 Y12.6142 
G01 X12.8917 Y12.7622 
G01 X12.7622 Y12.8917 
G01 X12.6142 Y12.9992 
G01 X12.4511 Y13.0823 
G01 X12.2770 Y13.1389 
G01 X12.0962 Y13.1675 
G01 X11.9132 Y13.1675 
G01 X11.7324 Y13.1389 
G01 X11.5584 Y13.0823 
G01 X11.3953 Y12.9992 
G01 X11.2472 Y12.8917 
G01 X9.9683 Y11.6128 
G01 X9.8607 Y11.4647 
G01 X9.7777 Y11.3016 
G01 X9.7211 Y11.1276 
G01 X9.6925 Y10.9468 
G01 X9.6925 Y10.7637 
G01 X9.7211 Y10.5830 
G01 X9.7777 Y10.4089 
G01 X9.8607 Y10.2458 
G01 X9.9683 Y10.0977 
G01 X10.0977 Y9.9683 
G01 X10.2458 Y9.8607 
G01 X10.4089 Y9.7777 
G01 X10.5830 Y9.7211 
G01 X10.7637 Y9.6925 
G01 X10.9468 Y9.6925 
G01 X11.1276 Y9.7211 
G01 X11.3016 Y9.7777 
G01 X11.4647 Y9.8607 
G01 X11.6128 Y9.9683 
G00 Z5.0000 
G00 X9.8167 Y11.7644 
G01 Z-0.1778 F200.00 
G01 X11.0956 Y13.0433 F100.00 
G01 X11.2032 Y13.1913 
G01 X11.2863 Y13.3544 
G01 X11.3428 Y13.5285 
G01 X11.3715 Y13.7093 
G01 X11.3715 Y13.8923 
G01 X11.3428 Y14.0731 
G01 X11.2863 Y14.2471 
G01 X11.2032 Y14.4102 
G01 X11.0956 Y14.5583 
G01 X10.9662 Y14.6877 
G01 X10.8181 Y14.7953 
G01 X10.6550 Y14.8784 
G01 X10.4810 Y14.9350 
G01 X10.3002 Y14.9636 
G01 X10.1172 Y14.9636 
G01 X9.9364 Y14.9350 
G01 X9.7623 Y14.8784 
G01 X9.5992 Y14.7953 
G01 X9.4512 Y14.6877 
G01 X8.1723 Y13.4088 
G01 X8.0647 Y13.2608 
G01 X7.9816 Y13.0977 
G01 X7.9250 Y12.9236 
G01 X7.8964 Y12.7428 
G01 X7.8964 Y12.5598 
G01 X7.9250 Y12.3790 
G01 X7.9816 Y12.2050 
G01 X8.0647 Y12.0419 
G01 X8.1723 Y11.8938 
G01 X8.3017 Y11.7644 
G01 X8.4498 Y11.6568 
G01 X8.6128 Y11.5737 
G01 X8.7869 Y11.5171 
G01 X8.9677 Y11.4885 
G01 X9.1507 Y11.4885 
G01 X9.3315 Y11.5171 
G01 X9.5056 Y11.5737 
G01 X9.6686 Y11.6568 
G01 X9.8167 Y11.7644 
G00 Z5.0000 
G00 X8.5240 Y7.0700 
G01 Z-0.1778 F200.00 
G01 X52.1424 Y7.0700 F100.00 
G01 X52.2823 Y7.1075 
G01 X52.4077 Y7.1799 
G01 X54.4838 Y9.2560 
G01 X55.2101 Y9.2560 
G01 X55.2991 Y9.2799 
G01 X55.3789 Y9.3259 
G01 X55.4441 Y9.3911 
G01 X55.4901 Y9.4709 
G01 X55.5140 Y9.5599 
G01 X55.5140 Y10.7601 
G01 X55.4901 Y10.8491 
G01 X55.4441 Y10.9289 
G01 X55.3789 Y10.9941 
G01 X55.2991 Y11.0401 
G01 X55.2101 Y11.0640 
G01 X55.1600 Y11.0640 
G01 X55.1600 Y15.9424 
G01 X55.2194 Y15.9727 
G01 X55.3675 Y16.0803 
G01 X55.4969 Y16.2097 
G01 X55.6045 Y16.3578 
G01 X55.6876 Y16.5208 
G01 X55.7442 Y16.6949 
G01 X55.7728 Y16.8757 
G01 X55.7728 Y18.6843 
G01 X55.7442 Y18.8651 
G01 X55.6876 Y19.0392 
G01 X55.6045 Y19.2022 
G01 X55.4969 Y19.3503 
G01 X55.3675 Y19.4797 
G01 X55.2194 Y19.5873 
G01 X55.1600 Y19.6176 
G01 X55.1600 Y21.0224 
G01 X55.2194 Y21.0527 
G01 X55.3675 Y21.1603 
G01 X55.4969 Y21.2897 
G01 X55.6045 Y21.4378 
G01 X55.6876 Y21.6008 
G01 X55.7442 Y21.7749 
G01 X55.7728 Y21.9557 
G01 X55.7728 Y23.7643 
G01 X55.7442 Y23.9451 
G01 X55.6876 Y24.1192 
G01 X55.6045 Y24.2822 
G01 X55.4969 Y24.4303 
G01 X55.3675 Y24.5597 
G01 X55.2194 Y24.6673 
G01 X55.1600 Y24.6976 
G01 X55.1600 Y26.1024 
G01 X55.2194 Y26.1327 
G01 X55.3675 Y26.2403 
G01 X55.4969 Y26.3697 
G01 X55.6045 Y26.5178 
G01 X55.6876 Y26.6808 
G01 X55.7442 Y26.8549 
G01 X55.7728 Y27.0357 
G01 X55.7728 Y28.8443 
G01 X55.7442 Y29.0251 
G01 X55.6876 Y29.1992 
G01 X55.6045 Y29.3622 
G01 X55.4969 Y29.5103 
G01 X55.3675 Y29.6397 
G01 X55.2194 Y29.7473 
G01 X55.1600 Y29.7776 
G01 X55.1600 Y31.1824 
G01 X55.2194 Y31.2127 
G01 X55.3675 Y31.3203 
G01 X55.4969 Y31.4497 
G01 X55.6045 Y31.5978 
G01 X55.6876 Y31.7608 
G01 X55.7442 Y31.9349 
G01 X55.7728 Y32.1157 
G01 X55.7728 Y33.9243 
G01 X55.7442 Y34.1051 
G01 X55.6876 Y34.2792 
G01 X55.6045 Y34.4422 
G01 X55.4969 Y34.5903 
G01 X55.3675 Y34.7197 
G01 X55.2194 Y34.8273 
G01 X55.0564 Y34.9104 
G01 X54.8823 Y34.9670 
G01 X54.7015 Y34.9956 
G01 X54.5185 Y34.9956 
G01 X54.3377 Y34.9670 
G01 X54.1636 Y34.9104 
G01 X54.0006 Y34.8273 
G01 X53.8525 Y34.7197 
G01 X53.7231 Y34.5903 
G01 X53.6155 Y34.4422 
G01 X53.5324 Y34.2792 
G01 X53.4758 Y34.1051 
G01 X53.4472 Y33.9243 
G01 X53.4472 Y33.5700 
G01 X5.6300 Y33.5700 
G01 X5.6300 Y39.7360 
G01 X5.6801 Y39.7360 
G01 X5.7691 Y39.7599 
G01 X5.8489 Y39.8059 
G01 X5.9141 Y39.8711 
G01 X5.9601 Y39.9509 
G01 X5.9840 Y40.0399 
G01 X5.9840 Y41.2401 
G01 X5.9601 Y41.3291 
G01 X5.9141 Y41.4089 
G01 X5.8489 Y41.4741 
G01 X5.7691 Y41.5201 
G01 X5.6801 Y41.5440 
G01 X4.4799 Y41.5440 
G01 X4.3909 Y41.5201 
G01 X4.3111 Y41.4741 
G01 X4.2459 Y41.4089 
G01 X4.1999 Y41.3291 
G01 X4.1760 Y41.2401 
G01 X4.1760 Y40.0399 
G01 X4.1999 Y39.9509 
G01 X4.2459 Y39.8711 
G01 X4.3111 Y39.8059 
G01 X4.3909 Y39.7599 
G01 X4.4799 Y39.7360 
G01 X4.5300 Y39.7360 
G01 X4.5300 Y10.0876 
G01 X4.5675 Y9.9477 
G01 X4.6399 Y9.8223 
G01 X6.7160 Y7.7462 
G01 X6.7160 Y7.0199 
G01 X6.7399 Y6.9309 
G01 X6.7859 Y6.8511 
G01 X6.8511 Y6.7859 
G01 X6.9309 Y6.7399 
G01 X7.0199 Y6.7160 
G01 X8.2201 Y6.7160 
G01 X8.3091 Y6.7399 
G01 X8.3889 Y6.7859 
G01 X8.4541 Y6.8511 
G01 X8.5001 Y6.9309 
G01 X8.5240 Y7.0199 
G01 X8.5240 Y7.0700 
G00 Z5.0000 
G00 X8.5897 Y37.2131 
G01 Z-0.1778 F200.00 
G01 X8.7378 Y37.1055 F100.00 
G01 X8.9008 Y37.0224 
G01 X9.0749 Y36.9658 
G01 X9.2557 Y36.9372 
G01 X11.0643 Y36.9372 
G01 X11.2451 Y36.9658 
G01 X11.4192 Y37.0224 
G01 X11.5822 Y37.1055 
G01 X11.7303 Y37.2131 
G01 X11.8597 Y37.3425 
G01 X11.9673 Y37.4906 
G01 X12.0504 Y37.6536 
G01 X12.1070 Y37.8277 
G01 X12.1356 Y38.0085 
G01 X12.1356 Y38.1915 
G01 X12.1070 Y38.3723 
G01 X12.0504 Y38.5464 
G01 X11.9673 Y38.7094 
G01 X11.8597 Y38.8575 
G01 X11.7303 Y38.9869 
G01 X11.5822 Y39.0945 
G01 X11.4192 Y39.1776 
G01 X11.2451 Y39.2342 
G01 X11.0643 Y39.2628 
G01 X9.2557 Y39.2628 
G01 X9.0749 Y39.2342 
G01 X8.9008 Y39.1776 
G01 X8.7378 Y39.0945 
G01 X8.5897 Y38.9869 
G01 X8.4603 Y38.8575 
G01 X8.3527 Y38.7094 
G01 X8.2696 Y38.5464 
G01 X8.2130 Y38.3723 
G01 X8.1844 Y38.1915 
G01 X8.1844 Y38.0085 
G01 X8.2130 Y37.8277 
G01 X8.2696 Y37.6536 
G01 X8.3527 Y37.4906 
G01 X8.4603 Y37.3425 
G01 X8.5897 Y37.2131 
G00 Z5.0000 
G00 X8.5897 Y39.7531 
G01 Z-0.1778 F200.00 
G01 X8.7378 Y39.6455 F100.00 
G01 X8.9008 Y39.5624 
G01 X9.0749 Y39.5058 
G01 X9.2557 Y39.4772 
G01 X11.0643 Y39.4772 
G01 X11.2451 Y39.5058 
G01 X11.4192 Y39.5624 
G01 X11.5822 Y39.6455 
G01 X11.7303 Y39.7531 
G01 X11.8597 Y39.8825 
G01 X11.9673 Y40.0306 
G01 X12.0504 Y40.1936 
G01 X12.1070 Y40.3677 
G01 X12.1356 Y40.5485 
G01 X12.1356 Y40.7315 
G01 X12.1070 Y40.9123 
G01 X12.0504 Y41.0864 
G01 X11.9673 Y41.2494 
G01 X11.8597 Y41.3975 
G01 X11.7303 Y41.5269 
G01 X11.5822 Y41.6345 
G01 X11.4192 Y41.7176 
G01 X11.2451 Y41.7742 
G01 X11.0643 Y41.8028 
G01 X9.2557 Y41.8028 
G01 X9.0749 Y41.7742 
G01 X8.9008 Y41.7176 
G01 X8.7378 Y41.6345 
G01 X8.5897 Y41.5269 
G01 X8.4603 Y41.3975 
G01 X8.3527 Y41.2494 
G01 X8.2696 Y41.0864 
G01 X8.2130 Y40.9123 
G01 X8.1844 Y40.7315 
G01 X8.1844 Y40.5485 
G01 X8.2130 Y40.3677 
G01 X8.2696 Y40.1936 
G01 X8.3527 Y40.0306 
G01 X8.4603 Y39.8825 
G01 X8.5897 Y39.7531 
G00 Z5.0000 
G00 X8.5897 Y42.2931 
G01 Z-0.1778 F200.00 
G01 X8.7378 Y42.1855 F100.00 
G01 X8.9008 Y42.1024 
G01 X9.0749 Y42.0458 
G01 X9.2557 Y42.0172 
G01 X11.0643 Y42.0172 
G01 X11.2451 Y42.0458 
G01 X11.4192 Y42.1024 
G01 X11.5822 Y42.1855 
G01 X11.7303 Y42.2931 
G01 X11.8597 Y42.4225 
G01 X11.9673 Y42.5706 
G01 X12.0504 Y42.7336 
G01 X12.1070 Y42.9077 
G01 X12.1356 Y43.0885 
G01 X12.1356 Y43.2715 
G01 X12.1070 Y43.4523 
G01 X12.0504 Y43.6264 
G01 X11.9673 Y43.7894 
G01 X11.8597 Y43.9375 
G01 X11.7303 Y44.0669 
G01 X11.5822 Y44.1745 
G01 X11.4192 Y44.2576 
G01 X11.2451 Y44.3142 
G01 X11.0643 Y44.3428 
G01 X9.2557 Y44.3428 
G01 X9.0749 Y44.3142 
G01 X8.9008 Y44.2576 
G01 X8.7378 Y44.1745 
G01 X8.5897 Y44.0669 
G01 X8.4603 Y43.9375 
G01 X8.3527 Y43.7894 
G01 X8.2696 Y43.6264 
G01 X8.2130 Y43.4523 
G01 X8.1844 Y43.2715 
G01 X8.1844 Y43.0885 
G01 X8.2130 Y42.9077 
G01 X8.2696 Y42.7336 
G01 X8.3527 Y42.5706 
G01 X8.4603 Y42.4225 
G01 X8.5897 Y42.2931 
G00 Z5.0000 
G00 X9.4512 Y62.7823 
G01 Z-0.1778 F200.00 
G01 X9.5992 Y62.6747 F100.00 
G01 X9.7623 Y62.5916 
G01 X9.9364 Y62.5350 
G01 X10.1172 Y62.5064 
G01 X10.3002 Y62.5064 
G01 X10.4810 Y62.5350 
G01 X10.6550 Y62.5916 
G01 X10.8181 Y62.6747 
G01 X10.9662 Y62.7823 
G01 X11.0956 Y62.9117 
G01 X11.2032 Y63.0598 
G01 X11.2863 Y63.2229 
G01 X11.3428 Y63.3969 
G01 X11.3715 Y63.5777 
G01 X11.3715 Y63.7607 
G01 X11.3428 Y63.9415 
G01 X11.2863 Y64.1156 
G01 X11.2032 Y64.2786 
G01 X11.0956 Y64.4267 
G01 X9.8167 Y65.7056 
G01 X9.6686 Y65.8132 
G01 X9.5056 Y65.8963 
G01 X9.3315 Y65.9528 
G01 X9.1507 Y65.9815 
G01 X8.9677 Y65.9815 
G01 X8.7869 Y65.9528 
G01 X8.6128 Y65.8963 
G01 X8.4498 Y65.8132 
G01 X8.3017 Y65.7056 
G01 X8.1723 Y65.5762 
G01 X8.0647 Y65.4281 
G01 X7.9816 Y65.2650 
G01 X7.9250 Y65.0910 
G01 X7.8964 Y64.9102 
G01 X7.8964 Y64.7272 
G01 X7.9250 Y64.5464 
G01 X7.9816 Y64.3723 
G01 X8.0647 Y64.2092 
G01 X8.1723 Y64.0612 
G01 X9.4512 Y62.7823 
G00 Z5.0000 
G00 X9.9683 Y65.8572 
G01 Z-0.1778 F200.00 
G01 X11.2472 Y64.5783 F100.00 
G01 X11.3953 Y64.4707 
G01 X11.5584 Y64.3877 
G01 X11.7324 Y64.3311 
G01 X11.9132 Y64.3025 
G01 X12.0962 Y64.3025 
G01 X12.2770 Y64.3311 
G01 X12.4511 Y64.3877 
G01 X12.6142 Y64.4707 
G01 X12.7622 Y64.5783 
G01 X12.8917 Y64.7078 
G01 X12.9992 Y64.8558 
G01 X13.0823 Y65.0189 
G01 X13.1389 Y65.1930 
G01 X13.1675 Y65.3737 
G01 X13.1675 Y65.5568 
G01 X13.1389 Y65.7376 
G01 X13.0823 Y65.9116 
G01 X12.9992 Y66.0747 
G01 X12.8917 Y66.2228 
G01 X11.6128 Y67.5017 
G01 X11.4647 Y67.6092 
G01 X11.3016 Y67.6923 
G01 X11.1276 Y67.7489 
G01 X10.9468 Y67.7775 
G01 X10.7637 Y67.7775 
G01 X10.5830 Y67.7489 
G01 X10.4089 Y67.6923 
G01 X10.2458 Y67.6092 
G01 X10.0977 Y67.5017 
G01 X9.9683 Y67.3722 
G01 X9.8607 Y67.2242 
G01 X9.7777 Y67.0611 
G01 X9.7211 Y66.8870 
G01 X9.6925 Y66.7062 
G01 X9.6925 Y66.5232 
G01 X9.7211 Y66.3424 
G01 X9.7777 Y66.1684 
G01 X9.8607 Y66.0053 
G01 X9.9683 Y65.8572 
G00 Z5.0000 
G00 X9.6589 Y69.0159 
G01 Z-0.1778 F200.00 
G01 X9.7241 Y69.0811 F100.00 
G01 X9.7701 Y69.1609 
G01 X9.7940 Y69.2499 
G01 X9.7940 Y70.4501 
G01 X9.7701 Y70.5391 
G01 X9.7241 Y70.6189 
G01 X9.6589 Y70.6841 
G01 X9.5791 Y70.7301 
G01 X9.4901 Y70.7540 
G01 X9.4400 Y70.7540 
G01 X9.4400 Y70.8922 
G01 X11.6578 Y73.1100 
G01 X18.4824 Y73.1100 
G01 X18.5127 Y73.0506 
G01 X18.6203 Y72.9025 
G01 X18.7497 Y72.7731 
G01 X18.8978 Y72.6655 
G01 X19.0608 Y72.5824 
G01 X19.2349 Y72.5258 
G01 X19.4157 Y72.4972 
G01 X21.2243 Y72.4972 
G01 X21.4051 Y72.5258 
G01 X21.5792 Y72.5824 
G01 X21.7422 Y72.6655 
G01 X21.8903 Y72.7731 
G01 X22.0197 Y72.9025 
G01 X22.1273 Y73.0506 
G01 X22.1576 Y73.1100 
G01 X26.1024 Y73.1100 
G01 X26.1327 Y73.0506 
G01 X26.2403 Y72.9025 
G01 X26.3697 Y72.7731 
G01 X26.5178 Y72.6655 
G01 X26.6808 Y72.5824 
G01 X26.8549 Y72.5258 
G01 X27.0357 Y72.4972 
G01 X28.8443 Y72.4972 
G01 X29.0251 Y72.5258 
G01 X29.1992 Y72.5824 
G01 X29.3622 Y72.6655 
G01 X29.5103 Y72.7731 
G01 X29.6397 Y72.9025 
G01 X29.7473 Y73.0506 
G01 X29.7776 Y73.1100 
G01 X33.7224 Y73.1100 
G01 X33.7527 Y73.0506 
G01 X33.8603 Y72.9025 
G01 X33.9897 Y72.7731 
G01 X34.1378 Y72.6655 
G01 X34.3008 Y72.5824 
G01 X34.4749 Y72.5258 
G01 X34.6557 Y72.4972 
G01 X36.4643 Y72.4972 
G01 X36.6451 Y72.5258 
G01 X36.8192 Y72.5824 
G01 X36.9822 Y72.6655 
G01 X37.1303 Y72.7731 
G01 X37.2597 Y72.9025 
G01 X37.3673 Y73.0506 
G01 X37.4504 Y73.2136 
G01 X37.5070 Y73.3877 
G01 X37.5356 Y73.5685 
G01 X37.5356 Y73.5878 
G01 X39.5978 Y75.6500 
G01 X48.6260 Y75.6500 
G01 X48.6260 Y75.5999 
G01 X48.6499 Y75.5109 
G01 X48.6959 Y75.4311 
G01 X48.7611 Y75.3659 
G01 X48.8409 Y75.3199 
G01 X48.9299 Y75.2960 
G01 X50.1301 Y75.2960 
G01 X50.2191 Y75.3199 
G01 X50.2989 Y75.3659 
G01 X50.3641 Y75.4311 
G01 X50.4101 Y75.5109 
G01 X50.4340 Y75.5999 
G01 X50.4340 Y75.6500 
G01 X68.3522 Y75.6500 
G01 X69.3000 Y74.7022 
G01 X69.3000 Y72.9576 
G01 X69.2406 Y72.9273 
G01 X69.0925 Y72.8197 
G01 X68.9631 Y72.6903 
G01 X68.8555 Y72.5422 
G01 X68.7724 Y72.3792 
G01 X68.7158 Y72.2051 
G01 X68.6872 Y72.0243 
G01 X68.6872 Y70.2157 
G01 X68.7158 Y70.0349 
G01 X68.7724 Y69.8608 
G01 X68.8555 Y69.6978 
G01 X68.9631 Y69.5497 
G01 X69.0925 Y69.4203 
G01 X69.2406 Y69.3127 
G01 X69.4036 Y69.2296 
G01 X69.5777 Y69.1730 
G01 X69.7585 Y69.1444 
G01 X69.9415 Y69.1444 
G01 X70.1223 Y69.1730 
G01 X70.2964 Y69.2296 
G01 X70.4594 Y69.3127 
G01 X70.6075 Y69.4203 
G01 X70.7369 Y69.5497 
G01 X70.8445 Y69.6978 
G01 X70.9276 Y69.8608 
G01 X70.9842 Y70.0349 
G01 X71.0128 Y70.2157 
G01 X71.0128 Y72.0243 
G01 X70.9842 Y72.2051 
G01 X70.9276 Y72.3792 
G01 X70.8445 Y72.5422 
G01 X70.7369 Y72.6903 
G01 X70.6075 Y72.8197 
G01 X70.4594 Y72.9273 
G01 X70.4000 Y72.9576 
G01 X70.4000 Y75.0024 
G01 X70.3625 Y75.1423 
G01 X70.2901 Y75.2677 
G01 X69.0201 Y76.5377 
G01 X68.9177 Y76.6401 
G01 X68.7923 Y76.7125 
G01 X68.6524 Y76.7500 
G01 X50.4340 Y76.7500 
G01 X50.4340 Y76.8001 
G01 X50.4101 Y76.8891 
G01 X50.3641 Y76.9689 
G01 X50.2989 Y77.0341 
G01 X50.2191 Y77.0801 
G01 X50.1301 Y77.1040 
G01 X48.9299 Y77.1040 
G01 X48.8409 Y77.0801 
G01 X48.7611 Y77.0341 
G01 X48.6959 Y76.9689 
G01 X48.6499 Y76.8891 
G01 X48.6260 Y76.8001 
G01 X48.6260 Y76.7500 
G01 X39.2976 Y76.7500 
G01 X39.1577 Y76.7125 
G01 X39.0323 Y76.6401 
G01 X38.9299 Y76.5377 
G01 X37.0196 Y74.6274 
G01 X36.9822 Y74.6545 
G01 X36.8192 Y74.7376 
G01 X36.6451 Y74.7942 
G01 X36.4643 Y74.8228 
G01 X34.6557 Y74.8228 
G01 X34.4749 Y74.7942 
G01 X34.3008 Y74.7376 
G01 X34.1378 Y74.6545 
G01 X33.9897 Y74.5469 
G01 X33.8603 Y74.4175 
G01 X33.7527 Y74.2694 
G01 X33.7224 Y74.2100 
G01 X29.7776 Y74.2100 
G01 X29.7473 Y74.2694 
G01 X29.6397 Y74.4175 
G01 X29.5103 Y74.5469 
G01 X29.3622 Y74.6545 
G01 X29.1992 Y74.7376 
G01 X29.0251 Y74.7942 
G01 X28.8443 Y74.8228 
G01 X27.0357 Y74.8228 
G01 X26.8549 Y74.7942 
G01 X26.6808 Y74.7376 
G01 X26.5178 Y74.6545 
G01 X26.3697 Y74.5469 
G01 X26.2403 Y74.4175 
G01 X26.1327 Y74.2694 
G01 X26.1024 Y74.2100 
G01 X22.1576 Y74.2100 
G01 X22.1273 Y74.2694 
G01 X22.0197 Y74.4175 
G01 X21.8903 Y74.5469 
G01 X21.7422 Y74.6545 
G01 X21.5792 Y74.7376 
G01 X21.4051 Y74.7942 
G01 X21.2243 Y74.8228 
G01 X19.4157 Y74.8228 
G01 X19.2349 Y74.7942 
G01 X19.0608 Y74.7376 
G01 X18.8978 Y74.6545 
G01 X18.7497 Y74.5469 
G01 X18.6203 Y74.4175 
G01 X18.5127 Y74.2694 
G01 X18.4824 Y74.2100 
G01 X11.3576 Y74.2100 
G01 X11.2177 Y74.1725 
G01 X11.0923 Y74.1001 
G01 X10.9899 Y73.9977 
G01 X8.4499 Y71.4577 
G01 X8.3775 Y71.3323 
G01 X8.3400 Y71.1924 
G01 X8.3400 Y70.7540 
G01 X8.2899 Y70.7540 
G01 X8.2009 Y70.7301 
G01 X8.1211 Y70.6841 
G01 X8.0559 Y70.6189 
G01 X8.0099 Y70.5391 
G01 X7.9860 Y70.4501 
G01 X7.9860 Y69.2499 
G01 X8.0099 Y69.1609 
G01 X8.0559 Y69.0811 
G01 X8.1211 Y69.0159 
G01 X8.2009 Y68.9699 
G01 X8.2899 Y68.9460 
G01 X9.4901 Y68.9460 
G01 X9.5791 Y68.9699 
G01 X9.6589 Y69.0159 
G00 Z5.0000 
G00 X11.6568 Y69.0202 
G01 Z-0.1778 F200.00 
G01 X11.5737 Y68.8571 F100.00 
G01 X11.5171 Y68.6831 
G01 X11.4885 Y68.5023 
G01 X11.4885 Y68.3193 
G01 X11.5171 Y68.1385 
G01 X11.5737 Y67.9644 
G01 X11.6568 Y67.8013 
G01 X11.7644 Y67.6533 
G01 X13.0433 Y66.3744 
G01 X13.1913 Y66.2668 
G01 X13.3544 Y66.1837 
G01 X13.5285 Y66.1271 
G01 X13.7093 Y66.0985 
G01 X13.8923 Y66.0985 
G01 X14.0731 Y66.1271 
G01 X14.2471 Y66.1837 
G01 X14.4102 Y66.2668 
G01 X14.5583 Y66.3744 
G01 X14.6877 Y66.5038 
G01 X14.7953 Y66.6519 
G01 X14.8784 Y66.8150 
G01 X14.9350 Y66.9890 
G01 X14.9636 Y67.1698 
G01 X14.9636 Y67.3528 
G01 X14.9350 Y67.5336 
G01 X14.8784 Y67.7077 
G01 X14.7953 Y67.8708 
G01 X14.6877 Y68.0188 
G01 X13.4088 Y69.2977 
G01 X13.2608 Y69.4053 
G01 X13.0977 Y69.4884 
G01 X12.9236 Y69.5450 
G01 X12.7428 Y69.5736 
G01 X12.5598 Y69.5736 
G01 X12.3790 Y69.5450 
G01 X12.2050 Y69.4884 
G01 X12.0419 Y69.4053 
G01 X11.8938 Y69.2977 
G01 X11.7644 Y69.1683 
G01 X11.6568 Y69.0202 
G00 Z5.0000 
G00 X15.4560 Y69.0166 
G01 Z-0.1778 F200.00 
G01 X15.4560 Y68.1434 F100.00 
G01 X16.0734 Y67.5260 
G01 X16.7817 Y67.5260 
G01 X18.3444 Y65.9633 
G01 X18.3444 Y65.9485 
G01 X18.3730 Y65.7677 
G01 X18.4296 Y65.5936 
G01 X18.5127 Y65.4306 
G01 X18.6203 Y65.2825 
G01 X18.7497 Y65.1531 
G01 X18.8978 Y65.0455 
G01 X19.0608 Y64.9624 
G01 X19.2349 Y64.9058 
G01 X19.4157 Y64.8772 
G01 X21.2243 Y64.8772 
G01 X21.4051 Y64.9058 
G01 X21.5792 Y64.9624 
G01 X21.7422 Y65.0455 
G01 X21.8903 Y65.1531 
G01 X22.0197 Y65.2825 
G01 X22.1273 Y65.4306 
G01 X22.1560 Y65.4868 
G01 X26.1040 Y65.4868 
G01 X26.1327 Y65.4306 
G01 X26.2403 Y65.2825 
G01 X26.3697 Y65.1531 
G01 X26.5178 Y65.0455 
G01 X26.6808 Y64.9624 
G01 X26.8549 Y64.9058 
G01 X27.0357 Y64.8772 
G01 X28.8443 Y64.8772 
G01 X29.0251 Y64.9058 
G01 X29.1992 Y64.9624 
G01 X29.3622 Y65.0455 
G01 X29.5103 Y65.1531 
G01 X29.6397 Y65.2825 
G01 X29.7473 Y65.4306 
G01 X29.7760 Y65.4868 
G01 X33.7240 Y65.4868 
G01 X33.7527 Y65.4306 
G01 X33.8603 Y65.2825 
G01 X33.9897 Y65.1531 
G01 X34.1378 Y65.0455 
G01 X34.3008 Y64.9624 
G01 X34.4749 Y64.9058 
G01 X34.6557 Y64.8772 
G01 X36.4643 Y64.8772 
G01 X36.6451 Y64.9058 
G01 X36.8192 Y64.9624 
G01 X36.9822 Y65.0455 
G01 X37.1303 Y65.1531 
G01 X37.2597 Y65.2825 
G01 X37.3673 Y65.4306 
G01 X37.3960 Y65.4868 
G01 X44.7826 Y65.4868 
G01 X45.2834 Y64.9860 
G01 X46.1566 Y64.9860 
G01 X46.7740 Y65.6034 
G01 X46.7740 Y66.4766 
G01 X46.1566 Y67.0940 
G01 X45.2834 Y67.0940 
G01 X44.7826 Y66.5932 
G01 X37.3960 Y66.5932 
G01 X37.3673 Y66.6494 
G01 X37.2597 Y66.7975 
G01 X37.1303 Y66.9269 
G01 X36.9822 Y67.0345 
G01 X36.8192 Y67.1176 
G01 X36.6451 Y67.1742 
G01 X36.4643 Y67.2028 
G01 X34.6557 Y67.2028 
G01 X34.4749 Y67.1742 
G01 X34.3008 Y67.1176 
G01 X34.1378 Y67.0345 
G01 X33.9897 Y66.9269 
G01 X33.8603 Y66.7975 
G01 X33.7527 Y66.6494 
G01 X33.7240 Y66.5932 
G01 X29.7760 Y66.5932 
G01 X29.7473 Y66.6494 
G01 X29.6397 Y66.7975 
G01 X29.5103 Y66.9269 
G01 X29.3622 Y67.0345 
G01 X29.1992 Y67.1176 
G01 X29.0251 Y67.1742 
G01 X28.8443 Y67.2028 
G01 X27.0357 Y67.2028 
G01 X26.8549 Y67.1742 
G01 X26.6808 Y67.1176 
G01 X26.5178 Y67.0345 
G01 X26.3697 Y66.9269 
G01 X26.2403 Y66.7975 
G01 X26.1327 Y66.6494 
G01 X26.1040 Y66.5932 
G01 X22.1560 Y66.5932 
G01 X22.1273 Y66.6494 
G01 X22.0197 Y66.7975 
G01 X21.8903 Y66.9269 
G01 X21.7422 Y67.0345 
G01 X21.5792 Y67.1176 
G01 X21.4051 Y67.1742 
G01 X21.2243 Y67.2028 
G01 X19.4157 Y67.2028 
G01 X19.2349 Y67.1742 
G01 X19.0608 Y67.1176 
G01 X18.8978 Y67.0345 
G01 X18.8630 Y67.0093 
G01 X17.5640 Y68.3083 
G01 X17.5640 Y69.0166 
G01 X16.9466 Y69.6340 
G01 X16.0734 Y69.6340 
G01 X15.4560 Y69.0166 
G00 Z5.0000 
G00 X18.4296 Y69.0264 
G01 Z-0.1778 F200.00 
G01 X18.3730 Y68.8523 F100.00 
G01 X18.3444 Y68.6715 
G01 X18.3444 Y68.4885 
G01 X18.3730 Y68.3077 
G01 X18.4296 Y68.1336 
G01 X18.5127 Y67.9706 
G01 X18.6203 Y67.8225 
G01 X18.7497 Y67.6931 
G01 X18.8978 Y67.5855 
G01 X19.0608 Y67.5024 
G01 X19.2349 Y67.4458 
G01 X19.4157 Y67.4172 
G01 X21.2243 Y67.4172 
G01 X21.4051 Y67.4458 
G01 X21.5792 Y67.5024 
G01 X21.7422 Y67.5855 
G01 X21.8903 Y67.6931 
G01 X22.0197 Y67.8225 
G01 X22.1273 Y67.9706 
G01 X22.1560 Y68.0268 
G01 X26.1040 Y68.0268 
G01 X26.1327 Y67.9706 
G01 X26.2403 Y67.8225 
G01 X26.3697 Y67.6931 
G01 X26.5178 Y67.5855 
G01 X26.6808 Y67.5024 
G01 X26.8549 Y67.4458 
G01 X27.0357 Y67.4172 
G01 X28.8443 Y67.4172 
G01 X29.0251 Y67.4458 
G01 X29.1992 Y67.5024 
G01 X29.3622 Y67.5855 
G01 X29.5103 Y67.6931 
G01 X29.6397 Y67.8225 
G01 X29.7473 Y67.9706 
G01 X29.7760 Y68.0268 
G01 X30.8126 Y68.0268 
G01 X31.3134 Y67.5260 
G01 X32.1866 Y67.5260 
G01 X32.6874 Y68.0268 
G01 X33.7240 Y68.0268 
G01 X33.7527 Y67.9706 
G01 X33.8603 Y67.8225 
G01 X33.9897 Y67.6931 
G01 X34.1378 Y67.5855 
G01 X34.3008 Y67.5024 
G01 X34.4749 Y67.4458 
G01 X34.6557 Y67.4172 
G01 X36.4643 Y67.4172 
G01 X36.6451 Y67.4458 
G01 X36.8192 Y67.5024 
G01 X36.9822 Y67.5855 
G01 X37.1303 Y67.6931 
G01 X37.2597 Y67.8225 
G01 X37.3673 Y67.9706 
G01 X37.3960 Y68.0268 
G01 X39.4428 Y68.0268 
G01 X39.5835 Y68.0645 
G01 X39.7097 Y68.1373 
G01 X43.4091 Y71.8368 
G01 X54.2681 Y71.8368 
G01 X56.6302 Y67.1127 
G01 X56.6345 Y67.0965 
G01 X56.6626 Y67.0478 
G01 X56.6878 Y66.9975 
G01 X56.6989 Y66.9849 
G01 X56.7073 Y66.9703 
G01 X56.7471 Y66.9306 
G01 X56.7844 Y66.8885 
G01 X56.7984 Y66.8792 
G01 X56.8103 Y66.8673 
G01 X56.8590 Y66.8392 
G01 X56.9060 Y66.8082 
G01 X56.9219 Y66.8029 
G01 X56.9365 Y66.7945 
G01 X56.9908 Y66.7799 
G01 X57.0442 Y66.7622 
G01 X57.0609 Y66.7612 
G01 X57.0772 Y66.7568 
G01 X57.1334 Y66.7568 
G01 X57.1896 Y66.7534 
G01 X57.2060 Y66.7568 
G01 X66.1128 Y66.7568 
G01 X66.2535 Y66.7945 
G01 X66.3797 Y66.8673 
G01 X67.6497 Y68.1373 
G01 X67.7527 Y68.2403 
G01 X67.8255 Y68.3665 
G01 X67.8632 Y68.5072 
G01 X67.8632 Y69.2840 
G01 X67.9194 Y69.3127 
G01 X68.0675 Y69.4203 
G01 X68.1969 Y69.5497 
G01 X68.3045 Y69.6978 
G01 X68.3876 Y69.8608 
G01 X68.4442 Y70.0349 
G01 X68.4728 Y70.2157 
G01 X68.4728 Y72.0243 
G01 X68.4442 Y72.2051 
G01 X68.3876 Y72.3792 
G01 X68.3045 Y72.5422 
G01 X68.1969 Y72.6903 
G01 X68.0675 Y72.8197 
G01 X67.9194 Y72.9273 
G01 X67.7564 Y73.0104 
G01 X67.5823 Y73.0670 
G01 X67.4015 Y73.0956 
G01 X67.2185 Y73.0956 
G01 X67.0377 Y73.0670 
G01 X66.8636 Y73.0104 
G01 X66.7006 Y72.9273 
G01 X66.5525 Y72.8197 
G01 X66.4231 Y72.6903 
G01 X66.3155 Y72.5422 
G01 X66.2324 Y72.3792 
G01 X66.1758 Y72.2051 
G01 X66.1472 Y72.0243 
G01 X66.1472 Y70.2157 
G01 X66.1758 Y70.0349 
G01 X66.2324 Y69.8608 
G01 X66.3155 Y69.6978 
G01 X66.4231 Y69.5497 
G01 X66.5525 Y69.4203 
G01 X66.7006 Y69.3127 
G01 X66.7568 Y69.2840 
G01 X66.7568 Y68.8091 
G01 X65.8109 Y67.8632 
G01 X57.4919 Y67.8632 
G01 X55.1298 Y72.5873 
G01 X55.1255 Y72.6035 
G01 X55.0974 Y72.6522 
G01 X55.0722 Y72.7025 
G01 X55.0611 Y72.7151 
G01 X55.0527 Y72.7297 
G01 X55.0129 Y72.7694 
G01 X54.9756 Y72.8115 
G01 X54.9616 Y72.8208 
G01 X54.9497 Y72.8327 
G01 X54.9010 Y72.8608 
G01 X54.8540 Y72.8918 
G01 X54.8381 Y72.8971 
G01 X54.8235 Y72.9055 
G01 X54.7692 Y72.9200 
G01 X54.7158 Y72.9378 
G01 X54.6991 Y72.9388 
G01 X54.6828 Y72.9432 
G01 X54.6266 Y72.9432 
G01 X54.5704 Y72.9466 
G01 X54.5540 Y72.9432 
G01 X43.1072 Y72.9432 
G01 X42.9665 Y72.9055 
G01 X42.8403 Y72.8327 
G01 X42.7373 Y72.7297 
G01 X39.1409 Y69.1332 
G01 X37.3960 Y69.1332 
G01 X37.3673 Y69.1894 
G01 X37.2597 Y69.3375 
G01 X37.1303 Y69.4669 
G01 X36.9822 Y69.5745 
G01 X36.8192 Y69.6576 
G01 X36.6451 Y69.7142 
G01 X36.4643 Y69.7428 
G01 X34.6557 Y69.7428 
G01 X34.4749 Y69.7142 
G01 X34.3008 Y69.6576 
G01 X34.1378 Y69.5745 
G01 X33.9897 Y69.4669 
G01 X33.8603 Y69.3375 
G01 X33.7527 Y69.1894 
G01 X33.7240 Y69.1332 
G01 X32.6874 Y69.1332 
G01 X32.1866 Y69.6340 
G01 X31.3134 Y69.6340 
G01 X30.8126 Y69.1332 
G01 X29.7760 Y69.1332 
G01 X29.7473 Y69.1894 
G01 X29.6397 Y69.3375 
G01 X29.5103 Y69.4669 
G01 X29.3622 Y69.5745 
G01 X29.1992 Y69.6576 
G01 X29.0251 Y69.7142 
G01 X28.8443 Y69.7428 
G01 X27.0357 Y69.7428 
G01 X26.8549 Y69.7142 
G01 X26.6808 Y69.6576 
G01 X26.5178 Y69.5745 
G01 X26.3697 Y69.4669 
G01 X26.2403 Y69.3375 
G01 X26.1327 Y69.1894 
G01 X26.1040 Y69.1332 
G01 X22.1560 Y69.1332 
G01 X22.1273 Y69.1894 
G01 X22.0197 Y69.3375 
G01 X21.8903 Y69.4669 
G01 X21.7422 Y69.5745 
G01 X21.5792 Y69.6576 
G01 X21.4051 Y69.7142 
G01 X21.2243 Y69.7428 
G01 X19.4157 Y69.7428 
G01 X19.2349 Y69.7142 
G01 X19.0608 Y69.6576 
G01 X18.8978 Y69.5745 
G01 X18.7497 Y69.4669 
G01 X18.6203 Y69.3375 
G01 X18.5127 Y69.1894 
G01 X18.4296 Y69.0264 
G00 Z5.0000 
G00 X18.6203 Y70.3625 
G01 Z-0.1778 F200.00 
G01 X18.7497 Y70.2331 F100.00 
G01 X18.8978 Y70.1255 
G01 X19.0608 Y70.0424 
G01 X19.2349 Y69.9858 
G01 X19.4157 Y69.9572 
G01 X21.2243 Y69.9572 
G01 X21.4051 Y69.9858 
G01 X21.5792 Y70.0424 
G01 X21.7422 Y70.1255 
G01 X21.8903 Y70.2331 
G01 X22.0197 Y70.3625 
G01 X22.1273 Y70.5106 
G01 X22.1560 Y70.5668 
G01 X26.1040 Y70.5668 
G01 X26.1327 Y70.5106 
G01 X26.2403 Y70.3625 
G01 X26.3697 Y70.2331 
G01 X26.5178 Y70.1255 
G01 X26.6808 Y70.0424 
G01 X26.8549 Y69.9858 
G01 X27.0357 Y69.9572 
G01 X28.8443 Y69.9572 
G01 X29.0251 Y69.9858 
G01 X29.1992 Y70.0424 
G01 X29.3622 Y70.1255 
G01 X29.5103 Y70.2331 
G01 X29.6397 Y70.3625 
G01 X29.7473 Y70.5106 
G01 X29.7760 Y70.5668 
G01 X33.7240 Y70.5668 
G01 X33.7527 Y70.5106 
G01 X33.8603 Y70.3625 
G01 X33.9897 Y70.2331 
G01 X34.1378 Y70.1255 
G01 X34.3008 Y70.0424 
G01 X34.4749 Y69.9858 
G01 X34.6557 Y69.9572 
G01 X36.4643 Y69.9572 
G01 X36.6451 Y69.9858 
G01 X36.8192 Y70.0424 
G01 X36.9822 Y70.1255 
G01 X37.1303 Y70.2331 
G01 X37.2597 Y70.3625 
G01 X37.3673 Y70.5106 
G01 X37.3960 Y70.5668 
G01 X38.4326 Y70.5668 
G01 X38.9334 Y70.0660 
G01 X39.8066 Y70.0660 
G01 X40.4240 Y70.6834 
G01 X40.4240 Y71.5566 
G01 X39.8715 Y72.1091 
G01 X40.8691 Y73.1068 
G01 X63.2709 Y73.1068 
G01 X63.8007 Y72.5769 
G01 X63.7755 Y72.5422 
G01 X63.6924 Y72.3792 
G01 X63.6358 Y72.2051 
G01 X63.6072 Y72.0243 
G01 X63.6072 Y70.2157 
G01 X63.6358 Y70.0349 
G01 X63.6924 Y69.8608 
G01 X63.7755 Y69.6978 
G01 X63.8831 Y69.5497 
G01 X64.0125 Y69.4203 
G01 X64.1606 Y69.3127 
G01 X64.3236 Y69.2296 
G01 X64.4977 Y69.1730 
G01 X64.6785 Y69.1444 
G01 X64.8615 Y69.1444 
G01 X65.0423 Y69.1730 
G01 X65.2164 Y69.2296 
G01 X65.3794 Y69.3127 
G01 X65.5275 Y69.4203 
G01 X65.6569 Y69.5497 
G01 X65.7645 Y69.6978 
G01 X65.8476 Y69.8608 
G01 X65.9042 Y70.0349 
G01 X65.9328 Y70.2157 
G01 X65.9328 Y72.0243 
G01 X65.9042 Y72.2051 
G01 X65.8476 Y72.3792 
G01 X65.7645 Y72.5422 
G01 X65.6569 Y72.6903 
G01 X65.5275 Y72.8197 
G01 X65.3794 Y72.9273 
G01 X65.2164 Y73.0104 
G01 X65.0423 Y73.0670 
G01 X64.8615 Y73.0956 
G01 X64.8467 Y73.0956 
G01 X63.8397 Y74.1027 
G01 X63.7135 Y74.1755 
G01 X63.5728 Y74.2132 
G01 X40.5672 Y74.2132 
G01 X40.4265 Y74.1755 
G01 X40.3003 Y74.1027 
G01 X40.1973 Y73.9997 
G01 X38.2923 Y72.0947 
G01 X38.2195 Y71.9685 
G01 X38.1818 Y71.8278 
G01 X38.1818 Y71.6822 
G01 X38.1842 Y71.6732 
G01 X37.3960 Y71.6732 
G01 X37.3673 Y71.7294 
G01 X37.2597 Y71.8775 
G01 X37.1303 Y72.0069 
G01 X36.9822 Y72.1145 
G01 X36.8192 Y72.1976 
G01 X36.6451 Y72.2542 
G01 X36.4643 Y72.2828 
G01 X34.6557 Y72.2828 
G01 X34.4749 Y72.2542 
G01 X34.3008 Y72.1976 
G01 X34.1378 Y72.1145 
G01 X33.9897 Y72.0069 
G01 X33.8603 Y71.8775 
G01 X33.7527 Y71.7294 
G01 X33.7240 Y71.6732 
G01 X29.7760 Y71.6732 
G01 X29.7473 Y71.7294 
G01 X29.6397 Y71.8775 
G01 X29.5103 Y72.0069 
G01 X29.3622 Y72.1145 
G01 X29.1992 Y72.1976 
G01 X29.0251 Y72.2542 
G01 X28.8443 Y72.2828 
G01 X27.0357 Y72.2828 
G01 X26.8549 Y72.2542 
G01 X26.6808 Y72.1976 
G01 X26.5178 Y72.1145 
G01 X26.3697 Y72.0069 
G01 X26.2403 Y71.8775 
G01 X26.1327 Y71.7294 
G01 X26.1040 Y71.6732 
G01 X22.1560 Y71.6732 
G01 X22.1273 Y71.7294 
G01 X22.0197 Y71.8775 
G01 X21.8903 Y72.0069 
G01 X21.7422 Y72.1145 
G01 X21.5792 Y72.1976 
G01 X21.4051 Y72.2542 
G01 X21.2243 Y72.2828 
G01 X19.4157 Y72.2828 
G01 X19.2349 Y72.2542 
G01 X19.0608 Y72.1976 
G01 X18.8978 Y72.1145 
G01 X18.7497 Y72.0069 
G01 X18.6203 Y71.8775 
G01 X18.5127 Y71.7294 
G01 X18.4296 Y71.5664 
G01 X18.3730 Y71.3923 
G01 X18.3444 Y71.2115 
G01 X18.3444 Y71.0285 
G01 X18.3730 Y70.8477 
G01 X18.4296 Y70.6736 
G01 X18.5127 Y70.5106 
G01 X18.6203 Y70.3625 
G00 Z5.0000 
G00 X45.8272 Y70.7543 
G01 Z-0.1778 F200.00 
G01 X45.8272 Y68.9457 F100.00 
G01 X45.8558 Y68.7649 
G01 X45.9124 Y68.5908 
G01 X45.9955 Y68.4278 
G01 X46.1031 Y68.2797 
G01 X46.2325 Y68.1503 
G01 X46.3806 Y68.0427 
G01 X46.5436 Y67.9596 
G01 X46.7177 Y67.9030 
G01 X46.8985 Y67.8744 
G01 X47.0815 Y67.8744 
G01 X47.2623 Y67.9030 
G01 X47.4364 Y67.9596 
G01 X47.5994 Y68.0427 
G01 X47.7475 Y68.1503 
G01 X47.8769 Y68.2797 
G01 X47.9845 Y68.4278 
G01 X48.0676 Y68.5908 
G01 X48.1242 Y68.7649 
G01 X48.1528 Y68.9457 
G01 X48.1528 Y70.7543 
G01 X48.1242 Y70.9351 
G01 X48.0676 Y71.1092 
G01 X47.9845 Y71.2722 
G01 X47.8769 Y71.4203 
G01 X47.7475 Y71.5497 
G01 X47.5994 Y71.6573 
G01 X47.4364 Y71.7404 
G01 X47.2623 Y71.7970 
G01 X47.0815 Y71.8256 
G01 X46.8985 Y71.8256 
G01 X46.7177 Y71.7970 
G01 X46.5436 Y71.7404 
G01 X46.3806 Y71.6573 
G01 X46.2325 Y71.5497 
G01 X46.1031 Y71.4203 
G01 X45.9955 Y71.2722 
G01 X45.9124 Y71.1092 
G01 X45.8558 Y70.9351 
G01 X45.8272 Y70.7543 
G00 Z5.0000 
G00 X48.3672 Y70.7543 
G01 Z-0.1778 F200.00 
G01 X48.3672 Y68.9457 F100.00 
G01 X48.3958 Y68.7649 
G01 X48.4524 Y68.5908 
G01 X48.5355 Y68.4278 
G01 X48.6431 Y68.2797 
G01 X48.7725 Y68.1503 
G01 X48.9206 Y68.0427 
G01 X49.0836 Y67.9596 
G01 X49.2577 Y67.9030 
G01 X49.4385 Y67.8744 
G01 X49.6215 Y67.8744 
G01 X49.8023 Y67.9030 
G01 X49.9764 Y67.9596 
G01 X50.1394 Y68.0427 
G01 X50.2875 Y68.1503 
G01 X50.4169 Y68.2797 
G01 X50.5245 Y68.4278 
G01 X50.6076 Y68.5908 
G01 X50.6642 Y68.7649 
G01 X50.6928 Y68.9457 
G01 X50.6928 Y70.7543 
G01 X50.6642 Y70.9351 
G01 X50.6076 Y71.1092 
G01 X50.5245 Y71.2722 
G01 X50.4169 Y71.4203 
G01 X50.2875 Y71.5497 
G01 X50.1394 Y71.6573 
G01 X49.9764 Y71.7404 
G01 X49.8023 Y71.7970 
G01 X49.6215 Y71.8256 
G01 X49.4385 Y71.8256 
G01 X49.2577 Y71.7970 
G01 X49.0836 Y71.7404 
G01 X48.9206 Y71.6573 
G01 X48.7725 Y71.5497 
G01 X48.6431 Y71.4203 
G01 X48.5355 Y71.2722 
G01 X48.4524 Y71.1092 
G01 X48.3958 Y70.9351 
G01 X48.3672 Y70.7543 
G00 Z5.0000 
G00 X50.9072 Y70.7543 
G01 Z-0.1778 F200.00 
G01 X50.9072 Y68.9457 F100.00 
G01 X50.9358 Y68.7649 
G01 X50.9924 Y68.5908 
G01 X51.0755 Y68.4278 
G01 X51.1831 Y68.2797 
G01 X51.3125 Y68.1503 
G01 X51.4606 Y68.0427 
G01 X51.6236 Y67.9596 
G01 X51.7977 Y67.9030 
G01 X51.9785 Y67.8744 
G01 X52.1615 Y67.8744 
G01 X52.3423 Y67.9030 
G01 X52.5164 Y67.9596 
G01 X52.6794 Y68.0427 
G01 X52.8275 Y68.1503 
G01 X52.9569 Y68.2797 
G01 X53.0645 Y68.4278 
G01 X53.1476 Y68.5908 
G01 X53.2042 Y68.7649 
G01 X53.2328 Y68.9457 
G01 X53.2328 Y70.7543 
G01 X53.2042 Y70.9351 
G01 X53.1476 Y71.1092 
G01 X53.0645 Y71.2722 
G01 X52.9569 Y71.4203 
G01 X52.8275 Y71.5497 
G01 X52.6794 Y71.6573 
G01 X52.5164 Y71.7404 
G01 X52.3423 Y71.7970 
G01 X52.1615 Y71.8256 
G01 X51.9785 Y71.8256 
G01 X51.7977 Y71.7970 
G01 X51.6236 Y71.7404 
G01 X51.4606 Y71.6573 
G01 X51.3125 Y71.5497 
G01 X51.1831 Y71.4203 
G01 X51.0755 Y71.2722 
G01 X50.9924 Y71.1092 
G01 X50.9358 Y70.9351 
G01 X50.9072 Y70.7543 
G00 Z5.0000 
G00 X58.5272 Y70.2157 
G01 Z-0.1778 F200.00 
G01 X58.5558 Y70.0349 F100.00 
G01 X58.6124 Y69.8608 
G01 X58.6955 Y69.6978 
G01 X58.8031 Y69.5497 
G01 X58.9325 Y69.4203 
G01 X59.0806 Y69.3127 
G01 X59.2436 Y69.2296 
G01 X59.4177 Y69.1730 
G01 X59.5985 Y69.1444 
G01 X59.7815 Y69.1444 
G01 X59.9623 Y69.1730 
G01 X60.1364 Y69.2296 
G01 X60.2994 Y69.3127 
G01 X60.4475 Y69.4203 
G01 X60.5769 Y69.5497 
G01 X60.6845 Y69.6978 
G01 X60.7676 Y69.8608 
G01 X60.8242 Y70.0349 
G01 X60.8528 Y70.2157 
G01 X60.8528 Y72.0243 
G01 X60.8242 Y72.2051 
G01 X60.7676 Y72.3792 
G01 X60.6845 Y72.5422 
G01 X60.5769 Y72.6903 
G01 X60.4475 Y72.8197 
G01 X60.2994 Y72.9273 
G01 X60.1364 Y73.0104 
G01 X59.9623 Y73.0670 
G01 X59.7815 Y73.0956 
G01 X59.5985 Y73.0956 
G01 X59.4177 Y73.0670 
G01 X59.2436 Y73.0104 
G01 X59.0806 Y72.9273 
G01 X58.9325 Y72.8197 
G01 X58.8031 Y72.6903 
G01 X58.6955 Y72.5422 
G01 X58.6124 Y72.3792 
G01 X58.5558 Y72.2051 
G01 X58.5272 Y72.0243 
G01 X58.5272 Y70.2157 
G00 Z5.0000 
G00 X61.0672 Y70.2157 
G01 Z-0.1778 F200.00 
G01 X61.0958 Y70.0349 F100.00 
G01 X61.1524 Y69.8608 
G01 X61.2355 Y69.6978 
G01 X61.3431 Y69.5497 
G01 X61.4725 Y69.4203 
G01 X61.6206 Y69.3127 
G01 X61.7836 Y69.2296 
G01 X61.9577 Y69.1730 
G01 X62.1385 Y69.1444 
G01 X62.3215 Y69.1444 
G01 X62.5023 Y69.1730 
G01 X62.6764 Y69.2296 
G01 X62.8394 Y69.3127 
G01 X62.9875 Y69.4203 
G01 X63.1169 Y69.5497 
G01 X63.2245 Y69.6978 
G01 X63.3076 Y69.8608 
G01 X63.3642 Y70.0349 
G01 X63.3928 Y70.2157 
G01 X63.3928 Y72.0243 
G01 X63.3642 Y72.2051 
G01 X63.3076 Y72.3792 
G01 X63.2245 Y72.5422 
G01 X63.1169 Y72.6903 
G01 X62.9875 Y72.8197 
G01 X62.8394 Y72.9273 
G01 X62.6764 Y73.0104 
G01 X62.5023 Y73.0670 
G01 X62.3215 Y73.0956 
G01 X62.1385 Y73.0956 
G01 X61.9577 Y73.0670 
G01 X61.7836 Y73.0104 
G01 X61.6206 Y72.9273 
G01 X61.4725 Y72.8197 
G01 X61.3431 Y72.6903 
G01 X61.2355 Y72.5422 
G01 X61.1524 Y72.3792 
G01 X61.0958 Y72.2051 
G01 X61.0672 Y72.0243 
G01 X61.0672 Y70.2157 
G00 Z5.0000 
G00 X59.4740 Y65.2066 
G01 Z-0.1778 F200.00 
G01 X58.8566 Y65.8240 F100.00 
G01 X57.9834 Y65.8240 
G01 X57.4826 Y65.3232 
G01 X57.0772 Y65.3232 
G01 X56.9365 Y65.2855 
G01 X56.8103 Y65.2127 
G01 X56.7073 Y65.1097 
G01 X56.6345 Y64.9835 
G01 X56.5968 Y64.8428 
G01 X56.5968 Y34.8560 
G01 X56.5406 Y34.8273 
G01 X56.3925 Y34.7197 
G01 X56.2631 Y34.5903 
G01 X56.1555 Y34.4422 
G01 X56.0724 Y34.2792 
G01 X56.0158 Y34.1051 
G01 X55.9872 Y33.9243 
G01 X55.9872 Y32.1157 
G01 X56.0158 Y31.9349 
G01 X56.0724 Y31.7608 
G01 X56.1555 Y31.5978 
G01 X56.2631 Y31.4497 
G01 X56.3925 Y31.3203 
G01 X56.5406 Y31.2127 
G01 X56.5968 Y31.1840 
G01 X56.5968 Y29.7760 
G01 X56.5406 Y29.7473 
G01 X56.3925 Y29.6397 
G01 X56.2631 Y29.5103 
G01 X56.1555 Y29.3622 
G01 X56.0724 Y29.1992 
G01 X56.0158 Y29.0251 
G01 X55.9872 Y28.8443 
G01 X55.9872 Y27.0357 
G01 X56.0158 Y26.8549 
G01 X56.0724 Y26.6808 
G01 X56.1555 Y26.5178 
G01 X56.2631 Y26.3697 
G01 X56.3925 Y26.2403 
G01 X56.5406 Y26.1327 
G01 X56.5968 Y26.1040 
G01 X56.5968 Y24.6960 
G01 X56.5406 Y24.6673 
G01 X56.3925 Y24.5597 
G01 X56.2631 Y24.4303 
G01 X56.1555 Y24.2822 
G01 X56.0724 Y24.1192 
G01 X56.0158 Y23.9451 
G01 X55.9872 Y23.7643 
G01 X55.9872 Y21.9557 
G01 X56.0158 Y21.7749 
G01 X56.0724 Y21.6008 
G01 X56.1555 Y21.4378 
G01 X56.2631 Y21.2897 
G01 X56.3925 Y21.1603 
G01 X56.5406 Y21.0527 
G01 X56.5968 Y21.0240 
G01 X56.5968 Y19.6160 
G01 X56.5406 Y19.5873 
G01 X56.3925 Y19.4797 
G01 X56.2631 Y19.3503 
G01 X56.1555 Y19.2022 
G01 X56.0724 Y19.0392 
G01 X56.0158 Y18.8651 
G01 X55.9872 Y18.6843 
G01 X55.9872 Y16.8757 
G01 X56.0158 Y16.6949 
G01 X56.0724 Y16.5208 
G01 X56.1555 Y16.3578 
G01 X56.2631 Y16.2097 
G01 X56.3925 Y16.0803 
G01 X56.5406 Y15.9727 
G01 X56.7036 Y15.8896 
G01 X56.8777 Y15.8330 
G01 X57.0585 Y15.8044 
G01 X57.2415 Y15.8044 
G01 X57.4223 Y15.8330 
G01 X57.5964 Y15.8896 
G01 X57.7594 Y15.9727 
G01 X57.9075 Y16.0803 
G01 X58.0369 Y16.2097 
G01 X58.1445 Y16.3578 
G01 X58.2276 Y16.5208 
G01 X58.2842 Y16.6949 
G01 X58.3128 Y16.8757 
G01 X58.3128 Y18.6843 
G01 X58.2842 Y18.8651 
G01 X58.2276 Y19.0392 
G01 X58.1445 Y19.2022 
G01 X58.0369 Y19.3503 
G01 X57.9075 Y19.4797 
G01 X57.7594 Y19.5873 
G01 X57.7032 Y19.6160 
G01 X57.7032 Y21.0240 
G01 X57.7594 Y21.0527 
G01 X57.9075 Y21.1603 
G01 X58.0369 Y21.2897 
G01 X58.1445 Y21.4378 
G01 X58.2276 Y21.6008 
G01 X58.2842 Y21.7749 
G01 X58.3128 Y21.9557 
G01 X58.3128 Y23.7643 
G01 X58.2842 Y23.9451 
G01 X58.2276 Y24.1192 
G01 X58.1445 Y24.2822 
G01 X58.0369 Y24.4303 
G01 X57.9075 Y24.5597 
G01 X57.7594 Y24.6673 
G01 X57.7032 Y24.6960 
G01 X57.7032 Y26.1040 
G01 X57.7594 Y26.1327 
G01 X57.9075 Y26.2403 
G01 X58.0369 Y26.3697 
G01 X58.1445 Y26.5178 
G01 X58.2276 Y26.6808 
G01 X58.2842 Y26.8549 
G01 X58.3128 Y27.0357 
G01 X58.3128 Y28.8443 
G01 X58.2842 Y29.0251 
G01 X58.2276 Y29.1992 
G01 X58.1445 Y29.3622 
G01 X58.0369 Y29.5103 
G01 X57.9075 Y29.6397 
G01 X57.7594 Y29.7473 
G01 X57.7032 Y29.7760 
G01 X57.7032 Y31.1840 
G01 X57.7594 Y31.2127 
G01 X57.9075 Y31.3203 
G01 X58.0369 Y31.4497 
G01 X58.1445 Y31.5978 
G01 X58.2276 Y31.7608 
G01 X58.2842 Y31.9349 
G01 X58.3128 Y32.1157 
G01 X58.3128 Y33.9243 
G01 X58.2842 Y34.1051 
G01 X58.2276 Y34.2792 
G01 X58.1445 Y34.4422 
G01 X58.0369 Y34.5903 
G01 X57.9075 Y34.7197 
G01 X57.7594 Y34.8273 
G01 X57.7032 Y34.8560 
G01 X57.7032 Y37.3262 
G01 X57.9834 Y37.0460 
G01 X58.8566 Y37.0460 
G01 X59.4740 Y37.6634 
G01 X59.4740 Y38.5366 
G01 X58.8566 Y39.1540 
G01 X57.9834 Y39.1540 
G01 X57.7032 Y38.8738 
G01 X57.7032 Y63.9962 
G01 X57.9834 Y63.7160 
G01 X58.8566 Y63.7160 
G01 X59.4740 Y64.3334 
G01 X59.4740 Y65.2066 
G00 Z5.0000 
G00 X70.6834 Y64.5540 
G01 Z-0.1778 F200.00 
G01 X70.0660 Y63.9366 F100.00 
G01 X70.0660 Y63.0634 
G01 X70.6834 Y62.4460 
G01 X71.5566 Y62.4460 
G01 X72.1740 Y63.0634 
G01 X72.1740 Y63.9366 
G01 X72.0292 Y64.0814 
G01 X72.8774 Y65.7778 
G01 X72.9055 Y65.8265 
G01 X72.9098 Y65.8427 
G01 X72.9174 Y65.8577 
G01 X72.9286 Y65.9128 
G01 X72.9432 Y65.9672 
G01 X72.9432 Y65.9840 
G01 X72.9466 Y66.0004 
G01 X72.9432 Y66.0566 
G01 X72.9432 Y69.2840 
G01 X72.9994 Y69.3127 
G01 X73.1475 Y69.4203 
G01 X73.2769 Y69.5497 
G01 X73.3845 Y69.6978 
G01 X73.4676 Y69.8608 
G01 X73.5242 Y70.0349 
G01 X73.5528 Y70.2157 
G01 X73.5528 Y72.0243 
G01 X73.5242 Y72.2051 
G01 X73.4676 Y72.3792 
G01 X73.3845 Y72.5422 
G01 X73.2769 Y72.6903 
G01 X73.1475 Y72.8197 
G01 X72.9994 Y72.9273 
G01 X72.9432 Y72.9560 
G01 X72.9432 Y76.5326 
G01 X73.4440 Y77.0334 
G01 X73.4440 Y77.9066 
G01 X72.8266 Y78.5240 
G01 X71.9534 Y78.5240 
G01 X71.3360 Y77.9066 
G01 X71.3360 Y77.0334 
G01 X71.8368 Y76.5326 
G01 X71.8368 Y72.9560 
G01 X71.7806 Y72.9273 
G01 X71.6325 Y72.8197 
G01 X71.5031 Y72.6903 
G01 X71.3955 Y72.5422 
G01 X71.3124 Y72.3792 
G01 X71.2558 Y72.2051 
G01 X71.2272 Y72.0243 
G01 X71.2272 Y70.2157 
G01 X71.2558 Y70.0349 
G01 X71.3124 Y69.8608 
G01 X71.3955 Y69.6978 
G01 X71.5031 Y69.5497 
G01 X71.6325 Y69.4203 
G01 X71.7806 Y69.3127 
G01 X71.8368 Y69.2840 
G01 X71.8368 Y66.1706 
G01 X71.0285 Y64.5540 
G01 X70.6834 Y64.5540 
G00 Z5.0000 
G00 X70.6384 Y62.1228 
G01 Z-0.1778 F200.00 
G01 X69.9572 Y61.4416 F100.00 
G01 X69.9572 Y60.4784 
G01 X70.6384 Y59.7972 
G01 X71.6016 Y59.7972 
G01 X72.2828 Y60.4784 
G01 X72.2828 Y61.4416 
G01 X71.6016 Y62.1228 
G01 X70.6384 Y62.1228 
G00 Z5.0000 
G00 X73.1784 Y62.1228 
G01 Z-0.1778 F200.00 
G01 X72.4972 Y61.4416 F100.00 
G01 X72.4972 Y60.4784 
G01 X73.1784 Y59.7972 
G01 X74.1416 Y59.7972 
G01 X74.8228 Y60.4784 
G01 X74.8228 Y61.4416 
G01 X74.1416 Y62.1228 
G01 X73.1784 Y62.1228 
G00 Z5.0000 
G00 X73.1784 Y59.5828 
G01 Z-0.1778 F200.00 
G01 X72.4972 Y58.9016 F100.00 
G01 X72.4972 Y57.9384 
G01 X73.1784 Y57.2572 
G01 X74.1416 Y57.2572 
G01 X74.8228 Y57.9384 
G01 X74.8228 Y58.9016 
G01 X74.1416 Y59.5828 
G01 X73.1784 Y59.5828 
G00 Z5.0000 
G00 X72.2828 Y58.9016 
G01 Z-0.1778 F200.00 
G01 X71.6016 Y59.5828 F100.00 
G01 X70.6384 Y59.5828 
G01 X69.9572 Y58.9016 
G01 X69.9572 Y57.9384 
G01 X70.6384 Y57.2572 
G01 X71.6016 Y57.2572 
G01 X72.2828 Y57.9384 
G01 X72.2828 Y58.9016 
G00 Z5.0000 
G00 X72.2828 Y56.3616 
G01 Z-0.1778 F200.00 
G01 X71.6016 Y57.0428 F100.00 
G01 X70.6384 Y57.0428 
G01 X69.9572 Y56.3616 
G01 X69.9572 Y55.3984 
G01 X70.6384 Y54.7172 
G01 X71.6016 Y54.7172 
G01 X72.2828 Y55.3984 
G01 X72.2828 Y56.3616 
G00 Z5.0000 
G00 X72.4972 Y56.3616 
G01 Z-0.1778 F200.00 
G01 X72.4972 Y55.3984 F100.00 
G01 X73.1784 Y54.7172 
G01 X74.1416 Y54.7172 
G01 X74.7544 Y55.3300 
G01 X80.3760 Y55.3300 
G01 X80.3760 Y55.2799 
G01 X80.3999 Y55.1909 
G01 X80.4459 Y55.1111 
G01 X80.5111 Y55.0459 
G01 X80.5909 Y54.9999 
G01 X80.6799 Y54.9760 
G01 X80.7300 Y54.9760 
G01 X80.7300 Y48.1876 
G01 X80.7675 Y48.0477 
G01 X80.8399 Y47.9223 
G01 X81.6460 Y47.1162 
G01 X81.6460 Y46.8638 
G01 X81.0522 Y46.2700 
G01 X74.7544 Y46.2700 
G01 X74.1416 Y46.8828 
G01 X73.1784 Y46.8828 
G01 X72.4972 Y46.2016 
G01 X72.4972 Y45.2384 
G01 X73.1784 Y44.5572 
G01 X74.1416 Y44.5572 
G01 X74.7544 Y45.1700 
G01 X81.3524 Y45.1700 
G01 X81.4923 Y45.2075 
G01 X81.6177 Y45.2799 
G01 X82.0000 Y45.6622 
G01 X82.0000 Y37.0578 
G01 X81.4062 Y36.4640 
G01 X80.6799 Y36.4640 
G01 X80.5909 Y36.4401 
G01 X80.5111 Y36.3941 
G01 X80.4459 Y36.3289 
G01 X80.3999 Y36.2491 
G01 X80.3760 Y36.1601 
G01 X80.3760 Y34.9599 
G01 X80.3999 Y34.8709 
G01 X80.4459 Y34.7911 
G01 X80.5111 Y34.7259 
G01 X80.5909 Y34.6799 
G01 X80.6799 Y34.6560 
G01 X81.8801 Y34.6560 
G01 X81.9691 Y34.6799 
G01 X82.0489 Y34.7259 
G01 X82.1141 Y34.7911 
G01 X82.1601 Y34.8709 
G01 X82.1840 Y34.9599 
G01 X82.1840 Y35.6862 
G01 X82.9901 Y36.4923 
G01 X83.0625 Y36.6177 
G01 X83.1000 Y36.7576 
G01 X83.1000 Y46.0860 
G01 X83.1501 Y46.0860 
G01 X83.2391 Y46.1099 
G01 X83.3189 Y46.1559 
G01 X83.3841 Y46.2211 
G01 X83.4301 Y46.3009 
G01 X83.4540 Y46.3899 
G01 X83.4540 Y46.4400 
G01 X91.5124 Y46.4400 
G01 X91.6523 Y46.4775 
G01 X91.7777 Y46.5499 
G01 X91.8801 Y46.6523 
G01 X93.1501 Y47.9223 
G01 X93.2225 Y48.0477 
G01 X93.2600 Y48.1876 
G01 X93.2600 Y53.4124 
G01 X93.2225 Y53.5523 
G01 X93.1501 Y53.6777 
G01 X93.0477 Y53.7801 
G01 X92.4074 Y54.4204 
G01 X92.4345 Y54.4578 
G01 X92.5176 Y54.6208 
G01 X92.5742 Y54.7949 
G01 X92.6028 Y54.9757 
G01 X92.6028 Y56.7843 
G01 X92.5742 Y56.9651 
G01 X92.5176 Y57.1392 
G01 X92.4345 Y57.3022 
G01 X92.3269 Y57.4503 
G01 X92.1975 Y57.5797 
G01 X92.0494 Y57.6873 
G01 X91.9900 Y57.7176 
G01 X91.9900 Y68.9460 
G01 X92.0401 Y68.9460 
G01 X92.1291 Y68.9699 
G01 X92.2089 Y69.0159 
G01 X92.2741 Y69.0811 
G01 X92.3201 Y69.1609 
G01 X92.3440 Y69.2499 
G01 X92.3440 Y70.4501 
G01 X92.3201 Y70.5391 
G01 X92.2741 Y70.6189 
G01 X92.2089 Y70.6841 
G01 X92.1291 Y70.7301 
G01 X92.0401 Y70.7540 
G01 X90.8399 Y70.7540 
G01 X90.7509 Y70.7301 
G01 X90.6711 Y70.6841 
G01 X90.6059 Y70.6189 
G01 X90.5599 Y70.5391 
G01 X90.5360 Y70.4501 
G01 X90.5360 Y69.2499 
G01 X90.5599 Y69.1609 
G01 X90.6059 Y69.0811 
G01 X90.6711 Y69.0159 
G01 X90.7509 Y68.9699 
G01 X90.8399 Y68.9460 
G01 X90.8900 Y68.9460 
G01 X90.8900 Y65.5730 
G01 X90.8877 Y65.5762 
G01 X90.7583 Y65.7056 
G01 X90.6102 Y65.8132 
G01 X90.4471 Y65.8963 
G01 X90.2731 Y65.9528 
G01 X90.0923 Y65.9815 
G01 X89.9093 Y65.9815 
G01 X89.7285 Y65.9528 
G01 X89.5544 Y65.8963 
G01 X89.3913 Y65.8132 
G01 X89.2433 Y65.7056 
G01 X87.9644 Y64.4267 
G01 X87.8568 Y64.2786 
G01 X87.7737 Y64.1156 
G01 X87.7171 Y63.9415 
G01 X87.6885 Y63.7607 
G01 X87.6885 Y63.5777 
G01 X87.7171 Y63.3969 
G01 X87.7737 Y63.2229 
G01 X87.8568 Y63.0598 
G01 X87.9644 Y62.9117 
G01 X88.0938 Y62.7823 
G01 X88.2419 Y62.6747 
G01 X88.4050 Y62.5916 
G01 X88.5790 Y62.5350 
G01 X88.7598 Y62.5064 
G01 X88.9428 Y62.5064 
G01 X89.1236 Y62.5350 
G01 X89.2977 Y62.5916 
G01 X89.4608 Y62.6747 
G01 X89.6088 Y62.7823 
G01 X90.8877 Y64.0612 
G01 X90.8900 Y64.0643 
G01 X90.8900 Y57.7176 
G01 X90.8306 Y57.6873 
G01 X90.6825 Y57.5797 
G01 X90.5531 Y57.4503 
G01 X90.4455 Y57.3022 
G01 X90.3624 Y57.1392 
G01 X90.3058 Y56.9651 
G01 X90.2772 Y56.7843 
G01 X90.2772 Y54.9757 
G01 X90.3058 Y54.7949 
G01 X90.3624 Y54.6208 
G01 X90.4455 Y54.4578 
G01 X90.5531 Y54.3097 
G01 X90.6825 Y54.1803 
G01 X90.8306 Y54.0727 
G01 X90.9936 Y53.9896 
G01 X91.1677 Y53.9330 
G01 X91.3485 Y53.9044 
G01 X91.3678 Y53.9044 
G01 X92.1600 Y53.1122 
G01 X92.1600 Y48.4878 
G01 X91.2122 Y47.5400 
G01 X83.4540 Y47.5400 
G01 X83.4540 Y47.5901 
G01 X83.4301 Y47.6791 
G01 X83.3841 Y47.7589 
G01 X83.3189 Y47.8241 
G01 X83.2391 Y47.8701 
G01 X83.1501 Y47.8940 
G01 X82.4238 Y47.8940 
G01 X81.8300 Y48.4878 
G01 X81.8300 Y54.9760 
G01 X81.8801 Y54.9760 
G01 X81.9691 Y54.9999 
G01 X82.0489 Y55.0459 
G01 X82.1141 Y55.1111 
G01 X82.1601 Y55.1909 
G01 X82.1840 Y55.2799 
G01 X82.1840 Y56.4801 
G01 X82.1601 Y56.5691 
G01 X82.1141 Y56.6489 
G01 X82.0489 Y56.7141 
G01 X81.9691 Y56.7601 
G01 X81.8801 Y56.7840 
G01 X80.6799 Y56.7840 
G01 X80.5909 Y56.7601 
G01 X80.5111 Y56.7141 
G01 X80.4459 Y56.6489 
G01 X80.3999 Y56.5691 
G01 X80.3760 Y56.4801 
G01 X80.3760 Y56.4300 
G01 X74.7544 Y56.4300 
G01 X74.1416 Y57.0428 
G01 X73.1784 Y57.0428 
G01 X72.4972 Y56.3616 
G00 Z5.0000 
G00 X73.1784 Y54.5028 
G01 Z-0.1778 F200.00 
G01 X72.4972 Y53.8216 F100.00 
G01 X72.4972 Y52.8584 
G01 X73.1784 Y52.1772 
G01 X74.1416 Y52.1772 
G01 X74.8228 Y52.8584 
G01 X74.8228 Y53.8216 
G01 X74.1416 Y54.5028 
G01 X73.1784 Y54.5028 
G00 Z5.0000 
G00 X72.2828 Y53.8216 
G01 Z-0.1778 F200.00 
G01 X71.6016 Y54.5028 F100.00 
G01 X70.6384 Y54.5028 
G01 X69.9572 Y53.8216 
G01 X69.9572 Y52.8584 
G01 X70.6384 Y52.1772 
G01 X71.6016 Y52.1772 
G01 X72.2828 Y52.8584 
G01 X72.2828 Y53.8216 
G00 Z5.0000 
G00 X72.2828 Y51.2816 
G01 Z-0.1778 F200.00 
G01 X71.6016 Y51.9628 F100.00 
G01 X70.6384 Y51.9628 
G01 X70.0256 Y51.3500 
G01 X68.5076 Y51.3500 
G01 X68.3677 Y51.3125 
G01 X68.2423 Y51.2401 
G01 X68.1399 Y51.1377 
G01 X68.0675 Y51.0123 
G01 X68.0300 Y50.8724 
G01 X68.0300 Y30.4076 
G01 X68.0675 Y30.2677 
G01 X68.1399 Y30.1423 
G01 X68.2423 Y30.0399 
G01 X68.3677 Y29.9675 
G01 X68.5076 Y29.9300 
G01 X70.0256 Y29.9300 
G01 X70.6384 Y29.3172 
G01 X71.6016 Y29.3172 
G01 X72.2828 Y29.9984 
G01 X72.2828 Y30.9616 
G01 X71.6016 Y31.6428 
G01 X70.6384 Y31.6428 
G01 X70.0256 Y31.0300 
G01 X69.1300 Y31.0300 
G01 X69.1300 Y50.2500 
G01 X70.0256 Y50.2500 
G01 X70.6384 Y49.6372 
G01 X71.6016 Y49.6372 
G01 X72.2828 Y50.3184 
G01 X72.2828 Y51.2816 
G00 Z5.0000 
G00 X72.4972 Y51.2816 
G01 Z-0.1778 F200.00 
G01 X72.4972 Y50.3184 F100.00 
G01 X73.1784 Y49.6372 
G01 X74.1416 Y49.6372 
G01 X74.8228 Y50.3184 
G01 X74.8228 Y51.2816 
G01 X74.1416 Y51.9628 
G01 X73.1784 Y51.9628 
G01 X72.4972 Y51.2816 
G00 Z5.0000 
G00 X73.1784 Y49.4228 
G01 Z-0.1778 F200.00 
G01 X72.4972 Y48.7416 F100.00 
G01 X72.4972 Y47.7784 
G01 X73.1784 Y47.0972 
G01 X74.1416 Y47.0972 
G01 X74.8228 Y47.7784 
G01 X74.8228 Y48.7416 
G01 X74.1416 Y49.4228 
G01 X73.1784 Y49.4228 
G00 Z5.0000 
G00 X72.2828 Y48.7416 
G01 Z-0.1778 F200.00 
G01 X71.6016 Y49.4228 F100.00 
G01 X70.6384 Y49.4228 
G01 X69.9572 Y48.7416 
G01 X69.9572 Y47.7784 
G01 X70.6384 Y47.0972 
G01 X71.6016 Y47.0972 
G01 X72.2828 Y47.7784 
G01 X72.2828 Y48.7416 
G00 Z5.0000 
G00 X72.2828 Y46.2016 
G01 Z-0.1778 F200.00 
G01 X71.6016 Y46.8828 F100.00 
G01 X70.6384 Y46.8828 
G01 X69.9572 Y46.2016 
G01 X69.9572 Y45.2384 
G01 X70.6384 Y44.5572 
G01 X71.6016 Y44.5572 
G01 X72.2828 Y45.2384 
G01 X72.2828 Y46.2016 
G00 Z5.0000 
G00 X72.2828 Y43.6616 
G01 Z-0.1778 F200.00 
G01 X71.6016 Y44.3428 F100.00 
G01 X70.6384 Y44.3428 
G01 X69.9572 Y43.6616 
G01 X69.9572 Y42.6984 
G01 X70.6384 Y42.0172 
G01 X71.6016 Y42.0172 
G01 X72.2828 Y42.6984 
G01 X72.2828 Y43.6616 
G00 Z5.0000 
G00 X72.4972 Y43.6616 
G01 Z-0.1778 F200.00 
G01 X72.4972 Y42.6984 F100.00 
G01 X73.1784 Y42.0172 
G01 X74.1416 Y42.0172 
G01 X74.8228 Y42.6984 
G01 X74.8228 Y43.6616 
G01 X74.1416 Y44.3428 
G01 X73.1784 Y44.3428 
G01 X72.4972 Y43.6616 
G00 Z5.0000 
G00 X73.1784 Y41.8028 
G01 Z-0.1778 F200.00 
G01 X72.4972 Y41.1216 F100.00 
G01 X72.4972 Y40.1584 
G01 X73.1784 Y39.4772 
G01 X74.1416 Y39.4772 
G01 X74.8228 Y40.1584 
G01 X74.8228 Y41.1216 
G01 X74.1416 Y41.8028 
G01 X73.1784 Y41.8028 
G00 Z5.0000 
G00 X72.2828 Y41.1216 
G01 Z-0.1778 F200.00 
G01 X71.6016 Y41.8028 F100.00 
G01 X70.6384 Y41.8028 
G01 X69.9572 Y41.1216 
G01 X69.9572 Y40.1584 
G01 X70.6384 Y39.4772 
G01 X71.6016 Y39.4772 
G01 X72.2828 Y40.1584 
G01 X72.2828 Y41.1216 
G00 Z5.0000 
G00 X72.2828 Y38.5816 
G01 Z-0.1778 F200.00 
G01 X71.6016 Y39.2628 F100.00 
G01 X70.6384 Y39.2628 
G01 X69.9572 Y38.5816 
G01 X69.9572 Y37.6184 
G01 X70.6384 Y36.9372 
G01 X71.6016 Y36.9372 
G01 X72.2828 Y37.6184 
G01 X72.2828 Y38.5816 
G00 Z5.0000 
G00 X72.4972 Y38.5816 
G01 Z-0.1778 F200.00 
G01 X72.4972 Y37.6184 F100.00 
G01 X73.1784 Y36.9372 
G01 X74.1416 Y36.9372 
G01 X74.8228 Y37.6184 
G01 X74.8228 Y38.5816 
G01 X74.1416 Y39.2628 
G01 X73.1784 Y39.2628 
G01 X72.4972 Y38.5816 
G00 Z5.0000 
G00 X73.1784 Y36.7228 
G01 Z-0.1778 F200.00 
G01 X72.4972 Y36.0416 F100.00 
G01 X72.4972 Y35.0784 
G01 X73.1784 Y34.3972 
G01 X74.1416 Y34.3972 
G01 X74.8228 Y35.0784 
G01 X74.8228 Y36.0416 
G01 X74.1416 Y36.7228 
G01 X73.1784 Y36.7228 
G00 Z5.0000 
G00 X72.2828 Y36.0416 
G01 Z-0.1778 F200.00 
G01 X71.6016 Y36.7228 F100.00 
G01 X70.6384 Y36.7228 
G01 X69.9572 Y36.0416 
G01 X69.9572 Y35.0784 
G01 X70.6384 Y34.3972 
G01 X71.6016 Y34.3972 
G01 X72.2828 Y35.0784 
G01 X72.2828 Y36.0416 
G00 Z5.0000 
G00 X72.2828 Y33.5016 
G01 Z-0.1778 F200.00 
G01 X71.6016 Y34.1828 F100.00 
G01 X70.6384 Y34.1828 
G01 X69.9572 Y33.5016 
G01 X69.9572 Y32.5384 
G01 X70.6384 Y31.8572 
G01 X71.6016 Y31.8572 
G01 X72.2828 Y32.5384 
G01 X72.2828 Y33.5016 
G00 Z5.0000 
G00 X72.4972 Y33.5016 
G01 Z-0.1778 F200.00 
G01 X72.4972 Y32.5384 F100.00 
G01 X73.1784 Y31.8572 
G01 X74.1416 Y31.8572 
G01 X74.8228 Y32.5384 
G01 X74.8228 Y33.5016 
G01 X74.1416 Y34.1828 
G01 X73.1784 Y34.1828 
G01 X72.4972 Y33.5016 
G00 Z5.0000 
G00 X73.1784 Y31.6428 
G01 Z-0.1778 F200.00 
G01 X72.4972 Y30.9616 F100.00 
G01 X72.4972 Y29.9984 
G01 X73.1784 Y29.3172 
G01 X74.1416 Y29.3172 
G01 X74.8228 Y29.9984 
G01 X74.8228 Y30.9616 
G01 X74.1416 Y31.6428 
G01 X73.1784 Y31.6428 
G00 Z5.0000 
G00 X73.1784 Y29.1028 
G01 Z-0.1778 F200.00 
G01 X72.4972 Y28.4216 F100.00 
G01 X72.4972 Y27.4584 
G01 X73.1784 Y26.7772 
G01 X74.1416 Y26.7772 
G01 X74.8228 Y27.4584 
G01 X74.8228 Y28.4216 
G01 X74.1416 Y29.1028 
G01 X73.1784 Y29.1028 
G00 Z5.0000 
G00 X72.2828 Y28.4216 
G01 Z-0.1778 F200.00 
G01 X71.6016 Y29.1028 F100.00 
G01 X70.6384 Y29.1028 
G01 X69.9572 Y28.4216 
G01 X69.9572 Y27.4584 
G01 X70.6384 Y26.7772 
G01 X71.6016 Y26.7772 
G01 X72.2828 Y27.4584 
G01 X72.2828 Y28.4216 
G00 Z5.0000 
G00 X72.2828 Y25.8816 
G01 Z-0.1778 F200.00 
G01 X71.6016 Y26.5628 F100.00 
G01 X70.6384 Y26.5628 
G01 X69.9572 Y25.8816 
G01 X69.9572 Y24.9184 
G01 X70.6384 Y24.2372 
G01 X71.6016 Y24.2372 
G01 X72.2828 Y24.9184 
G01 X72.2828 Y25.8816 
G00 Z5.0000 
G00 X72.4972 Y25.8816 
G01 Z-0.1778 F200.00 
G01 X72.4972 Y24.9184 F100.00 
G01 X73.1784 Y24.2372 
G01 X74.1416 Y24.2372 
G01 X74.8228 Y24.9184 
G01 X74.8228 Y25.8816 
G01 X74.1416 Y26.5628 
G01 X73.1784 Y26.5628 
G01 X72.4972 Y25.8816 
G00 Z5.0000 
G00 X73.1784 Y24.0228 
G01 Z-0.1778 F200.00 
G01 X72.4972 Y23.3416 F100.00 
G01 X72.4972 Y22.3784 
G01 X73.1784 Y21.6972 
G01 X74.1416 Y21.6972 
G01 X74.8228 Y22.3784 
G01 X74.8228 Y23.3416 
G01 X74.1416 Y24.0228 
G01 X73.1784 Y24.0228 
G00 Z5.0000 
G00 X72.2828 Y23.3416 
G01 Z-0.1778 F200.00 
G01 X71.6016 Y24.0228 F100.00 
G01 X70.6384 Y24.0228 
G01 X69.9572 Y23.3416 
G01 X69.9572 Y22.3784 
G01 X70.6384 Y21.6972 
G01 X71.6016 Y21.6972 
G01 X72.2828 Y22.3784 
G01 X72.2828 Y23.3416 
G00 Z5.0000 
G00 X72.2828 Y20.8016 
G01 Z-0.1778 F200.00 
G01 X71.6016 Y21.4828 F100.00 
G01 X70.6384 Y21.4828 
G01 X69.9572 Y20.8016 
G01 X69.9572 Y19.8384 
G01 X70.6384 Y19.1572 
G01 X71.6016 Y19.1572 
G01 X72.2828 Y19.8384 
G01 X72.2828 Y20.8016 
G00 Z5.0000 
G00 X72.4972 Y20.8016 
G01 Z-0.1778 F200.00 
G01 X72.4972 Y19.8384 F100.00 
G01 X73.1784 Y19.1572 
G01 X74.1416 Y19.1572 
G01 X74.8228 Y19.8384 
G01 X74.8228 Y20.8016 
G01 X74.1416 Y21.4828 
G01 X73.1784 Y21.4828 
G01 X72.4972 Y20.8016 
G00 Z5.0000 
G00 X73.1784 Y18.9428 
G01 Z-0.1778 F200.00 
G01 X72.4972 Y18.2616 F100.00 
G01 X72.4972 Y17.2984 
G01 X73.1784 Y16.6172 
G01 X74.1416 Y16.6172 
G01 X74.8228 Y17.2984 
G01 X74.8228 Y18.2616 
G01 X74.1416 Y18.9428 
G01 X73.1784 Y18.9428 
G00 Z5.0000 
G00 X72.2828 Y18.2616 
G01 Z-0.1778 F200.00 
G01 X71.6016 Y18.9428 F100.00 
G01 X70.6384 Y18.9428 
G01 X69.9572 Y18.2616 
G01 X69.9572 Y17.2984 
G01 X70.6384 Y16.6172 
G01 X71.6016 Y16.6172 
G01 X72.2828 Y17.2984 
G01 X72.2828 Y18.2616 
G00 Z5.0000 
G00 X72.2828 Y15.7216 
G01 Z-0.1778 F200.00 
G01 X71.6016 Y16.4028 F100.00 
G01 X70.6384 Y16.4028 
G01 X69.9572 Y15.7216 
G01 X69.9572 Y14.7584 
G01 X70.6384 Y14.0772 
G01 X71.6016 Y14.0772 
G01 X72.2828 Y14.7584 
G01 X72.2828 Y15.7216 
G00 Z5.0000 
G00 X72.4972 Y15.7216 
G01 Z-0.1778 F200.00 
G01 X72.4972 Y14.7584 F100.00 
G01 X73.1784 Y14.0772 
G01 X74.1416 Y14.0772 
G01 X74.8228 Y14.7584 
G01 X74.8228 Y15.7216 
G01 X74.1416 Y16.4028 
G01 X73.1784 Y16.4028 
G01 X72.4972 Y15.7216 
G00 Z5.0000 
G00 X73.1784 Y13.8628 
G01 Z-0.1778 F200.00 
G01 X72.4972 Y13.1816 F100.00 
G01 X72.4972 Y12.2184 
G01 X73.1784 Y11.5372 
G01 X74.1416 Y11.5372 
G01 X74.8228 Y12.2184 
G01 X74.8228 Y13.1816 
G01 X74.1416 Y13.8628 
G01 X73.1784 Y13.8628 
G00 Z5.0000 
G00 X72.2828 Y13.1816 
G01 Z-0.1778 F200.00 
G01 X71.6016 Y13.8628 F100.00 
G01 X70.6384 Y13.8628 
G01 X69.9572 Y13.1816 
G01 X69.9572 Y12.2184 
G01 X70.6384 Y11.5372 
G01 X71.6016 Y11.5372 
G01 X72.2828 Y12.2184 
G01 X72.2828 Y13.1816 
G00 Z5.0000 
G00 X66.4766 Y16.7260 
G01 Z-0.1778 F200.00 
G01 X67.0940 Y17.3434 F100.00 
G01 X67.0940 Y18.2166 
G01 X66.4766 Y18.8340 
G01 X65.6034 Y18.8340 
G01 X65.1026 Y18.3332 
G01 X60.8528 Y18.3332 
G01 X60.8528 Y18.6843 
G01 X60.8242 Y18.8651 
G01 X60.7676 Y19.0392 
G01 X60.6845 Y19.2022 
G01 X60.5769 Y19.3503 
G01 X60.4475 Y19.4797 
G01 X60.2994 Y19.5873 
G01 X60.1364 Y19.6704 
G01 X59.9623 Y19.7270 
G01 X59.7815 Y19.7556 
G01 X59.5985 Y19.7556 
G01 X59.4177 Y19.7270 
G01 X59.2436 Y19.6704 
G01 X59.0806 Y19.5873 
G01 X58.9325 Y19.4797 
G01 X58.8031 Y19.3503 
G01 X58.6955 Y19.2022 
G01 X58.6124 Y19.0392 
G01 X58.5558 Y18.8651 
G01 X58.5272 Y18.6843 
G01 X58.5272 Y16.8757 
G01 X58.5558 Y16.6949 
G01 X58.6124 Y16.5208 
G01 X58.6955 Y16.3578 
G01 X58.8031 Y16.2097 
G01 X58.9325 Y16.0803 
G01 X59.0806 Y15.9727 
G01 X59.2436 Y15.8896 
G01 X59.4177 Y15.8330 
G01 X59.5985 Y15.8044 
G01 X59.7815 Y15.8044 
G01 X59.9623 Y15.8330 
G01 X60.1364 Y15.8896 
G01 X60.2994 Y15.9727 
G01 X60.4475 Y16.0803 
G01 X60.5769 Y16.2097 
G01 X60.6845 Y16.3578 
G01 X60.7676 Y16.5208 
G01 X60.8242 Y16.6949 
G01 X60.8528 Y16.8757 
G01 X60.8528 Y17.2268 
G01 X65.1026 Y17.2268 
G01 X65.6034 Y16.7260 
G01 X66.4766 Y16.7260 
G00 Z5.0000 
G00 X66.4766 Y21.8060 
G01 Z-0.1778 F200.00 
G01 X67.0940 Y22.4234 F100.00 
G01 X67.0940 Y23.2966 
G01 X66.4766 Y23.9140 
G01 X65.6034 Y23.9140 
G01 X65.1026 Y23.4132 
G01 X60.8528 Y23.4132 
G01 X60.8528 Y23.7643 
G01 X60.8242 Y23.9451 
G01 X60.7676 Y24.1192 
G01 X60.6845 Y24.2822 
G01 X60.5769 Y24.4303 
G01 X60.4475 Y24.5597 
G01 X60.2994 Y24.6673 
G01 X60.1364 Y24.7504 
G01 X59.9623 Y24.8070 
G01 X59.7815 Y24.8356 
G01 X59.5985 Y24.8356 
G01 X59.4177 Y24.8070 
G01 X59.2436 Y24.7504 
G01 X59.0806 Y24.6673 
G01 X58.9325 Y24.5597 
G01 X58.8031 Y24.4303 
G01 X58.6955 Y24.2822 
G01 X58.6124 Y24.1192 
G01 X58.5558 Y23.9451 
G01 X58.5272 Y23.7643 
G01 X58.5272 Y21.9557 
G01 X58.5558 Y21.7749 
G01 X58.6124 Y21.6008 
G01 X58.6955 Y21.4378 
G01 X58.8031 Y21.2897 
G01 X58.9325 Y21.1603 
G01 X59.0806 Y21.0527 
G01 X59.2436 Y20.9696 
G01 X59.4177 Y20.9130 
G01 X59.5985 Y20.8844 
G01 X59.7815 Y20.8844 
G01 X59.9623 Y20.9130 
G01 X60.1364 Y20.9696 
G01 X60.2994 Y21.0527 
G01 X60.4475 Y21.1603 
G01 X60.5769 Y21.2897 
G01 X60.6845 Y21.4378 
G01 X60.7676 Y21.6008 
G01 X60.8242 Y21.7749 
G01 X60.8528 Y21.9557 
G01 X60.8528 Y22.3068 
G01 X65.1026 Y22.3068 
G01 X65.6034 Y21.8060 
G01 X66.4766 Y21.8060 
G00 Z5.0000 
G00 X65.2066 Y26.8860 
G01 Z-0.1778 F200.00 
G01 X65.8240 Y27.5034 F100.00 
G01 X65.8240 Y28.3766 
G01 X65.2066 Y28.9940 
G01 X64.3334 Y28.9940 
G01 X63.8326 Y28.4932 
G01 X60.8528 Y28.4932 
G01 X60.8528 Y28.8443 
G01 X60.8242 Y29.0251 
G01 X60.7676 Y29.1992 
G01 X60.6845 Y29.3622 
G01 X60.5769 Y29.5103 
G01 X60.4475 Y29.6397 
G01 X60.2994 Y29.7473 
G01 X60.1364 Y29.8304 
G01 X59.9623 Y29.8870 
G01 X59.7815 Y29.9156 
G01 X59.5985 Y29.9156 
G01 X59.4177 Y29.8870 
G01 X59.2436 Y29.8304 
G01 X59.0806 Y29.7473 
G01 X58.9325 Y29.6397 
G01 X58.8031 Y29.5103 
G01 X58.6955 Y29.3622 
G01 X58.6124 Y29.1992 
G01 X58.5558 Y29.0251 
G01 X58.5272 Y28.8443 
G01 X58.5272 Y27.0357 
G01 X58.5558 Y26.8549 
G01 X58.6124 Y26.6808 
G01 X58.6955 Y26.5178 
G01 X58.8031 Y26.3697 
G01 X58.9325 Y26.2403 
G01 X59.0806 Y26.1327 
G01 X59.2436 Y26.0496 
G01 X59.4177 Y25.9930 
G01 X59.5985 Y25.9644 
G01 X59.7815 Y25.9644 
G01 X59.9623 Y25.9930 
G01 X60.1364 Y26.0496 
G01 X60.2994 Y26.1327 
G01 X60.4475 Y26.2403 
G01 X60.5769 Y26.3697 
G01 X60.6845 Y26.5178 
G01 X60.7676 Y26.6808 
G01 X60.8242 Y26.8549 
G01 X60.8528 Y27.0357 
G01 X60.8528 Y27.3868 
G01 X63.8326 Y27.3868 
G01 X64.3334 Y26.8860 
G01 X65.2066 Y26.8860 
G00 Z5.0000 
G00 X65.6034 Y31.9660 
G01 Z-0.1778 F200.00 
G01 X66.4766 Y31.9660 F100.00 
G01 X67.0940 Y32.5834 
G01 X67.0940 Y33.4566 
G01 X66.4766 Y34.0740 
G01 X65.6034 Y34.0740 
G01 X65.1026 Y33.5732 
G01 X60.8528 Y33.5732 
G01 X60.8528 Y33.9243 
G01 X60.8242 Y34.1051 
G01 X60.7676 Y34.2792 
G01 X60.6845 Y34.4422 
G01 X60.5769 Y34.5903 
G01 X60.4475 Y34.7197 
G01 X60.2994 Y34.8273 
G01 X60.1364 Y34.9104 
G01 X59.9623 Y34.9670 
G01 X59.7815 Y34.9956 
G01 X59.5985 Y34.9956 
G01 X59.4177 Y34.9670 
G01 X59.2436 Y34.9104 
G01 X59.0806 Y34.8273 
G01 X58.9325 Y34.7197 
G01 X58.8031 Y34.5903 
G01 X58.6955 Y34.4422 
G01 X58.6124 Y34.2792 
G01 X58.5558 Y34.1051 
G01 X58.5272 Y33.9243 
G01 X58.5272 Y32.1157 
G01 X58.5558 Y31.9349 
G01 X58.6124 Y31.7608 
G01 X58.6955 Y31.5978 
G01 X58.8031 Y31.4497 
G01 X58.9325 Y31.3203 
G01 X59.0806 Y31.2127 
G01 X59.2436 Y31.1296 
G01 X59.4177 Y31.0730 
G01 X59.5985 Y31.0444 
G01 X59.7815 Y31.0444 
G01 X59.9623 Y31.0730 
G01 X60.1364 Y31.1296 
G01 X60.2994 Y31.2127 
G01 X60.4475 Y31.3203 
G01 X60.5769 Y31.4497 
G01 X60.6845 Y31.5978 
G01 X60.7676 Y31.7608 
G01 X60.8242 Y31.9349 
G01 X60.8528 Y32.1157 
G01 X60.8528 Y32.4668 
G01 X65.1026 Y32.4668 
G01 X65.6034 Y31.9660 
G00 Z5.0000 
G00 X52.9569 Y14.2703 
G01 Z-0.1778 F200.00 
G01 X52.8275 Y14.3997 F100.00 
G01 X52.6794 Y14.5073 
G01 X52.5164 Y14.5904 
G01 X52.3423 Y14.6470 
G01 X52.1615 Y14.6756 
G01 X51.9785 Y14.6756 
G01 X51.7977 Y14.6470 
G01 X51.6236 Y14.5904 
G01 X51.4606 Y14.5073 
G01 X51.3125 Y14.3997 
G01 X51.1831 Y14.2703 
G01 X51.0755 Y14.1222 
G01 X50.9924 Y13.9592 
G01 X50.9358 Y13.7851 
G01 X50.9072 Y13.6043 
G01 X50.9072 Y11.7957 
G01 X50.9358 Y11.6149 
G01 X50.9924 Y11.4408 
G01 X51.0755 Y11.2778 
G01 X51.1831 Y11.1297 
G01 X51.3125 Y11.0003 
G01 X51.4606 Y10.8927 
G01 X51.6236 Y10.8096 
G01 X51.7977 Y10.7530 
G01 X51.9785 Y10.7244 
G01 X52.1615 Y10.7244 
G01 X52.3423 Y10.7530 
G01 X52.5164 Y10.8096 
G01 X52.6794 Y10.8927 
G01 X52.8275 Y11.0003 
G01 X52.9569 Y11.1297 
G01 X53.0645 Y11.2778 
G01 X53.1476 Y11.4408 
G01 X53.2042 Y11.6149 
G01 X53.2328 Y11.7957 
G01 X53.2328 Y13.6043 
G01 X53.2042 Y13.7851 
G01 X53.1476 Y13.9592 
G01 X53.0645 Y14.1222 
G01 X52.9569 Y14.2703 
G00 Z5.0000 
G00 X50.4169 Y14.2703 
G01 Z-0.1778 F200.00 
G01 X50.2875 Y14.3997 F100.00 
G01 X50.1394 Y14.5073 
G01 X49.9764 Y14.5904 
G01 X49.8023 Y14.6470 
G01 X49.6215 Y14.6756 
G01 X49.4385 Y14.6756 
G01 X49.2577 Y14.6470 
G01 X49.0836 Y14.5904 
G01 X48.9206 Y14.5073 
G01 X48.7725 Y14.3997 
G01 X48.6431 Y14.2703 
G01 X48.5355 Y14.1222 
G01 X48.4524 Y13.9592 
G01 X48.3958 Y13.7851 
G01 X48.3672 Y13.6043 
G01 X48.3672 Y11.7957 
G01 X48.3958 Y11.6149 
G01 X48.4524 Y11.4408 
G01 X48.5355 Y11.2778 
G01 X48.6431 Y11.1297 
G01 X48.7725 Y11.0003 
G01 X48.9206 Y10.8927 
G01 X49.0836 Y10.8096 
G01 X49.2577 Y10.7530 
G01 X49.4385 Y10.7244 
G01 X49.6215 Y10.7244 
G01 X49.8023 Y10.7530 
G01 X49.9764 Y10.8096 
G01 X50.1394 Y10.8927 
G01 X50.2875 Y11.0003 
G01 X50.4169 Y11.1297 
G01 X50.5245 Y11.2778 
G01 X50.6076 Y11.4408 
G01 X50.6642 Y11.6149 
G01 X50.6928 Y11.7957 
G01 X50.6928 Y13.6043 
G01 X50.6642 Y13.7851 
G01 X50.6076 Y13.9592 
G01 X50.5245 Y14.1222 
G01 X50.4169 Y14.2703 
G00 Z5.0000 
G00 X47.8769 Y14.2703 
G01 Z-0.1778 F200.00 
G01 X47.7475 Y14.3997 F100.00 
G01 X47.5994 Y14.5073 
G01 X47.4364 Y14.5904 
G01 X47.2623 Y14.6470 
G01 X47.0815 Y14.6756 
G01 X46.8985 Y14.6756 
G01 X46.7177 Y14.6470 
G01 X46.5436 Y14.5904 
G01 X46.3806 Y14.5073 
G01 X46.2325 Y14.3997 
G01 X46.1031 Y14.2703 
G01 X45.9955 Y14.1222 
G01 X45.9124 Y13.9592 
G01 X45.8558 Y13.7851 
G01 X45.8272 Y13.6043 
G01 X45.8272 Y11.7957 
G01 X45.8558 Y11.6149 
G01 X45.9124 Y11.4408 
G01 X45.9955 Y11.2778 
G01 X46.1031 Y11.1297 
G01 X46.2325 Y11.0003 
G01 X46.3806 Y10.8927 
G01 X46.5436 Y10.8096 
G01 X46.7177 Y10.7530 
G01 X46.8985 Y10.7244 
G01 X47.0815 Y10.7244 
G01 X47.2623 Y10.7530 
G01 X47.4364 Y10.8096 
G01 X47.5994 Y10.8927 
G01 X47.7475 Y11.0003 
G01 X47.8769 Y11.1297 
G01 X47.9845 Y11.2778 
G01 X48.0676 Y11.4408 
G01 X48.1242 Y11.6149 
G01 X48.1528 Y11.7957 
G01 X48.1528 Y13.6043 
G01 X48.1242 Y13.7851 
G01 X48.0676 Y13.9592 
G01 X47.9845 Y14.1222 
G01 X47.8769 Y14.2703 
G00 Z5.0000 
G00 X86.2977 Y12.8917 
G01 Z-0.1778 F200.00 
G01 X86.1683 Y12.7622 F100.00 
G01 X86.0607 Y12.6142 
G01 X85.9777 Y12.4511 
G01 X85.9211 Y12.2770 
G01 X85.8925 Y12.0962 
G01 X85.8925 Y11.9132 
G01 X85.9211 Y11.7324 
G01 X85.9777 Y11.5584 
G01 X86.0607 Y11.3953 
G01 X86.1683 Y11.2472 
G01 X87.4472 Y9.9683 
G01 X87.5953 Y9.8607 
G01 X87.7584 Y9.7777 
G01 X87.9324 Y9.7211 
G01 X88.1132 Y9.6925 
G01 X88.2963 Y9.6925 
G01 X88.4770 Y9.7211 
G01 X88.6511 Y9.7777 
G01 X88.8142 Y9.8607 
G01 X88.9622 Y9.9683 
G01 X89.0917 Y10.0977 
G01 X89.1992 Y10.2458 
G01 X89.2823 Y10.4089 
G01 X89.3389 Y10.5830 
G01 X89.3675 Y10.7637 
G01 X89.3675 Y10.9468 
G01 X89.3389 Y11.1276 
G01 X89.2823 Y11.3016 
G01 X89.1992 Y11.4647 
G01 X89.0917 Y11.6128 
G01 X87.8128 Y12.8917 
G01 X87.6647 Y12.9992 
G01 X87.5016 Y13.0823 
G01 X87.3276 Y13.1389 
G01 X87.1468 Y13.1675 
G01 X86.9637 Y13.1675 
G01 X86.7830 Y13.1389 
G01 X86.6089 Y13.0823 
G01 X86.4458 Y12.9992 
G01 X86.2977 Y12.8917 
G00 Z5.0000 
G00 X87.9644 Y13.0433 
G01 Z-0.1778 F200.00 
G01 X89.2433 Y11.7644 F100.00 
G01 X89.3913 Y11.6568 
G01 X89.5544 Y11.5737 
G01 X89.7285 Y11.5171 
G01 X89.9093 Y11.4885 
G01 X90.0923 Y11.4885 
G01 X90.2731 Y11.5171 
G01 X90.4471 Y11.5737 
G01 X90.6102 Y11.6568 
G01 X90.7583 Y11.7644 
G01 X90.8877 Y11.8938 
G01 X90.9953 Y12.0419 
G01 X91.0784 Y12.2050 
G01 X91.1350 Y12.3790 
G01 X91.1636 Y12.5598 
G01 X91.1636 Y12.7428 
G01 X91.1350 Y12.9236 
G01 X91.0784 Y13.0977 
G01 X90.9953 Y13.2608 
G01 X90.8877 Y13.4088 
G01 X89.6088 Y14.6877 
G01 X89.4608 Y14.7953 
G01 X89.2977 Y14.8784 
G01 X89.1236 Y14.9350 
G01 X88.9428 Y14.9636 
G01 X88.7598 Y14.9636 
G01 X88.5790 Y14.9350 
G01 X88.4050 Y14.8784 
G01 X88.2419 Y14.7953 
G01 X88.0938 Y14.6877 
G01 X87.9644 Y14.5583 
G01 X87.8568 Y14.4102 
G01 X87.7737 Y14.2471 
G01 X87.7171 Y14.0731 
G01 X87.6885 Y13.8923 
G01 X87.6885 Y13.7093 
G01 X87.7171 Y13.5285 
G01 X87.7737 Y13.3544 
G01 X87.8568 Y13.1913 
G01 X87.9644 Y13.0433 
G00 Z5.0000 
G00 X87.2956 Y9.8167 
G01 Z-0.1778 F200.00 
G01 X86.0167 Y11.0956 F100.00 
G01 X85.8687 Y11.2032 
G01 X85.7056 Y11.2863 
G01 X85.5315 Y11.3428 
G01 X85.3507 Y11.3715 
G01 X85.1677 Y11.3715 
G01 X84.9869 Y11.3428 
G01 X84.8128 Y11.2863 
G01 X84.6498 Y11.2032 
G01 X84.5017 Y11.0956 
G01 X84.3723 Y10.9662 
G01 X84.2647 Y10.8181 
G01 X84.1816 Y10.6550 
G01 X84.1250 Y10.4810 
G01 X84.0964 Y10.3002 
G01 X84.0964 Y10.1172 
G01 X84.1250 Y9.9364 
G01 X84.1816 Y9.7623 
G01 X84.2647 Y9.5992 
G01 X84.3723 Y9.4512 
G01 X85.6512 Y8.1723 
G01 X85.7992 Y8.0647 
G01 X85.9623 Y7.9816 
G01 X86.1364 Y7.9250 
G01 X86.3172 Y7.8964 
G01 X86.5002 Y7.8964 
G01 X86.6810 Y7.9250 
G01 X86.8550 Y7.9816 
G01 X87.0181 Y8.0647 
G01 X87.1662 Y8.1723 
G01 X87.2956 Y8.3017 
G01 X87.4032 Y8.4498 
G01 X87.4863 Y8.6128 
G01 X87.5428 Y8.7869 
G01 X87.5715 Y8.9677 
G01 X87.5715 Y9.1507 
G01 X87.5428 Y9.3315 
G01 X87.4863 Y9.5056 
G01 X87.4032 Y9.6686 
G01 X87.2956 Y9.8167 
G00 Z5.0000 
G00 X89.7403 Y38.6125 
G01 Z-0.1778 F200.00 
G01 X89.8697 Y38.4831 F100.00 
G01 X90.0178 Y38.3755 
G01 X90.1808 Y38.2924 
G01 X90.3549 Y38.2358 
G01 X90.5357 Y38.2072 
G01 X92.3443 Y38.2072 
G01 X92.5251 Y38.2358 
G01 X92.6992 Y38.2924 
G01 X92.8622 Y38.3755 
G01 X93.0103 Y38.4831 
G01 X93.1397 Y38.6125 
G01 X93.2473 Y38.7606 
G01 X93.3304 Y38.9236 
G01 X93.3870 Y39.0977 
G01 X93.4156 Y39.2785 
G01 X93.4156 Y39.4615 
G01 X93.3870 Y39.6423 
G01 X93.3304 Y39.8164 
G01 X93.2473 Y39.9794 
G01 X93.1397 Y40.1275 
G01 X93.0103 Y40.2569 
G01 X92.8622 Y40.3645 
G01 X92.6992 Y40.4476 
G01 X92.5251 Y40.5042 
G01 X92.3443 Y40.5328 
G01 X90.5357 Y40.5328 
G01 X90.3549 Y40.5042 
G01 X90.1808 Y40.4476 
G01 X90.0178 Y40.3645 
G01 X89.8697 Y40.2569 
G01 X89.7403 Y40.1275 
G01 X89.6327 Y39.9794 
G01 X89.5496 Y39.8164 
G01 X89.4930 Y39.6423 
G01 X89.4644 Y39.4615 
G01 X89.4644 Y39.2785 
G01 X89.4930 Y39.0977 
G01 X89.5496 Y38.9236 
G01 X89.6327 Y38.7606 
G01 X89.7403 Y38.6125 
G00 Z5.0000 
G00 X89.7403 Y41.1525 
G01 Z-0.1778 F200.00 
G01 X89.8697 Y41.0231 F100.00 
G01 X90.0178 Y40.9155 
G01 X90.1808 Y40.8324 
G01 X90.3549 Y40.7758 
G01 X90.5357 Y40.7472 
G01 X92.3443 Y40.7472 
G01 X92.5251 Y40.7758 
G01 X92.6992 Y40.8324 
G01 X92.8622 Y40.9155 
G01 X93.0103 Y41.0231 
G01 X93.1397 Y41.1525 
G01 X93.2473 Y41.3006 
G01 X93.3304 Y41.4636 
G01 X93.3870 Y41.6377 
G01 X93.4156 Y41.8185 
G01 X93.4156 Y42.0015 
G01 X93.3870 Y42.1823 
G01 X93.3304 Y42.3564 
G01 X93.2473 Y42.5194 
G01 X93.1397 Y42.6675 
G01 X93.0103 Y42.7969 
G01 X92.8622 Y42.9045 
G01 X92.6992 Y42.9876 
G01 X92.5251 Y43.0442 
G01 X92.3443 Y43.0728 
G01 X90.5357 Y43.0728 
G01 X90.3549 Y43.0442 
G01 X90.1808 Y42.9876 
G01 X90.0178 Y42.9045 
G01 X89.8697 Y42.7969 
G01 X89.7403 Y42.6675 
G01 X89.6327 Y42.5194 
G01 X89.5496 Y42.3564 
G01 X89.4930 Y42.1823 
G01 X89.4644 Y42.0015 
G01 X89.4644 Y41.8185 
G01 X89.4930 Y41.6377 
G01 X89.5496 Y41.4636 
G01 X89.6327 Y41.3006 
G01 X89.7403 Y41.1525 
G00 Z5.0000 
G00 X89.7403 Y43.6925 
G01 Z-0.1778 F200.00 
G01 X89.8697 Y43.5631 F100.00 
G01 X90.0178 Y43.4555 
G01 X90.1808 Y43.3724 
G01 X90.3549 Y43.3158 
G01 X90.5357 Y43.2872 
G01 X92.3443 Y43.2872 
G01 X92.5251 Y43.3158 
G01 X92.6992 Y43.3724 
G01 X92.8622 Y43.4555 
G01 X93.0103 Y43.5631 
G01 X93.1397 Y43.6925 
G01 X93.2473 Y43.8406 
G01 X93.3304 Y44.0036 
G01 X93.3870 Y44.1777 
G01 X93.4156 Y44.3585 
G01 X93.4156 Y44.5415 
G01 X93.3870 Y44.7223 
G01 X93.3304 Y44.8964 
G01 X93.2473 Y45.0594 
G01 X93.1397 Y45.2075 
G01 X93.0103 Y45.3369 
G01 X92.8622 Y45.4445 
G01 X92.6992 Y45.5276 
G01 X92.5251 Y45.5842 
G01 X92.3443 Y45.6128 
G01 X90.5357 Y45.6128 
G01 X90.3549 Y45.5842 
G01 X90.1808 Y45.5276 
G01 X90.0178 Y45.4445 
G01 X89.8697 Y45.3369 
G01 X89.7403 Y45.2075 
G01 X89.6327 Y45.0594 
G01 X89.5496 Y44.8964 
G01 X89.4930 Y44.7223 
G01 X89.4644 Y44.5415 
G01 X89.4644 Y44.3585 
G01 X89.4930 Y44.1777 
G01 X89.5496 Y44.0036 
G01 X89.6327 Y43.8406 
G01 X89.7403 Y43.6925 
G00 Z5.0000 
G00 X89.7334 Y51.0160 
G01 Z-0.1778 F200.00 
G01 X90.6066 Y51.0160 F100.00 
G01 X91.2240 Y51.6334 
G01 X91.2240 Y52.5066 
G01 X90.6066 Y53.1240 
G01 X89.8983 Y53.1240 
G01 X89.4532 Y53.5691 
G01 X89.4532 Y54.0440 
G01 X89.5094 Y54.0727 
G01 X89.6575 Y54.1803 
G01 X89.7869 Y54.3097 
G01 X89.8945 Y54.4578 
G01 X89.9776 Y54.6208 
G01 X90.0342 Y54.7949 
G01 X90.0628 Y54.9757 
G01 X90.0628 Y56.7843 
G01 X90.0342 Y56.9651 
G01 X89.9776 Y57.1392 
G01 X89.8945 Y57.3022 
G01 X89.7869 Y57.4503 
G01 X89.6575 Y57.5797 
G01 X89.5094 Y57.6873 
G01 X89.3464 Y57.7704 
G01 X89.1723 Y57.8270 
G01 X88.9915 Y57.8556 
G01 X88.8085 Y57.8556 
G01 X88.6277 Y57.8270 
G01 X88.4536 Y57.7704 
G01 X88.2906 Y57.6873 
G01 X88.1425 Y57.5797 
G01 X88.0131 Y57.4503 
G01 X87.9055 Y57.3022 
G01 X87.8224 Y57.1392 
G01 X87.7658 Y56.9651 
G01 X87.7372 Y56.7843 
G01 X87.7372 Y54.9757 
G01 X87.7658 Y54.7949 
G01 X87.8224 Y54.6208 
G01 X87.9055 Y54.4578 
G01 X88.0131 Y54.3097 
G01 X88.1425 Y54.1803 
G01 X88.2906 Y54.0727 
G01 X88.3468 Y54.0440 
G01 X88.3468 Y53.2672 
G01 X88.3845 Y53.1265 
G01 X88.4573 Y53.0003 
G01 X89.1160 Y52.3417 
G01 X89.1160 Y51.6334 
G01 X89.7334 Y51.0160 
G00 Z5.0000 
G00 X86.7966 Y52.2860 
G01 Z-0.1778 F200.00 
G01 X87.4140 Y52.9034 F100.00 
G01 X87.4140 Y53.7766 
G01 X87.0554 Y54.1352 
G01 X87.1175 Y54.1803 
G01 X87.2469 Y54.3097 
G01 X87.3545 Y54.4578 
G01 X87.4376 Y54.6208 
G01 X87.4942 Y54.7949 
G01 X87.5228 Y54.9757 
G01 X87.5228 Y56.7843 
G01 X87.4942 Y56.9651 
G01 X87.4376 Y57.1392 
G01 X87.3545 Y57.3022 
G01 X87.2469 Y57.4503 
G01 X87.1175 Y57.5797 
G01 X86.9694 Y57.6873 
G01 X86.8064 Y57.7704 
G01 X86.6323 Y57.8270 
G01 X86.4515 Y57.8556 
G01 X86.2685 Y57.8556 
G01 X86.0877 Y57.8270 
G01 X85.9136 Y57.7704 
G01 X85.7506 Y57.6873 
G01 X85.6025 Y57.5797 
G01 X85.4731 Y57.4503 
G01 X85.3655 Y57.3022 
G01 X85.2824 Y57.1392 
G01 X85.2258 Y56.9651 
G01 X85.1972 Y56.7843 
G01 X85.1972 Y54.9757 
G01 X85.2258 Y54.7949 
G01 X85.2824 Y54.6208 
G01 X85.3655 Y54.4578 
G01 X85.4731 Y54.3097 
G01 X85.6025 Y54.1803 
G01 X85.6646 Y54.1352 
G01 X85.3060 Y53.7766 
G01 X85.3060 Y52.9034 
G01 X85.9234 Y52.2860 
G01 X86.7966 Y52.2860 
G00 Z5.0000 
G00 X84.5775 Y54.1803 
G01 Z-0.1778 F200.00 
G01 X84.7069 Y54.3097 F100.00 
G01 X84.8145 Y54.4578 
G01 X84.8976 Y54.6208 
G01 X84.9542 Y54.7949 
G01 X84.9828 Y54.9757 
G01 X84.9828 Y56.7843 
G01 X84.9542 Y56.9651 
G01 X84.8976 Y57.1392 
G01 X84.8145 Y57.3022 
G01 X84.7069 Y57.4503 
G01 X84.5775 Y57.5797 
G01 X84.4294 Y57.6873 
G01 X84.3732 Y57.7160 
G01 X84.3732 Y58.4928 
G01 X84.3355 Y58.6335 
G01 X84.2627 Y58.7597 
G01 X84.1597 Y58.8627 
G01 X82.8897 Y60.1327 
G01 X82.7635 Y60.2055 
G01 X82.6228 Y60.2432 
G01 X82.2174 Y60.2432 
G01 X81.7166 Y60.7440 
G01 X80.8434 Y60.7440 
G01 X80.2260 Y60.1266 
G01 X80.2260 Y59.2534 
G01 X80.8434 Y58.6360 
G01 X81.7166 Y58.6360 
G01 X82.2174 Y59.1368 
G01 X82.3209 Y59.1368 
G01 X83.2668 Y58.1909 
G01 X83.2668 Y57.7160 
G01 X83.2106 Y57.6873 
G01 X83.0625 Y57.5797 
G01 X82.9331 Y57.4503 
G01 X82.8255 Y57.3022 
G01 X82.7424 Y57.1392 
G01 X82.6858 Y56.9651 
G01 X82.6572 Y56.7843 
G01 X82.6572 Y54.9757 
G01 X82.6858 Y54.7949 
G01 X82.7424 Y54.6208 
G01 X82.8255 Y54.4578 
G01 X82.9331 Y54.3097 
G01 X83.0625 Y54.1803 
G01 X83.2106 Y54.0727 
G01 X83.3736 Y53.9896 
G01 X83.5477 Y53.9330 
G01 X83.7285 Y53.9044 
G01 X83.9115 Y53.9044 
G01 X84.0923 Y53.9330 
G01 X84.2664 Y53.9896 
G01 X84.4294 Y54.0727 
G01 X84.5775 Y54.1803 
G00 Z5.0000 
G00 X86.1683 Y64.7078 
G01 Z-0.1778 F200.00 
G01 X86.2977 Y64.5783 F100.00 
G01 X86.4458 Y64.4707 
G01 X86.6089 Y64.3877 
G01 X86.7830 Y64.3311 
G01 X86.9637 Y64.3025 
G01 X87.1468 Y64.3025 
G01 X87.3276 Y64.3311 
G01 X87.5016 Y64.3877 
G01 X87.6647 Y64.4707 
G01 X87.8128 Y64.5783 
G01 X89.0917 Y65.8572 
G01 X89.1992 Y66.0053 
G01 X89.2823 Y66.1684 
G01 X89.3389 Y66.3424 
G01 X89.3675 Y66.5232 
G01 X89.3675 Y66.7062 
G01 X89.3389 Y66.8870 
G01 X89.2823 Y67.0611 
G01 X89.1992 Y67.2242 
G01 X89.0917 Y67.3722 
G01 X88.9622 Y67.5017 
G01 X88.8142 Y67.6092 
G01 X88.6511 Y67.6923 
G01 X88.4770 Y67.7489 
G01 X88.2963 Y67.7775 
G01 X88.1132 Y67.7775 
G01 X87.9324 Y67.7489 
G01 X87.7584 Y67.6923 
G01 X87.5953 Y67.6092 
G01 X87.4472 Y67.5017 
G01 X86.1683 Y66.2228 
G01 X86.0607 Y66.0747 
G01 X85.9777 Y65.9116 
G01 X85.9211 Y65.7376 
G01 X85.8925 Y65.5568 
G01 X85.8925 Y65.3737 
G01 X85.9211 Y65.1930 
G01 X85.9777 Y65.0189 
G01 X86.0607 Y64.8558 
G01 X86.1683 Y64.7078 
G00 Z5.0000 
G00 X86.0167 Y66.3744 
G01 Z-0.1778 F200.00 
G01 X87.2956 Y67.6533 F100.00 
G01 X87.4032 Y67.8013 
G01 X87.4863 Y67.9644 
G01 X87.5428 Y68.1385 
G01 X87.5715 Y68.3193 
G01 X87.5715 Y68.5023 
G01 X87.5428 Y68.6831 
G01 X87.4863 Y68.8571 
G01 X87.4032 Y69.0202 
G01 X87.2956 Y69.1683 
G01 X87.1662 Y69.2977 
G01 X87.0181 Y69.4053 
G01 X86.8550 Y69.4884 
G01 X86.6810 Y69.5450 
G01 X86.5002 Y69.5736 
G01 X86.3172 Y69.5736 
G01 X86.1364 Y69.5450 
G01 X85.9623 Y69.4884 
G01 X85.7992 Y69.4053 
G01 X85.6512 Y69.2977 
G01 X84.3723 Y68.0188 
G01 X84.2647 Y67.8708 
G01 X84.1816 Y67.7077 
G01 X84.1250 Y67.5336 
G01 X84.0964 Y67.3528 
G01 X84.0964 Y67.1698 
G01 X84.1250 Y66.9890 
G01 X84.1816 Y66.8150 
G01 X84.2647 Y66.6519 
G01 X84.3723 Y66.5038 
G01 X84.5017 Y66.3744 
G01 X84.6498 Y66.2668 
G01 X84.8128 Y66.1837 
G01 X84.9869 Y66.1271 
G01 X85.1677 Y66.0985 
G01 X85.3507 Y66.0985 
G01 X85.5315 Y66.1271 
G01 X85.7056 Y66.1837 
G01 X85.8687 Y66.2668 
G01 X86.0167 Y66.3744 
G00 Z5.0000 
G00 Z4.999990
G00 X81.2800 Y59.6900 
G01 Z-0.2794 F508.00 
G01 Z4.999990
(R5.0000  P1.000000)
G00 X58.4200 Y64.7700 
G01 Z-1.599997
G01 Z4.999990
G00 X58.4200 Y38.1000 
G01 Z-1.599997
G01 Z4.999990
G00 X5.0800 Y40.6400 
G01 Z-1.599997
G01 Z4.999990
G00 X7.6200 Y7.6200 
G01 Z-1.599997
G01 Z4.999990
G00 X91.4400 Y69.8500 
G01 Z-1.599997
G01 Z4.999990
G00 X54.6100 Y10.1600 
G01 Z-1.599997
G01 Z4.999990
G00 X8.8900 Y69.8500 
G01 Z-1.599997
G01 Z4.999990
G00 X49.5300 Y76.2000 
G01 Z-1.599997
G01 Z4.999990
G00 X82.5500 Y46.9900 
G01 Z-1.599997
G01 Z4.999990
G00 X81.2800 Y35.5600 
G01 Z-1.599997
G01 Z4.999990
G00 X81.2800 Y55.8800 
G01 Z-1.599997
G01 Z4.999990
G00 X66.0400 Y33.0200 
G01 Z-1.599997
G01 Z4.999990
G00 X64.7700 Y27.9400 
G01 Z-1.599997
G01 Z4.999990
G00 X66.0400 Y22.8600 
G01 Z-1.599997
G01 Z4.999990
G00 X66.0400 Y17.7800 
G01 Z-1.599997
G01 Z4.999990
G00 X90.1700 Y52.0700 
G01 Z-1.599997
G01 Z4.999990
G00 X31.7500 Y68.5800 
G01 Z-1.599997
G01 Z4.999990
G00 X39.3700 Y71.1200 
G01 Z-1.599997
G01 Z4.999990
G00 X86.3600 Y53.3400 
G01 Z-1.599997
G01 Z4.999990
G00 X45.7200 Y66.0400 
G01 Z-1.599997
G01 Z4.999990
G00 X72.3900 Y77.4700 
G01 Z-1.599997
G01 Z4.999990
G00 X71.1200 Y63.5000 
G01 Z-1.599997
G01 Z4.999990
G00 X16.5100 Y68.5800 
G01 Z-1.599997
G01 Z4.999990
G00 X59.6900 Y71.1200 
G01 Z-1.599997
G01 Z4.999990
G00 X62.2300 Y71.1200 
G01 Z-1.599997
G01 Z4.999990
G00 X64.7700 Y71.1200 
G01 Z-1.599997
G01 Z4.999990
G00 X67.3100 Y71.1200 
G01 Z-1.599997
G01 Z4.999990
G00 X69.8500 Y71.1200 
G01 Z-1.599997
G01 Z4.999990
G00 X72.3900 Y71.1200 
G01 Z-1.599997
G01 Z4.999990
G00 X46.9900 Y69.8500 
G01 Z-1.599997
G01 Z4.999990
G00 X49.5300 Y69.8500 
G01 Z-1.599997
G01 Z4.999990
G00 X52.0700 Y69.8500 
G01 Z-1.599997
G01 Z4.999990
G00 X9.6339 Y64.2439 
G01 Z-1.599997
G01 Z4.999990
G00 X11.4300 Y66.0400 
G01 Z-1.599997
G01 Z4.999990
G00 X13.2261 Y67.8361 
G01 Z-1.599997
G01 Z4.999990
G00 X89.4261 Y64.2439 
G01 Z-1.599997
G01 Z4.999990
G00 X87.6300 Y66.0400 
G01 Z-1.599997
G01 Z4.999990
G00 X85.8339 Y67.8361 
G01 Z-1.599997
G01 Z4.999990
G00 X20.3200 Y66.0400 
G01 Z-1.599997
G01 Z4.999990
G00 X20.3200 Y68.5800 
G01 Z-1.599997
G01 Z4.999990
G00 X20.3200 Y71.1200 
G01 Z-1.599997
G01 Z4.999990
G00 X20.3200 Y73.6600 
G01 Z-1.599997
G01 Z4.999990
G00 X27.9400 Y66.0400 
G01 Z-1.599997
G01 Z4.999990
G00 X27.9400 Y68.5800 
G01 Z-1.599997
G01 Z4.999990
G00 X27.9400 Y71.1200 
G01 Z-1.599997
G01 Z4.999990
G00 X27.9400 Y73.6600 
G01 Z-1.599997
G01 Z4.999990
G00 X35.5600 Y66.0400 
G01 Z-1.599997
G01 Z4.999990
G00 X35.5600 Y68.5800 
G01 Z-1.599997
G01 Z4.999990
G00 X35.5600 Y71.1200 
G01 Z-1.599997
G01 Z4.999990
G00 X35.5600 Y73.6600 
G01 Z-1.599997
G01 Z4.999990
G00 X71.1200 Y60.9600 
G01 Z-1.599997
G01 Z4.999990
G00 X73.6600 Y60.9600 
G01 Z-1.599997
G01 Z4.999990
G00 X71.1200 Y58.4200 
G01 Z-1.599997
G01 Z4.999990
G00 X73.6600 Y58.4200 
G01 Z-1.599997
G01 Z4.999990
G00 X71.1200 Y55.8800 
G01 Z-1.599997
G01 Z4.999990
G00 X73.6600 Y55.8800 
G01 Z-1.599997
G01 Z4.999990
G00 X71.1200 Y53.3400 
G01 Z-1.599997
G01 Z4.999990
G00 X73.6600 Y53.3400 
G01 Z-1.599997
G01 Z4.999990
G00 X71.1200 Y50.8000 
G01 Z-1.599997
G01 Z4.999990
G00 X73.6600 Y50.8000 
G01 Z-1.599997
G01 Z4.999990
G00 X71.1200 Y48.2600 
G01 Z-1.599997
G01 Z4.999990
G00 X73.6600 Y48.2600 
G01 Z-1.599997
G01 Z4.999990
G00 X71.1200 Y45.7200 
G01 Z-1.599997
G01 Z4.999990
G00 X73.6600 Y45.7200 
G01 Z-1.599997
G01 Z4.999990
G00 X71.1200 Y43.1800 
G01 Z-1.599997
G01 Z4.999990
G00 X73.6600 Y43.1800 
G01 Z-1.599997
G01 Z4.999990
G00 X71.1200 Y40.6400 
G01 Z-1.599997
G01 Z4.999990
G00 X73.6600 Y40.6400 
G01 Z-1.599997
G01 Z4.999990
G00 X71.1200 Y38.1000 
G01 Z-1.599997
G01 Z4.999990
G00 X73.6600 Y38.1000 
G01 Z-1.599997
G01 Z4.999990
G00 X71.1200 Y35.5600 
G01 Z-1.599997
G01 Z4.999990
G00 X73.6600 Y35.5600 
G01 Z-1.599997
G01 Z4.999990
G00 X71.1200 Y33.0200 
G01 Z-1.599997
G01 Z4.999990
G00 X73.6600 Y33.0200 
G01 Z-1.599997
G01 Z4.999990
G00 X71.1200 Y30.4800 
G01 Z-1.599997
G01 Z4.999990
G00 X73.6600 Y30.4800 
G01 Z-1.599997
G01 Z4.999990
G00 X71.1200 Y27.9400 
G01 Z-1.599997
G01 Z4.999990
G00 X73.6600 Y27.9400 
G01 Z-1.599997
G01 Z4.999990
G00 X71.1200 Y25.4000 
G01 Z-1.599997
G01 Z4.999990
G00 X73.6600 Y25.4000 
G01 Z-1.599997
G01 Z4.999990
G00 X71.1200 Y22.8600 
G01 Z-1.599997
G01 Z4.999990
G00 X73.6600 Y22.8600 
G01 Z-1.599997
G01 Z4.999990
G00 X71.1200 Y20.3200 
G01 Z-1.599997
G01 Z4.999990
G00 X73.6600 Y20.3200 
G01 Z-1.599997
G01 Z4.999990
G00 X71.1200 Y17.7800 
G01 Z-1.599997
G01 Z4.999990
G00 X73.6600 Y17.7800 
G01 Z-1.599997
G01 Z4.999990
G00 X71.1200 Y15.2400 
G01 Z-1.599997
G01 Z4.999990
G00 X73.6600 Y15.2400 
G01 Z-1.599997
G01 Z4.999990
G00 X71.1200 Y12.7000 
G01 Z-1.599997
G01 Z4.999990
G00 X73.6600 Y12.7000 
G01 Z-1.599997
G01 Z4.999990
G00 X54.6100 Y22.8600 
G01 Z-1.599997
G01 Z4.999990
G00 X57.1500 Y22.8600 
G01 Z-1.599997
G01 Z4.999990
G00 X59.6900 Y22.8600 
G01 Z-1.599997
G01 Z4.999990
G00 X54.6100 Y17.7800 
G01 Z-1.599997
G01 Z4.999990
G00 X57.1500 Y17.7800 
G01 Z-1.599997
G01 Z4.999990
G00 X59.6900 Y17.7800 
G01 Z-1.599997
G01 Z4.999990
G00 X54.6100 Y33.0200 
G01 Z-1.599997
G01 Z4.999990
G00 X57.1500 Y33.0200 
G01 Z-1.599997
G01 Z4.999990
G00 X59.6900 Y33.0200 
G01 Z-1.599997
G01 Z4.999990
G00 X54.6100 Y27.9400 
G01 Z-1.599997
G01 Z4.999990
G00 X57.1500 Y27.9400 
G01 Z-1.599997
G01 Z4.999990
G00 X59.6900 Y27.9400 
G01 Z-1.599997
G01 Z4.999990
G00 X83.8200 Y55.8800 
G01 Z-1.599997
G01 Z4.999990
G00 X86.3600 Y55.8800 
G01 Z-1.599997
G01 Z4.999990
G00 X88.9000 Y55.8800 
G01 Z-1.599997
G01 Z4.999990
G00 X91.4400 Y55.8800 
G01 Z-1.599997
G01 Z4.999990
G00 X10.1600 Y38.1000 
G01 Z-1.599997
G01 Z4.999990
G00 X10.1600 Y40.6400 
G01 Z-1.599997
G01 Z4.999990
G00 X10.1600 Y43.1800 
G01 Z-1.599997
G01 Z4.999990
G00 X52.0700 Y12.7000 
G01 Z-1.599997
G01 Z4.999990
G00 X49.5300 Y12.7000 
G01 Z-1.599997
G01 Z4.999990
G00 X46.9900 Y12.7000 
G01 Z-1.599997
G01 Z4.999990
G00 X13.2261 Y9.6339 
G01 Z-1.599997
G01 Z4.999990
G00 X11.4300 Y11.4300 
G01 Z-1.599997
G01 Z4.999990
G00 X9.6339 Y13.2261 
G01 Z-1.599997
G01 Z4.999990
G00 X85.8339 Y9.6339 
G01 Z-1.599997
G01 Z4.999990
G00 X87.6300 Y11.4300 
G01 Z-1.599997
G01 Z4.999990
G00 X89.4261 Y13.2261 
G01 Z-1.599997
G01 Z4.999990
G00 X91.4400 Y39.3700 
G01 Z-1.599997
G01 Z4.999990
G00 X91.4400 Y41.9100 
G01 Z-1.599997
G01 Z4.999990
G00 X91.4400 Y44.4500 
G01 Z-1.599997
G01 Z4.999990
G00 Z10.0000 
M05
M02
