(.../Tools/pcb/gcode/pcb-gcode.ulp)
(Copyright 2005 - 2012 by John Johnson)
(See readme.txt for licensing terms.)
(This file generated from the board:)
(.../BaseProximity/BaseProximity.brd)
(Current profile is .../pcb/gcode/profiles/generic.pp  )
(This file generated 3/19/2017 17:30)
(Settings from pcb-machine.h)
(spindle on time = 3.0000)
(  Tool Size)
(0.1000 )
(spindle speed = 30000.0000)
(tool change at 0.0000 0.0000 25.4000 )
(feed rate xy = F508.00 )
(feed rate z  = F254.00 )
(Z Axis Settings)
(  High     Up        Down     Drill)
(12.7000 	2.5400 	-0.1778 	-0.8128 )
(Settings from pcb-defaults.h)
(isolate min = 0.0254)
(isolate max = 0.5080)
(isolate step = 0.1270)
(Generated top outlines, top drill, bottom outlines, bottom drill, )
(Unit of measure: mm)
(Metric Mode)
G21
(Absolute Coordinates)
G90
S30000
G00 Z12.7000 
G00 X0.0000 Y0.0000 
M03
G04 P3.000000
G00 Z2.5400 
G00 X1.0471 Y1.0989 
G01 Z-0.1778 F254.00 
G01 X1.0104 Y1.1625 F508.00 
G01 X0.9914 Y1.2333 
G01 X0.9914 Y59.4779 
G01 X1.0104 Y59.5487 
G01 X1.0471 Y59.6123 
G01 X1.0989 Y59.6641 
G01 X1.1625 Y59.7008 
G01 X1.2333 Y59.7198 
G01 X79.4045 Y59.7198 
G01 X79.4779 Y59.7198 
G01 X79.5487 Y59.7008 
G01 X79.6123 Y59.6641 
G01 X79.6641 Y59.6123 
G01 X79.7008 Y59.5487 
G01 X79.7198 Y59.4779 
G01 X79.7198 Y1.2333 
G01 X79.7008 Y1.1625 
G01 X79.6641 Y1.0989 
G01 X79.6123 Y1.0471 
G01 X79.5487 Y1.0104 
G01 X79.4779 Y0.9914 
G01 X1.2333 Y0.9914 
G01 X1.1625 Y1.0104 
G01 X1.0989 Y1.0471 
G01 X1.0471 Y1.0989 
G00 Z2.5400 
G00 X3.4176 Y6.7308 
G01 Z-0.1778 F254.00 
G01 X3.7820 Y6.5799 F508.00 
G01 X4.1764 Y6.5799 
G01 X4.5408 Y6.7308 
G01 X5.9691 Y8.1592 
G01 X6.1201 Y8.5236 
G01 X6.1201 Y8.9180 
G01 X5.9691 Y9.2824 
G01 X5.6903 Y9.5613 
G01 X5.3259 Y9.7122 
G01 X4.9315 Y9.7122 
G01 X4.5671 Y9.5613 
G01 X3.1387 Y8.1329 
G01 X2.9878 Y7.7685 
G01 X2.9878 Y7.3741 
G01 X3.1387 Y7.0097 
G01 X3.4176 Y6.7308 
G00 Z2.5400 
G00 X3.4130 Y6.8814 
G01 Z-0.1778 F254.00 
G01 X3.2893 Y7.0051 F508.00 
G01 X3.1921 Y7.1506 
G01 X3.1251 Y7.3122 
G01 X3.0910 Y7.4838 
G01 X3.0910 Y7.6588 
G01 X3.1251 Y7.8304 
G01 X3.1921 Y7.9920 
G01 X3.2893 Y8.1375 
G01 X4.5625 Y9.4107 
G01 X4.7080 Y9.5079 
G01 X4.8696 Y9.5748 
G01 X5.0412 Y9.6090 
G01 X5.2162 Y9.6090 
G01 X5.3878 Y9.5748 
G01 X5.5494 Y9.5079 
G01 X5.6949 Y9.4107 
G01 X5.8186 Y9.2870 
G01 X5.9158 Y9.1415 
G01 X5.9827 Y8.9799 
G01 X6.0169 Y8.8083 
G01 X6.0169 Y8.6333 
G01 X5.9827 Y8.4617 
G01 X5.9158 Y8.3001 
G01 X5.8186 Y8.1546 
G01 X4.5454 Y6.8814 
G01 X4.3999 Y6.7842 
G01 X4.2383 Y6.7172 
G01 X4.0667 Y6.6831 
G01 X3.8917 Y6.6831 
G01 X3.7201 Y6.7172 
G01 X3.5585 Y6.7842 
G01 X3.4130 Y6.8814 
G00 Z2.5400 
G00 X4.9348 Y6.3368 
G01 Z-0.1778 F254.00 
G01 X4.7839 Y5.9725 F508.00 
G01 X4.7839 Y5.5781 
G01 X4.9348 Y5.2137 
G01 X5.2137 Y4.9348 
G01 X5.5781 Y4.7839 
G01 X5.9725 Y4.7839 
G01 X6.3368 Y4.9348 
G01 X7.7652 Y6.3632 
G01 X7.9161 Y6.7275 
G01 X7.9161 Y7.1219 
G01 X7.7652 Y7.4863 
G01 X7.4863 Y7.7652 
G01 X7.1219 Y7.9161 
G01 X6.7275 Y7.9161 
G01 X6.3632 Y7.7652 
G01 X4.9348 Y6.3368 
G00 Z2.5400 
G00 X5.0854 Y6.3415 
G01 Z-0.1778 F254.00 
G01 X6.3585 Y7.6146 F508.00 
G01 X6.5040 Y7.7118 
G01 X6.6657 Y7.7788 
G01 X6.8373 Y7.8129 
G01 X7.0122 Y7.8129 
G01 X7.1838 Y7.7788 
G01 X7.3455 Y7.7118 
G01 X7.4909 Y7.6146 
G01 X7.6146 Y7.4909 
G01 X7.7118 Y7.3455 
G01 X7.7788 Y7.1838 
G01 X7.8129 Y7.0122 
G01 X7.8129 Y6.8373 
G01 X7.7788 Y6.6657 
G01 X7.7118 Y6.5040 
G01 X7.6146 Y6.3585 
G01 X6.3415 Y5.0854 
G01 X6.1960 Y4.9882 
G01 X6.0343 Y4.9212 
G01 X5.8627 Y4.8871 
G01 X5.6878 Y4.8871 
G01 X5.5162 Y4.9212 
G01 X5.3545 Y4.9882 
G01 X5.2091 Y5.0854 
G01 X5.0854 Y5.2091 
G01 X4.9882 Y5.3545 
G01 X4.9212 Y5.5162 
G01 X4.8871 Y5.6878 
G01 X4.8871 Y5.8627 
G01 X4.9212 Y6.0343 
G01 X4.9882 Y6.1960 
G01 X5.0854 Y6.3415 
G00 Z2.5400 
G00 X6.7308 Y4.5408 
G01 Z-0.1778 F254.00 
G01 X6.5799 Y4.1764 F508.00 
G01 X6.5799 Y3.7820 
G01 X6.7308 Y3.4176 
G01 X7.0097 Y3.1387 
G01 X7.3741 Y2.9878 
G01 X7.7685 Y2.9878 
G01 X8.1329 Y3.1387 
G01 X9.5613 Y4.5671 
G01 X9.7122 Y4.9315 
G01 X9.7122 Y5.3259 
G01 X9.5613 Y5.6903 
G01 X9.2824 Y5.9691 
G01 X8.9180 Y6.1201 
G01 X8.5236 Y6.1201 
G01 X8.1592 Y5.9691 
G01 X6.7308 Y4.5408 
G00 Z2.5400 
G00 X6.8814 Y4.5454 
G01 Z-0.1778 F254.00 
G01 X8.1546 Y5.8186 F508.00 
G01 X8.3001 Y5.9158 
G01 X8.4617 Y5.9827 
G01 X8.6333 Y6.0169 
G01 X8.8083 Y6.0169 
G01 X8.9799 Y5.9827 
G01 X9.1415 Y5.9158 
G01 X9.2870 Y5.8186 
G01 X9.4107 Y5.6949 
G01 X9.5079 Y5.5494 
G01 X9.5748 Y5.3878 
G01 X9.6090 Y5.2162 
G01 X9.6090 Y5.0412 
G01 X9.5748 Y4.8696 
G01 X9.5079 Y4.7080 
G01 X9.4107 Y4.5625 
G01 X8.1375 Y3.2893 
G01 X7.9920 Y3.1921 
G01 X7.8304 Y3.1251 
G01 X7.6588 Y3.0910 
G01 X7.4838 Y3.0910 
G01 X7.3122 Y3.1251 
G01 X7.1506 Y3.1921 
G01 X7.0051 Y3.2893 
G01 X6.8814 Y3.4130 
G01 X6.7842 Y3.5585 
G01 X6.7172 Y3.7201 
G01 X6.6831 Y3.8917 
G01 X6.6831 Y4.0667 
G01 X6.7172 Y4.2383 
G01 X6.7842 Y4.3999 
G01 X6.8814 Y4.5454 
G00 Z2.5400 
G00 X10.6974 Y4.7765 
G01 Z-0.1778 F254.00 
G01 X11.1265 Y4.3474 F508.00 
G01 X11.7334 Y4.3474 
G01 X11.9767 Y4.5907 
G01 X12.0286 Y4.6425 
G01 X12.0921 Y4.6792 
G01 X12.1630 Y4.6982 
G01 X14.0459 Y4.6982 
G01 X14.1863 Y4.7563 
G01 X16.5606 Y7.1307 
G01 X16.6125 Y7.1825 
G01 X16.6760 Y7.2192 
G01 X16.7469 Y7.2382 
G01 X36.7674 Y7.2382 
G01 X36.8383 Y7.2192 
G01 X36.9018 Y7.1825 
G01 X36.9529 Y7.1315 
G01 X36.9904 Y7.0671 
G01 X37.0093 Y6.9963 
G01 X37.0093 Y6.9229 
G01 X36.9904 Y6.8521 
G01 X36.9537 Y6.7885 
G01 X36.9018 Y6.7367 
G01 X36.6195 Y6.4544 
G01 X36.4686 Y6.0900 
G01 X36.4686 Y4.0700 
G01 X36.6195 Y3.7056 
G01 X36.8984 Y3.4267 
G01 X37.2628 Y3.2758 
G01 X37.6572 Y3.2758 
G01 X38.0216 Y3.4267 
G01 X38.3005 Y3.7056 
G01 X38.4514 Y4.0700 
G01 X38.4514 Y6.0900 
G01 X38.3005 Y6.4544 
G01 X38.0182 Y6.7367 
G01 X37.9663 Y6.7885 
G01 X37.9296 Y6.8521 
G01 X37.9106 Y6.9229 
G01 X37.9106 Y6.9963 
G01 X37.9296 Y7.0671 
G01 X37.9663 Y7.1307 
G01 X38.0182 Y7.1825 
G01 X38.0817 Y7.2192 
G01 X38.1526 Y7.2382 
G01 X39.3074 Y7.2382 
G01 X39.3783 Y7.2192 
G01 X39.4418 Y7.1825 
G01 X39.4929 Y7.1315 
G01 X39.5304 Y7.0671 
G01 X39.5493 Y6.9963 
G01 X39.5493 Y6.9229 
G01 X39.5304 Y6.8521 
G01 X39.4937 Y6.7885 
G01 X39.4418 Y6.7367 
G01 X39.1595 Y6.4544 
G01 X39.0086 Y6.0900 
G01 X39.0086 Y4.0700 
G01 X39.1595 Y3.7056 
G01 X39.4384 Y3.4267 
G01 X39.8028 Y3.2758 
G01 X40.1972 Y3.2758 
G01 X40.5616 Y3.4267 
G01 X40.8405 Y3.7056 
G01 X40.9914 Y4.0700 
G01 X40.9914 Y6.0900 
G01 X40.8405 Y6.4544 
G01 X40.5582 Y6.7367 
G01 X40.5063 Y6.7885 
G01 X40.4696 Y6.8521 
G01 X40.4506 Y6.9229 
G01 X40.4506 Y6.9963 
G01 X40.4696 Y7.0671 
G01 X40.5063 Y7.1307 
G01 X40.5582 Y7.1825 
G01 X40.6217 Y7.2192 
G01 X40.6926 Y7.2382 
G01 X41.8474 Y7.2382 
G01 X41.9183 Y7.2192 
G01 X41.9818 Y7.1825 
G01 X42.0329 Y7.1315 
G01 X42.0704 Y7.0671 
G01 X42.0894 Y6.9963 
G01 X42.0894 Y6.9229 
G01 X42.0704 Y6.8521 
G01 X42.0337 Y6.7885 
G01 X41.9818 Y6.7367 
G01 X41.6995 Y6.4544 
G01 X41.5486 Y6.0900 
G01 X41.5486 Y4.0700 
G01 X41.6995 Y3.7056 
G01 X41.9784 Y3.4267 
G01 X42.3428 Y3.2758 
G01 X42.7372 Y3.2758 
G01 X43.1016 Y3.4267 
G01 X43.3805 Y3.7056 
G01 X43.5314 Y4.0700 
G01 X43.5314 Y6.0900 
G01 X43.3805 Y6.4544 
G01 X43.0982 Y6.7367 
G01 X43.0463 Y6.7885 
G01 X43.0096 Y6.8521 
G01 X42.9906 Y6.9229 
G01 X42.9906 Y6.9963 
G01 X43.0096 Y7.0671 
G01 X43.0463 Y7.1307 
G01 X43.0982 Y7.1825 
G01 X43.1617 Y7.2192 
G01 X43.2326 Y7.2382 
G01 X44.2131 Y7.2382 
G01 X44.2840 Y7.2192 
G01 X44.3475 Y7.1825 
G01 X45.2307 Y6.2994 
G01 X45.2825 Y6.2475 
G01 X45.3192 Y6.1840 
G01 X45.3382 Y6.1131 
G01 X45.3382 Y3.7340 
G01 X45.3963 Y3.5937 
G01 X45.5170 Y3.4731 
G01 X46.6012 Y2.3889 
G01 X46.6531 Y2.3370 
G01 X46.7737 Y2.2163 
G01 X46.9141 Y2.1582 
G01 X67.3859 Y2.1582 
G01 X67.5263 Y2.2163 
G01 X68.7311 Y3.4212 
G01 X68.7830 Y3.4731 
G01 X68.9037 Y3.5937 
G01 X68.9618 Y3.7340 
G01 X68.9618 Y7.6959 
G01 X68.9037 Y7.8363 
G01 X67.6988 Y9.0411 
G01 X67.5263 Y9.2137 
G01 X67.3859 Y9.2718 
G01 X66.3690 Y9.2718 
G01 X66.2981 Y9.2908 
G01 X66.2346 Y9.3275 
G01 X65.6806 Y9.8814 
G01 X64.8594 Y9.8814 
G01 X64.2786 Y9.3006 
G01 X64.2786 Y8.4794 
G01 X64.8594 Y7.8986 
G01 X65.6806 Y7.8986 
G01 X66.1827 Y8.4007 
G01 X66.2346 Y8.4525 
G01 X66.2981 Y8.4892 
G01 X66.3690 Y8.5082 
G01 X67.0731 Y8.5082 
G01 X67.1440 Y8.4892 
G01 X67.2075 Y8.4525 
G01 X68.0907 Y7.5694 
G01 X68.1425 Y7.5175 
G01 X68.1792 Y7.4540 
G01 X68.1982 Y7.3831 
G01 X68.1982 Y4.0469 
G01 X68.1792 Y3.9760 
G01 X68.1425 Y3.9125 
G01 X67.2594 Y3.0293 
G01 X67.2075 Y2.9775 
G01 X67.1440 Y2.9408 
G01 X67.0731 Y2.9218 
G01 X65.0422 Y2.9218 
G01 X65.0240 Y2.9194 
G01 X65.0057 Y2.9218 
G01 X64.9873 Y2.9218 
G01 X64.9695 Y2.9266 
G01 X64.9513 Y2.9290 
G01 X64.9342 Y2.9360 
G01 X64.9164 Y2.9408 
G01 X64.9005 Y2.9500 
G01 X64.8835 Y2.9570 
G01 X64.8689 Y2.9682 
G01 X64.8529 Y2.9775 
G01 X64.8399 Y2.9905 
G01 X64.8253 Y3.0017 
G01 X64.8141 Y3.0163 
G01 X64.8011 Y3.0293 
G01 X64.7918 Y3.0453 
G01 X64.7806 Y3.0599 
G01 X64.7736 Y3.0769 
G01 X64.7644 Y3.0929 
G01 X64.7596 Y3.1107 
G01 X64.7526 Y3.1277 
G01 X64.7502 Y3.1459 
G01 X64.7454 Y3.1637 
G01 X64.7454 Y3.1821 
G01 X64.7430 Y3.2004 
G01 X64.7454 Y3.2187 
G01 X64.7454 Y3.2371 
G01 X64.7502 Y3.2549 
G01 X64.7526 Y3.2731 
G01 X64.7596 Y3.2901 
G01 X64.7644 Y3.3079 
G01 X64.7736 Y3.3239 
G01 X64.7806 Y3.3409 
G01 X64.7918 Y3.3555 
G01 X64.8011 Y3.3715 
G01 X64.8141 Y3.3845 
G01 X64.8253 Y3.3991 
G01 X64.8399 Y3.4103 
G01 X64.8529 Y3.4233 
G01 X64.8689 Y3.4325 
G01 X64.8835 Y3.4438 
G01 X64.9005 Y3.4508 
G01 X64.9164 Y3.4600 
G01 X64.9342 Y3.4648 
G01 X64.9863 Y3.4863 
G01 X66.1911 Y4.6912 
G01 X66.3637 Y4.8637 
G01 X66.4218 Y5.0041 
G01 X66.4218 Y5.6559 
G01 X66.3637 Y5.7963 
G01 X66.3171 Y5.8429 
G01 X66.2804 Y5.9064 
G01 X66.2614 Y5.9773 
G01 X66.2614 Y6.7606 
G01 X65.6806 Y7.3414 
G01 X64.8594 Y7.3414 
G01 X64.2786 Y6.7606 
G01 X64.2786 Y5.9394 
G01 X64.8594 Y5.3586 
G01 X65.1427 Y5.3586 
G01 X65.2136 Y5.3396 
G01 X65.2771 Y5.3029 
G01 X65.3282 Y5.2519 
G01 X65.3657 Y5.1875 
G01 X65.3847 Y5.1167 
G01 X65.3847 Y5.0433 
G01 X65.3657 Y4.9725 
G01 X65.3290 Y4.9089 
G01 X65.2771 Y4.8571 
G01 X64.7194 Y4.2993 
G01 X64.6675 Y4.2475 
G01 X64.6040 Y4.2108 
G01 X64.5331 Y4.1918 
G01 X57.3869 Y4.1918 
G01 X57.3160 Y4.2108 
G01 X57.2525 Y4.2475 
G01 X56.0963 Y5.4037 
G01 X55.9559 Y5.4618 
G01 X55.3430 Y5.4618 
G01 X55.2721 Y5.4808 
G01 X55.2086 Y5.5175 
G01 X54.9134 Y5.8126 
G01 X54.3065 Y5.8126 
G01 X53.8774 Y5.3834 
G01 X53.8774 Y4.7765 
G01 X54.3065 Y4.3474 
G01 X54.9134 Y4.3474 
G01 X55.1567 Y4.5907 
G01 X55.2086 Y4.6425 
G01 X55.2721 Y4.6792 
G01 X55.3430 Y4.6982 
G01 X55.6431 Y4.6982 
G01 X55.7140 Y4.6792 
G01 X55.7775 Y4.6425 
G01 X56.7612 Y3.6588 
G01 X56.9337 Y3.4863 
G01 X56.9858 Y3.4648 
G01 X57.0035 Y3.4600 
G01 X57.0195 Y3.4508 
G01 X57.0365 Y3.4438 
G01 X57.0511 Y3.4325 
G01 X57.0671 Y3.4233 
G01 X57.0801 Y3.4103 
G01 X57.0947 Y3.3991 
G01 X57.1059 Y3.3845 
G01 X57.1189 Y3.3715 
G01 X57.1281 Y3.3555 
G01 X57.1394 Y3.3409 
G01 X57.1464 Y3.3239 
G01 X57.1556 Y3.3079 
G01 X57.1604 Y3.2901 
G01 X57.1674 Y3.2731 
G01 X57.1698 Y3.2549 
G01 X57.1746 Y3.2371 
G01 X57.1746 Y3.2187 
G01 X57.1770 Y3.2004 
G01 X57.1746 Y3.1821 
G01 X57.1746 Y3.1637 
G01 X57.1698 Y3.1459 
G01 X57.1674 Y3.1277 
G01 X57.1604 Y3.1106 
G01 X57.1556 Y3.0929 
G01 X57.1464 Y3.0769 
G01 X57.1394 Y3.0599 
G01 X57.1282 Y3.0453 
G01 X57.1189 Y3.0293 
G01 X57.1059 Y3.0163 
G01 X57.0947 Y3.0017 
G01 X57.0801 Y2.9905 
G01 X57.0671 Y2.9775 
G01 X57.0511 Y2.9683 
G01 X57.0365 Y2.9570 
G01 X57.0195 Y2.9500 
G01 X57.0035 Y2.9408 
G01 X56.9858 Y2.9360 
G01 X56.9687 Y2.9290 
G01 X56.9505 Y2.9266 
G01 X56.9327 Y2.9218 
G01 X56.9143 Y2.9218 
G01 X56.8960 Y2.9194 
G01 X56.8777 Y2.9218 
G01 X47.2269 Y2.9218 
G01 X47.1560 Y2.9408 
G01 X47.0925 Y2.9775 
G01 X46.2093 Y3.8606 
G01 X46.1575 Y3.9125 
G01 X46.1208 Y3.9760 
G01 X46.1018 Y4.0469 
G01 X46.1018 Y6.4259 
G01 X46.0437 Y6.5663 
G01 X45.9230 Y6.6869 
G01 X45.3399 Y7.2701 
G01 X45.2880 Y7.3219 
G01 X45.2513 Y7.3855 
G01 X45.2323 Y7.4563 
G01 X45.2323 Y7.5297 
G01 X45.2513 Y7.6005 
G01 X45.2880 Y7.6641 
G01 X45.3399 Y7.7159 
G01 X45.4034 Y7.7526 
G01 X45.4743 Y7.7716 
G01 X45.9425 Y7.7716 
G01 X46.3535 Y7.9419 
G01 X46.6681 Y8.2565 
G01 X46.8384 Y8.6675 
G01 X46.8384 Y8.8401 
G01 X46.8360 Y8.8583 
G01 X46.8384 Y8.8766 
G01 X46.8384 Y8.8950 
G01 X46.8432 Y8.9128 
G01 X46.8456 Y8.9311 
G01 X46.8526 Y8.9481 
G01 X46.8574 Y8.9659 
G01 X46.8666 Y8.9818 
G01 X46.8736 Y8.9988 
G01 X46.8849 Y9.0134 
G01 X46.8941 Y9.0294 
G01 X46.9071 Y9.0424 
G01 X46.9183 Y9.0570 
G01 X46.9329 Y9.0682 
G01 X46.9459 Y9.0813 
G01 X46.9619 Y9.0905 
G01 X46.9765 Y9.1017 
G01 X46.9935 Y9.1087 
G01 X47.0095 Y9.1179 
G01 X47.0273 Y9.1227 
G01 X47.0443 Y9.1297 
G01 X47.0625 Y9.1322 
G01 X47.0803 Y9.1369 
G01 X47.0987 Y9.1369 
G01 X47.1170 Y9.1393 
G01 X47.1353 Y9.1369 
G01 X47.1537 Y9.1369 
G01 X47.1715 Y9.1321 
G01 X47.1897 Y9.1297 
G01 X47.2067 Y9.1227 
G01 X47.2245 Y9.1179 
G01 X47.2405 Y9.1087 
G01 X47.4025 Y9.0416 
G01 X47.8475 Y9.0416 
G01 X48.2585 Y9.2119 
G01 X48.5731 Y9.5265 
G01 X48.7434 Y9.9375 
G01 X48.7434 Y10.3825 
G01 X48.5731 Y10.7935 
G01 X48.2585 Y11.1081 
G01 X47.8475 Y11.2784 
G01 X47.4025 Y11.2784 
G01 X47.2405 Y11.2113 
G01 X47.2245 Y11.2021 
G01 X47.2067 Y11.1973 
G01 X47.1897 Y11.1902 
G01 X47.1715 Y11.1878 
G01 X47.1537 Y11.1831 
G01 X47.1352 Y11.1831 
G01 X47.1170 Y11.1807 
G01 X47.0987 Y11.1831 
G01 X47.0803 Y11.1831 
G01 X47.0625 Y11.1878 
G01 X47.0443 Y11.1902 
G01 X47.0273 Y11.1973 
G01 X47.0095 Y11.2021 
G01 X46.9935 Y11.2113 
G01 X46.9765 Y11.2183 
G01 X46.9619 Y11.2295 
G01 X46.9459 Y11.2387 
G01 X46.9329 Y11.2518 
G01 X46.9183 Y11.2630 
G01 X46.9071 Y11.2776 
G01 X46.8941 Y11.2906 
G01 X46.8848 Y11.3066 
G01 X46.8736 Y11.3212 
G01 X46.8666 Y11.3382 
G01 X46.8574 Y11.3541 
G01 X46.8526 Y11.3719 
G01 X46.8456 Y11.3889 
G01 X46.8432 Y11.4072 
G01 X46.8384 Y11.4250 
G01 X46.8384 Y11.4434 
G01 X46.8360 Y11.4617 
G01 X46.8384 Y11.4799 
G01 X46.8384 Y11.5180 
G01 X46.8109 Y11.6919 
G01 X46.7565 Y11.8593 
G01 X46.6765 Y12.0162 
G01 X46.5731 Y12.1586 
G01 X46.4486 Y12.2831 
G01 X46.3062 Y12.3865 
G01 X46.1493 Y12.4665 
G01 X45.9986 Y12.5154 
G01 X45.9986 Y12.4097 
G01 X46.0161 Y12.4062 
G01 X46.2009 Y12.3297 
G01 X46.3672 Y12.2186 
G01 X46.5086 Y12.0771 
G01 X46.6197 Y11.9109 
G01 X46.6962 Y11.7261 
G01 X46.7352 Y11.5300 
G01 X46.7352 Y11.3300 
G01 X46.6962 Y11.1339 
G01 X46.6197 Y10.9491 
G01 X46.5086 Y10.7828 
G01 X46.3672 Y10.6414 
G01 X46.2009 Y10.5303 
G01 X46.0161 Y10.4538 
G01 X45.8200 Y10.4148 
G01 X45.6200 Y10.4148 
G01 X45.4239 Y10.4538 
G01 X45.2391 Y10.5303 
G01 X45.0728 Y10.6414 
G01 X44.9314 Y10.7828 
G01 X44.8203 Y10.9491 
G01 X44.7438 Y11.1339 
G01 X44.7403 Y11.1514 
G01 X44.6346 Y11.1514 
G01 X44.6835 Y11.0007 
G01 X44.7635 Y10.8438 
G01 X44.8669 Y10.7014 
G01 X44.9914 Y10.5769 
G01 X45.1338 Y10.4735 
G01 X45.2522 Y10.4132 
G01 X45.2759 Y10.4033 
G01 X45.2847 Y10.3966 
G01 X45.2946 Y10.3915 
G01 X45.3137 Y10.3743 
G01 X45.3341 Y10.3587 
G01 X45.3409 Y10.3499 
G01 X45.3491 Y10.3425 
G01 X45.3631 Y10.3209 
G01 X45.3788 Y10.3005 
G01 X45.3830 Y10.2902 
G01 X45.3891 Y10.2809 
G01 X45.3970 Y10.2565 
G01 X45.4069 Y10.2327 
G01 X45.4083 Y10.2217 
G01 X45.4117 Y10.2112 
G01 X45.4131 Y10.1855 
G01 X45.4164 Y10.1600 
G01 X45.4150 Y10.1490 
G01 X45.4156 Y10.1379 
G01 X45.4102 Y10.1127 
G01 X45.4069 Y10.0872 
G01 X45.4026 Y10.0770 
G01 X45.4003 Y10.0662 
G01 X45.3886 Y10.0432 
G01 X45.3788 Y10.0195 
G01 X45.3720 Y10.0107 
G01 X45.3670 Y10.0008 
G01 X45.3498 Y9.9817 
G01 X45.3341 Y9.9613 
G01 X45.3254 Y9.9545 
G01 X45.3179 Y9.9463 
G01 X45.2963 Y9.9323 
G01 X45.2759 Y9.9166 
G01 X45.2657 Y9.9124 
G01 X45.2564 Y9.9063 
G01 X45.2319 Y9.8984 
G01 X45.0865 Y9.8381 
G01 X44.7719 Y9.5235 
G01 X44.6016 Y9.1125 
G01 X44.6016 Y8.6675 
G01 X44.7108 Y8.4039 
G01 X44.7200 Y8.3879 
G01 X44.7248 Y8.3701 
G01 X44.7318 Y8.3531 
G01 X44.7342 Y8.3349 
G01 X44.7390 Y8.3171 
G01 X44.7390 Y8.2987 
G01 X44.7414 Y8.2804 
G01 X44.7390 Y8.2621 
G01 X44.7390 Y8.2437 
G01 X44.7342 Y8.2259 
G01 X44.7318 Y8.2077 
G01 X44.7248 Y8.1907 
G01 X44.7200 Y8.1729 
G01 X44.7108 Y8.1569 
G01 X44.7038 Y8.1399 
G01 X44.6926 Y8.1253 
G01 X44.6833 Y8.1093 
G01 X44.6703 Y8.0963 
G01 X44.6591 Y8.0817 
G01 X44.6445 Y8.0705 
G01 X44.6315 Y8.0575 
G01 X44.6155 Y8.0482 
G01 X44.6009 Y8.0370 
G01 X44.5839 Y8.0300 
G01 X44.5679 Y8.0208 
G01 X44.5501 Y8.0160 
G01 X44.5331 Y8.0090 
G01 X44.5149 Y8.0066 
G01 X44.4971 Y8.0018 
G01 X44.4787 Y8.0018 
G01 X44.4604 Y7.9994 
G01 X44.4421 Y8.0018 
G01 X16.4340 Y8.0018 
G01 X16.2937 Y7.9437 
G01 X16.1731 Y7.8230 
G01 X13.9194 Y5.5693 
G01 X13.8675 Y5.5175 
G01 X13.8040 Y5.4808 
G01 X13.7331 Y5.4618 
G01 X12.1630 Y5.4618 
G01 X12.0921 Y5.4808 
G01 X12.0286 Y5.5175 
G01 X11.7334 Y5.8126 
G01 X11.1265 Y5.8126 
G01 X10.6974 Y5.3834 
G01 X10.6974 Y4.7765 
G00 Z2.5400 
G00 X10.8006 Y4.8193 
G01 Z-0.1778 F254.00 
G01 X10.8006 Y5.3407 F508.00 
G01 X11.1693 Y5.7094 
G01 X11.6907 Y5.7094 
G01 X12.0415 Y5.3586 
G01 X13.8546 Y5.3586 
G01 X16.2871 Y7.7911 
G01 X16.3389 Y7.8429 
G01 X16.4025 Y7.8796 
G01 X16.4733 Y7.8986 
G01 X44.4867 Y7.8986 
G01 X44.5575 Y7.8796 
G01 X44.6211 Y7.8429 
G01 X45.8911 Y6.5729 
G01 X45.9429 Y6.5211 
G01 X45.9796 Y6.4575 
G01 X45.9986 Y6.3867 
G01 X45.9986 Y3.9254 
G01 X47.1054 Y2.8186 
G01 X67.1946 Y2.8186 
G01 X68.3014 Y3.9254 
G01 X68.3014 Y7.5046 
G01 X67.1946 Y8.6114 
G01 X66.1582 Y8.6114 
G01 X66.1582 Y8.5221 
G01 X65.6379 Y8.0018 
G01 X64.9021 Y8.0018 
G01 X64.3818 Y8.5221 
G01 X64.3818 Y9.2579 
G01 X64.9021 Y9.7782 
G01 X65.6379 Y9.7782 
G01 X66.1582 Y9.2579 
G01 X66.1582 Y9.1686 
G01 X67.3467 Y9.1686 
G01 X67.4175 Y9.1496 
G01 X67.4811 Y9.1129 
G01 X67.5329 Y9.0611 
G01 X68.8029 Y7.7911 
G01 X68.8396 Y7.7275 
G01 X68.8586 Y7.6567 
G01 X68.8586 Y3.7733 
G01 X68.8396 Y3.7025 
G01 X68.8029 Y3.6389 
G01 X68.7511 Y3.5871 
G01 X67.4811 Y2.3171 
G01 X67.4175 Y2.2804 
G01 X67.3467 Y2.2614 
G01 X46.9533 Y2.2614 
G01 X46.8825 Y2.2804 
G01 X46.8189 Y2.3171 
G01 X46.7671 Y2.3689 
G01 X45.4971 Y3.6389 
G01 X45.4604 Y3.7025 
G01 X45.4414 Y3.7733 
G01 X45.4414 Y6.2346 
G01 X44.3346 Y7.3414 
G01 X16.6254 Y7.3414 
G01 X14.1411 Y4.8571 
G01 X14.0775 Y4.8204 
G01 X14.0067 Y4.8014 
G01 X12.0415 Y4.8014 
G01 X11.6907 Y4.4506 
G01 X11.1693 Y4.4506 
G01 X10.8006 Y4.8193 
G00 Z2.5400 
G00 X15.8642 Y11.1310 
G01 Z-0.1778 F254.00 
G01 X15.9904 Y11.0393 F508.00 
G01 X16.1294 Y10.9684 
G01 X16.1806 Y10.9518 
G01 X16.1806 Y11.0623 
G01 X16.0893 Y11.1001 
G01 X15.9438 Y11.1973 
G01 X15.8201 Y11.3210 
G01 X15.7229 Y11.4665 
G01 X15.6559 Y11.6281 
G01 X15.6218 Y11.7997 
G01 X15.6218 Y12.3706 
G01 X15.5186 Y12.3706 
G01 X15.5186 Y11.8092 
G01 X15.5430 Y11.6550 
G01 X15.5912 Y11.5066 
G01 X15.6621 Y11.3676 
G01 X15.7538 Y11.2414 
G01 X15.8642 Y11.1310 
G00 Z2.5400 
G00 X16.8394 Y11.0623 
G01 Z-0.1778 F254.00 
G01 X16.8394 Y10.9518 F508.00 
G01 X16.8906 Y10.9684 
G01 X17.0296 Y11.0393 
G01 X17.1558 Y11.1310 
G01 X17.2662 Y11.2414 
G01 X17.3579 Y11.3676 
G01 X17.4288 Y11.5066 
G01 X17.4770 Y11.6550 
G01 X17.5014 Y11.8092 
G01 X17.5014 Y12.3706 
G01 X17.3982 Y12.3706 
G01 X17.3982 Y11.7997 
G01 X17.3641 Y11.6281 
G01 X17.2971 Y11.4665 
G01 X17.1999 Y11.3210 
G01 X17.0762 Y11.1973 
G01 X16.9307 Y11.1001 
G01 X16.8394 Y11.0623 
G00 Z2.5400 
G00 X18.2095 Y11.3256 
G01 Z-0.1778 F254.00 
G01 X18.4884 Y11.0467 F508.00 
G01 X18.8528 Y10.8958 
G01 X19.2472 Y10.8958 
G01 X19.6116 Y11.0467 
G01 X19.8905 Y11.3256 
G01 X20.0414 Y11.6900 
G01 X20.0414 Y13.7100 
G01 X19.8905 Y14.0744 
G01 X19.6116 Y14.3533 
G01 X19.2472 Y14.5042 
G01 X18.8528 Y14.5042 
G01 X18.4884 Y14.3533 
G01 X18.2095 Y14.0744 
G01 X18.0586 Y13.7100 
G01 X18.0586 Y13.6346 
G01 X18.0609 Y13.6201 
G01 X18.0586 Y13.5982 
G01 X18.0586 Y11.8018 
G01 X18.0609 Y11.7799 
G01 X18.0586 Y11.7653 
G01 X18.0586 Y11.6900 
G01 X18.2095 Y11.3256 
G00 Z2.5400 
G00 X18.3601 Y11.3210 
G01 Z-0.1778 F254.00 
G01 X18.2629 Y11.4665 F508.00 
G01 X18.1959 Y11.6281 
G01 X18.1618 Y11.7997 
G01 X18.1618 Y13.6003 
G01 X18.1959 Y13.7719 
G01 X18.2629 Y13.9335 
G01 X18.3601 Y14.0790 
G01 X18.4838 Y14.2027 
G01 X18.6293 Y14.2999 
G01 X18.7909 Y14.3669 
G01 X18.9625 Y14.4010 
G01 X19.1375 Y14.4010 
G01 X19.3091 Y14.3669 
G01 X19.4707 Y14.2999 
G01 X19.6162 Y14.2027 
G01 X19.7399 Y14.0790 
G01 X19.8371 Y13.9335 
G01 X19.9041 Y13.7719 
G01 X19.9382 Y13.6003 
G01 X19.9382 Y11.7997 
G01 X19.9041 Y11.6281 
G01 X19.8371 Y11.4665 
G01 X19.7399 Y11.3210 
G01 X19.6162 Y11.1973 
G01 X19.4707 Y11.1001 
G01 X19.3091 Y11.0331 
G01 X19.1375 Y10.9990 
G01 X18.9625 Y10.9990 
G01 X18.7909 Y11.0331 
G01 X18.6293 Y11.1001 
G01 X18.4838 Y11.1973 
G01 X18.3601 Y11.3210 
G00 Z2.5400 
G00 X20.7495 Y11.3256 
G01 Z-0.1778 F254.00 
G01 X21.0284 Y11.0467 F508.00 
G01 X21.3928 Y10.8958 
G01 X21.7872 Y10.8958 
G01 X22.1516 Y11.0467 
G01 X22.4305 Y11.3256 
G01 X22.5814 Y11.6900 
G01 X22.5814 Y13.7100 
G01 X22.4305 Y14.0744 
G01 X22.1516 Y14.3533 
G01 X21.7872 Y14.5042 
G01 X21.3928 Y14.5042 
G01 X21.0284 Y14.3533 
G01 X20.7495 Y14.0744 
G01 X20.5986 Y13.7100 
G01 X20.5986 Y11.6900 
G01 X20.7495 Y11.3256 
G00 Z2.5400 
G00 X20.9001 Y11.3210 
G01 Z-0.1778 F254.00 
G01 X20.8029 Y11.4665 F508.00 
G01 X20.7359 Y11.6281 
G01 X20.7018 Y11.7997 
G01 X20.7018 Y13.6003 
G01 X20.7359 Y13.7719 
G01 X20.8029 Y13.9335 
G01 X20.9001 Y14.0790 
G01 X21.0238 Y14.2027 
G01 X21.1693 Y14.2999 
G01 X21.3309 Y14.3669 
G01 X21.5025 Y14.4010 
G01 X21.6775 Y14.4010 
G01 X21.8491 Y14.3669 
G01 X22.0107 Y14.2999 
G01 X22.1562 Y14.2027 
G01 X22.2799 Y14.0790 
G01 X22.3771 Y13.9335 
G01 X22.4441 Y13.7719 
G01 X22.4782 Y13.6003 
G01 X22.4782 Y11.7997 
G01 X22.4441 Y11.6281 
G01 X22.3771 Y11.4665 
G01 X22.2799 Y11.3210 
G01 X22.1562 Y11.1973 
G01 X22.0107 Y11.1001 
G01 X21.8491 Y11.0331 
G01 X21.6775 Y10.9990 
G01 X21.5025 Y10.9990 
G01 X21.3309 Y11.0331 
G01 X21.1693 Y11.1001 
G01 X21.0238 Y11.1973 
G01 X20.9001 Y11.3210 
G00 Z2.5400 
G00 X21.0284 Y16.1267 
G01 Z-0.1778 F254.00 
G01 X21.3928 Y15.9758 F508.00 
G01 X21.7872 Y15.9758 
G01 X22.1516 Y16.1267 
G01 X22.4305 Y16.4056 
G01 X22.5814 Y16.7700 
G01 X22.5814 Y18.7900 
G01 X22.4305 Y19.1544 
G01 X22.1516 Y19.4333 
G01 X21.7872 Y19.5842 
G01 X21.3928 Y19.5842 
G01 X21.0284 Y19.4333 
G01 X20.7495 Y19.1544 
G01 X20.5986 Y18.7900 
G01 X20.5986 Y16.7700 
G01 X20.7495 Y16.4056 
G01 X21.0284 Y16.1267 
G00 Z2.5400 
G00 X21.0238 Y16.2773 
G01 Z-0.1778 F254.00 
G01 X20.9001 Y16.4010 F508.00 
G01 X20.8029 Y16.5465 
G01 X20.7359 Y16.7081 
G01 X20.7018 Y16.8797 
G01 X20.7018 Y18.6803 
G01 X20.7359 Y18.8519 
G01 X20.8029 Y19.0135 
G01 X20.9001 Y19.1590 
G01 X21.0238 Y19.2827 
G01 X21.1693 Y19.3799 
G01 X21.3309 Y19.4469 
G01 X21.5025 Y19.4810 
G01 X21.6775 Y19.4810 
G01 X21.8491 Y19.4469 
G01 X22.0107 Y19.3799 
G01 X22.1562 Y19.2827 
G01 X22.2799 Y19.1590 
G01 X22.3771 Y19.0135 
G01 X22.4441 Y18.8519 
G01 X22.4782 Y18.6803 
G01 X22.4782 Y16.8797 
G01 X22.4441 Y16.7081 
G01 X22.3771 Y16.5465 
G01 X22.2799 Y16.4010 
G01 X22.1562 Y16.2773 
G01 X22.0107 Y16.1801 
G01 X21.8491 Y16.1131 
G01 X21.6775 Y16.0790 
G01 X21.5025 Y16.0790 
G01 X21.3309 Y16.1131 
G01 X21.1693 Y16.1801 
G01 X21.0238 Y16.2773 
G00 Z2.5400 
G00 X19.8905 Y16.4056 
G01 Z-0.1778 F254.00 
G01 X20.0414 Y16.7700 F508.00 
G01 X20.0414 Y18.7900 
G01 X19.8905 Y19.1544 
G01 X19.6116 Y19.4333 
G01 X19.2472 Y19.5842 
G01 X18.8528 Y19.5842 
G01 X18.4884 Y19.4333 
G01 X18.2095 Y19.1544 
G01 X18.0586 Y18.7900 
G01 X18.0586 Y18.7146 
G01 X18.0609 Y18.7001 
G01 X18.0586 Y18.6782 
G01 X18.0586 Y16.8818 
G01 X18.0609 Y16.8599 
G01 X18.0586 Y16.8453 
G01 X18.0586 Y16.7700 
G01 X18.2095 Y16.4056 
G01 X18.4884 Y16.1267 
G01 X18.8528 Y15.9758 
G01 X19.2472 Y15.9758 
G01 X19.6116 Y16.1267 
G01 X19.8905 Y16.4056 
G00 Z2.5400 
G00 X19.7399 Y16.4010 
G01 Z-0.1778 F254.00 
G01 X19.6162 Y16.2773 F508.00 
G01 X19.4707 Y16.1801 
G01 X19.3091 Y16.1131 
G01 X19.1375 Y16.0790 
G01 X18.9625 Y16.0790 
G01 X18.7909 Y16.1131 
G01 X18.6293 Y16.1801 
G01 X18.4838 Y16.2773 
G01 X18.3601 Y16.4010 
G01 X18.2629 Y16.5465 
G01 X18.1959 Y16.7081 
G01 X18.1618 Y16.8797 
G01 X18.1618 Y18.6803 
G01 X18.1959 Y18.8519 
G01 X18.2629 Y19.0135 
G01 X18.3601 Y19.1590 
G01 X18.4838 Y19.2827 
G01 X18.6293 Y19.3799 
G01 X18.7909 Y19.4469 
G01 X18.9625 Y19.4810 
G01 X19.1375 Y19.4810 
G01 X19.3091 Y19.4469 
G01 X19.4707 Y19.3799 
G01 X19.6162 Y19.2827 
G01 X19.7399 Y19.1590 
G01 X19.8371 Y19.0135 
G01 X19.9041 Y18.8519 
G01 X19.9382 Y18.6803 
G01 X19.9382 Y16.8797 
G01 X19.9041 Y16.7081 
G01 X19.8371 Y16.5465 
G01 X19.7399 Y16.4010 
G00 Z2.5400 
G00 X17.3579 Y16.4476 
G01 Z-0.1778 F254.00 
G01 X17.4288 Y16.5866 F508.00 
G01 X17.4770 Y16.7351 
G01 X17.5014 Y16.8892 
G01 X17.5014 Y17.4506 
G01 X17.3982 Y17.4506 
G01 X17.3982 Y16.8797 
G01 X17.3641 Y16.7081 
G01 X17.2971 Y16.5465 
G01 X17.1999 Y16.4010 
G01 X17.0762 Y16.2773 
G01 X16.9307 Y16.1801 
G01 X16.8394 Y16.1423 
G01 X16.8394 Y16.0318 
G01 X16.8906 Y16.0484 
G01 X17.0296 Y16.1193 
G01 X17.1558 Y16.2110 
G01 X17.2662 Y16.3213 
G01 X17.3579 Y16.4476 
G00 Z2.5400 
G00 X16.1806 Y16.1423 
G01 Z-0.1778 F254.00 
G01 X16.0893 Y16.1801 F508.00 
G01 X15.9438 Y16.2773 
G01 X15.8201 Y16.4010 
G01 X15.7229 Y16.5465 
G01 X15.6559 Y16.7081 
G01 X15.6218 Y16.8797 
G01 X15.6218 Y17.4506 
G01 X15.5186 Y17.4506 
G01 X15.5186 Y16.8892 
G01 X15.5430 Y16.7351 
G01 X15.5912 Y16.5866 
G01 X15.6621 Y16.4476 
G01 X15.7538 Y16.3213 
G01 X15.8642 Y16.2110 
G01 X15.9904 Y16.1193 
G01 X16.1294 Y16.0484 
G01 X16.1806 Y16.0318 
G01 X16.1806 Y16.1423 
G00 Z2.5400 
G00 X16.1806 Y14.4482 
G01 Z-0.1778 F254.00 
G01 X16.1294 Y14.4316 F508.00 
G01 X15.9904 Y14.3607 
G01 X15.8642 Y14.2690 
G01 X15.7538 Y14.1586 
G01 X15.6621 Y14.0324 
G01 X15.5912 Y13.8934 
G01 X15.5430 Y13.7449 
G01 X15.5186 Y13.5908 
G01 X15.5186 Y13.0294 
G01 X15.6218 Y13.0294 
G01 X15.6218 Y13.6003 
G01 X15.6559 Y13.7719 
G01 X15.7229 Y13.9335 
G01 X15.8201 Y14.0790 
G01 X15.9438 Y14.2027 
G01 X16.0893 Y14.2999 
G01 X16.1806 Y14.3377 
G01 X16.1806 Y14.4482 
G00 Z2.5400 
G00 X16.8394 Y14.4482 
G01 Z-0.1778 F254.00 
G01 X16.8394 Y14.3377 F508.00 
G01 X16.9307 Y14.2999 
G01 X17.0762 Y14.2027 
G01 X17.1999 Y14.0790 
G01 X17.2971 Y13.9335 
G01 X17.3641 Y13.7719 
G01 X17.3982 Y13.6003 
G01 X17.3982 Y13.0294 
G01 X17.5014 Y13.0294 
G01 X17.5014 Y13.5908 
G01 X17.4770 Y13.7449 
G01 X17.4288 Y13.8934 
G01 X17.3579 Y14.0324 
G01 X17.2662 Y14.1586 
G01 X17.1558 Y14.2690 
G01 X17.0296 Y14.3607 
G01 X16.8906 Y14.4316 
G01 X16.8394 Y14.4482 
G00 Z2.5400 
G00 X17.3982 Y18.1094 
G01 Z-0.1778 F254.00 
G01 X17.5014 Y18.1094 F508.00 
G01 X17.5014 Y18.6708 
G01 X17.4770 Y18.8249 
G01 X17.4288 Y18.9734 
G01 X17.3579 Y19.1124 
G01 X17.2662 Y19.2386 
G01 X17.1558 Y19.3490 
G01 X17.0296 Y19.4407 
G01 X16.8906 Y19.5116 
G01 X16.8394 Y19.5282 
G01 X16.8394 Y19.4177 
G01 X16.9307 Y19.3799 
G01 X17.0762 Y19.2827 
G01 X17.1999 Y19.1590 
G01 X17.2971 Y19.0135 
G01 X17.3641 Y18.8519 
G01 X17.3982 Y18.6803 
G01 X17.3982 Y18.1094 
G00 Z2.5400 
G00 X15.6218 Y18.1094 
G01 Z-0.1778 F254.00 
G01 X15.6218 Y18.6803 F508.00 
G01 X15.6559 Y18.8519 
G01 X15.7229 Y19.0135 
G01 X15.8201 Y19.1590 
G01 X15.9438 Y19.2827 
G01 X16.0893 Y19.3799 
G01 X16.1806 Y19.4177 
G01 X16.1806 Y19.5282 
G01 X16.1294 Y19.5116 
G01 X15.9904 Y19.4407 
G01 X15.8642 Y19.3490 
G01 X15.7538 Y19.2386 
G01 X15.6621 Y19.1124 
G01 X15.5912 Y18.9734 
G01 X15.5430 Y18.8249 
G01 X15.5186 Y18.6708 
G01 X15.5186 Y18.1094 
G01 X15.6218 Y18.1094 
G00 Z2.5400 
G00 X15.7538 Y21.4014 
G01 Z-0.1778 F254.00 
G01 X15.8642 Y21.2910 F508.00 
G01 X15.9904 Y21.1993 
G01 X16.1294 Y21.1284 
G01 X16.1806 Y21.1118 
G01 X16.1806 Y21.2223 
G01 X16.0893 Y21.2601 
G01 X15.9438 Y21.3573 
G01 X15.8201 Y21.4810 
G01 X15.7229 Y21.6265 
G01 X15.6559 Y21.7881 
G01 X15.6218 Y21.9597 
G01 X15.6218 Y22.5306 
G01 X15.5186 Y22.5306 
G01 X15.5186 Y21.9692 
G01 X15.5430 Y21.8150 
G01 X15.5912 Y21.6666 
G01 X15.6621 Y21.5276 
G01 X15.7538 Y21.4014 
G00 Z2.5400 
G00 X16.8394 Y21.2223 
G01 Z-0.1778 F254.00 
G01 X16.8394 Y21.1118 F508.00 
G01 X16.8906 Y21.1284 
G01 X17.0296 Y21.1993 
G01 X17.1558 Y21.2910 
G01 X17.2662 Y21.4014 
G01 X17.3579 Y21.5276 
G01 X17.4288 Y21.6666 
G01 X17.4770 Y21.8150 
G01 X17.5014 Y21.9692 
G01 X17.5014 Y22.5306 
G01 X17.3982 Y22.5306 
G01 X17.3982 Y21.9597 
G01 X17.3641 Y21.7881 
G01 X17.2971 Y21.6265 
G01 X17.1999 Y21.4810 
G01 X17.0762 Y21.3573 
G01 X16.9307 Y21.2601 
G01 X16.8394 Y21.2223 
G00 Z2.5400 
G00 X18.2095 Y21.4856 
G01 Z-0.1778 F254.00 
G01 X18.4884 Y21.2067 F508.00 
G01 X18.8528 Y21.0558 
G01 X19.2472 Y21.0558 
G01 X19.6116 Y21.2067 
G01 X19.8905 Y21.4856 
G01 X20.0414 Y21.8500 
G01 X20.0414 Y23.8700 
G01 X19.8905 Y24.2344 
G01 X19.6116 Y24.5133 
G01 X19.2472 Y24.6642 
G01 X18.8528 Y24.6642 
G01 X18.4884 Y24.5133 
G01 X18.2095 Y24.2344 
G01 X18.0586 Y23.8700 
G01 X18.0586 Y23.7946 
G01 X18.0609 Y23.7801 
G01 X18.0586 Y23.7582 
G01 X18.0586 Y21.9618 
G01 X18.0609 Y21.9399 
G01 X18.0586 Y21.9253 
G01 X18.0586 Y21.8500 
G01 X18.2095 Y21.4856 
G00 Z2.5400 
G00 X18.3601 Y21.4810 
G01 Z-0.1778 F254.00 
G01 X18.2629 Y21.6265 F508.00 
G01 X18.1959 Y21.7881 
G01 X18.1618 Y21.9597 
G01 X18.1618 Y23.7603 
G01 X18.1959 Y23.9319 
G01 X18.2629 Y24.0935 
G01 X18.3601 Y24.2390 
G01 X18.4838 Y24.3627 
G01 X18.6293 Y24.4599 
G01 X18.7909 Y24.5269 
G01 X18.9625 Y24.5610 
G01 X19.1375 Y24.5610 
G01 X19.3091 Y24.5269 
G01 X19.4707 Y24.4599 
G01 X19.6162 Y24.3627 
G01 X19.7399 Y24.2390 
G01 X19.8371 Y24.0935 
G01 X19.9041 Y23.9319 
G01 X19.9382 Y23.7603 
G01 X19.9382 Y21.9597 
G01 X19.9041 Y21.7881 
G01 X19.8371 Y21.6265 
G01 X19.7399 Y21.4810 
G01 X19.6162 Y21.3573 
G01 X19.4707 Y21.2601 
G01 X19.3091 Y21.1931 
G01 X19.1375 Y21.1590 
G01 X18.9625 Y21.1590 
G01 X18.7909 Y21.1931 
G01 X18.6293 Y21.2601 
G01 X18.4838 Y21.3573 
G01 X18.3601 Y21.4810 
G00 Z2.5400 
G00 X20.7495 Y21.4856 
G01 Z-0.1778 F254.00 
G01 X21.0284 Y21.2067 F508.00 
G01 X21.3928 Y21.0558 
G01 X21.7872 Y21.0558 
G01 X22.1516 Y21.2067 
G01 X22.4305 Y21.4856 
G01 X22.5814 Y21.8500 
G01 X22.5814 Y23.8700 
G01 X22.4305 Y24.2344 
G01 X22.1516 Y24.5133 
G01 X21.7872 Y24.6642 
G01 X21.3928 Y24.6642 
G01 X21.0284 Y24.5133 
G01 X20.7495 Y24.2344 
G01 X20.5986 Y23.8700 
G01 X20.5986 Y21.8500 
G01 X20.7495 Y21.4856 
G00 Z2.5400 
G00 X20.9001 Y21.4810 
G01 Z-0.1778 F254.00 
G01 X20.8029 Y21.6265 F508.00 
G01 X20.7359 Y21.7881 
G01 X20.7018 Y21.9597 
G01 X20.7018 Y23.7603 
G01 X20.7359 Y23.9319 
G01 X20.8029 Y24.0935 
G01 X20.9001 Y24.2390 
G01 X21.0238 Y24.3627 
G01 X21.1693 Y24.4599 
G01 X21.3309 Y24.5269 
G01 X21.5025 Y24.5610 
G01 X21.6775 Y24.5610 
G01 X21.8491 Y24.5269 
G01 X22.0107 Y24.4599 
G01 X22.1562 Y24.3627 
G01 X22.2799 Y24.2390 
G01 X22.3771 Y24.0935 
G01 X22.4441 Y23.9319 
G01 X22.4782 Y23.7603 
G01 X22.4782 Y21.9597 
G01 X22.4441 Y21.7881 
G01 X22.3771 Y21.6265 
G01 X22.2799 Y21.4810 
G01 X22.1562 Y21.3573 
G01 X22.0107 Y21.2601 
G01 X21.8491 Y21.1931 
G01 X21.6775 Y21.1590 
G01 X21.5025 Y21.1590 
G01 X21.3309 Y21.1931 
G01 X21.1693 Y21.2601 
G01 X21.0238 Y21.3573 
G01 X20.9001 Y21.4810 
G00 Z2.5400 
G00 X21.0284 Y26.2867 
G01 Z-0.1778 F254.00 
G01 X21.3928 Y26.1358 F508.00 
G01 X21.7872 Y26.1358 
G01 X22.1516 Y26.2867 
G01 X22.4305 Y26.5656 
G01 X22.5814 Y26.9300 
G01 X22.5814 Y28.9500 
G01 X22.4305 Y29.3144 
G01 X22.1516 Y29.5933 
G01 X21.7872 Y29.7442 
G01 X21.3928 Y29.7442 
G01 X21.0284 Y29.5933 
G01 X20.7495 Y29.3144 
G01 X20.5986 Y28.9500 
G01 X20.5986 Y26.9300 
G01 X20.7495 Y26.5656 
G01 X21.0284 Y26.2867 
G00 Z2.5400 
G00 X21.0238 Y26.4373 
G01 Z-0.1778 F254.00 
G01 X20.9001 Y26.5610 F508.00 
G01 X20.8029 Y26.7065 
G01 X20.7359 Y26.8681 
G01 X20.7018 Y27.0397 
G01 X20.7018 Y28.8403 
G01 X20.7359 Y29.0119 
G01 X20.8029 Y29.1735 
G01 X20.9001 Y29.3190 
G01 X21.0238 Y29.4427 
G01 X21.1693 Y29.5399 
G01 X21.3309 Y29.6069 
G01 X21.5025 Y29.6410 
G01 X21.6775 Y29.6410 
G01 X21.8491 Y29.6069 
G01 X22.0107 Y29.5399 
G01 X22.1562 Y29.4427 
G01 X22.2799 Y29.3190 
G01 X22.3771 Y29.1735 
G01 X22.4441 Y29.0119 
G01 X22.4782 Y28.8403 
G01 X22.4782 Y27.0397 
G01 X22.4441 Y26.8681 
G01 X22.3771 Y26.7065 
G01 X22.2799 Y26.5610 
G01 X22.1562 Y26.4373 
G01 X22.0107 Y26.3401 
G01 X21.8491 Y26.2731 
G01 X21.6775 Y26.2390 
G01 X21.5025 Y26.2390 
G01 X21.3309 Y26.2731 
G01 X21.1693 Y26.3401 
G01 X21.0238 Y26.4373 
G00 Z2.5400 
G00 X19.8905 Y26.5656 
G01 Z-0.1778 F254.00 
G01 X20.0414 Y26.9300 F508.00 
G01 X20.0414 Y28.9500 
G01 X19.8905 Y29.3144 
G01 X19.6116 Y29.5933 
G01 X19.2472 Y29.7442 
G01 X18.8528 Y29.7442 
G01 X18.4884 Y29.5933 
G01 X18.2095 Y29.3144 
G01 X18.0586 Y28.9500 
G01 X18.0586 Y28.8746 
G01 X18.0609 Y28.8601 
G01 X18.0586 Y28.8382 
G01 X18.0586 Y27.0418 
G01 X18.0609 Y27.0199 
G01 X18.0586 Y27.0053 
G01 X18.0586 Y26.9300 
G01 X18.2095 Y26.5656 
G01 X18.4884 Y26.2867 
G01 X18.8528 Y26.1358 
G01 X19.2472 Y26.1358 
G01 X19.6116 Y26.2867 
G01 X19.8905 Y26.5656 
G00 Z2.5400 
G00 X19.7399 Y26.5610 
G01 Z-0.1778 F254.00 
G01 X19.6162 Y26.4373 F508.00 
G01 X19.4707 Y26.3401 
G01 X19.3091 Y26.2731 
G01 X19.1375 Y26.2390 
G01 X18.9625 Y26.2390 
G01 X18.7909 Y26.2731 
G01 X18.6293 Y26.3401 
G01 X18.4838 Y26.4373 
G01 X18.3601 Y26.5610 
G01 X18.2629 Y26.7065 
G01 X18.1959 Y26.8681 
G01 X18.1618 Y27.0397 
G01 X18.1618 Y28.8403 
G01 X18.1959 Y29.0119 
G01 X18.2629 Y29.1735 
G01 X18.3601 Y29.3190 
G01 X18.4838 Y29.4427 
G01 X18.6293 Y29.5399 
G01 X18.7909 Y29.6069 
G01 X18.9625 Y29.6410 
G01 X19.1375 Y29.6410 
G01 X19.3091 Y29.6069 
G01 X19.4707 Y29.5399 
G01 X19.6162 Y29.4427 
G01 X19.7399 Y29.3190 
G01 X19.8371 Y29.1735 
G01 X19.9041 Y29.0119 
G01 X19.9382 Y28.8403 
G01 X19.9382 Y27.0397 
G01 X19.9041 Y26.8681 
G01 X19.8371 Y26.7065 
G01 X19.7399 Y26.5610 
G00 Z2.5400 
G00 X17.3579 Y26.6076 
G01 Z-0.1778 F254.00 
G01 X17.4288 Y26.7466 F508.00 
G01 X17.4770 Y26.8951 
G01 X17.5014 Y27.0492 
G01 X17.5014 Y27.6106 
G01 X17.3982 Y27.6106 
G01 X17.3982 Y27.0397 
G01 X17.3641 Y26.8681 
G01 X17.2971 Y26.7065 
G01 X17.1999 Y26.5610 
G01 X17.0762 Y26.4373 
G01 X16.9307 Y26.3401 
G01 X16.8394 Y26.3023 
G01 X16.8394 Y26.1918 
G01 X16.8906 Y26.2084 
G01 X17.0296 Y26.2793 
G01 X17.1558 Y26.3710 
G01 X17.2662 Y26.4813 
G01 X17.3579 Y26.6076 
G00 Z2.5400 
G00 X16.1806 Y26.3023 
G01 Z-0.1778 F254.00 
G01 X16.0893 Y26.3401 F508.00 
G01 X15.9438 Y26.4373 
G01 X15.8201 Y26.5610 
G01 X15.7229 Y26.7065 
G01 X15.6559 Y26.8681 
G01 X15.6218 Y27.0397 
G01 X15.6218 Y27.6106 
G01 X15.5186 Y27.6106 
G01 X15.5186 Y27.0492 
G01 X15.5430 Y26.8951 
G01 X15.5912 Y26.7466 
G01 X15.6621 Y26.6076 
G01 X15.7538 Y26.4813 
G01 X15.8642 Y26.3710 
G01 X15.9904 Y26.2793 
G01 X16.1294 Y26.2084 
G01 X16.1806 Y26.1918 
G01 X16.1806 Y26.3023 
G00 Z2.5400 
G00 X16.1806 Y24.6082 
G01 Z-0.1778 F254.00 
G01 X16.1294 Y24.5916 F508.00 
G01 X15.9904 Y24.5207 
G01 X15.8642 Y24.4290 
G01 X15.7538 Y24.3186 
G01 X15.6621 Y24.1924 
G01 X15.5912 Y24.0534 
G01 X15.5430 Y23.9049 
G01 X15.5186 Y23.7508 
G01 X15.5186 Y23.1894 
G01 X15.6218 Y23.1894 
G01 X15.6218 Y23.7603 
G01 X15.6559 Y23.9319 
G01 X15.7229 Y24.0935 
G01 X15.8201 Y24.2390 
G01 X15.9438 Y24.3627 
G01 X16.0893 Y24.4599 
G01 X16.1806 Y24.4977 
G01 X16.1806 Y24.6082 
G00 Z2.5400 
G00 X16.8394 Y24.6082 
G01 Z-0.1778 F254.00 
G01 X16.8394 Y24.4977 F508.00 
G01 X16.9307 Y24.4599 
G01 X17.0762 Y24.3627 
G01 X17.1999 Y24.2390 
G01 X17.2971 Y24.0935 
G01 X17.3641 Y23.9319 
G01 X17.3982 Y23.7603 
G01 X17.3982 Y23.1894 
G01 X17.5014 Y23.1894 
G01 X17.5014 Y23.7508 
G01 X17.4770 Y23.9049 
G01 X17.4288 Y24.0534 
G01 X17.3579 Y24.1924 
G01 X17.2662 Y24.3186 
G01 X17.1558 Y24.4290 
G01 X17.0296 Y24.5207 
G01 X16.8906 Y24.5916 
G01 X16.8394 Y24.6082 
G00 Z2.5400 
G00 X17.3982 Y28.2694 
G01 Z-0.1778 F254.00 
G01 X17.5014 Y28.2694 F508.00 
G01 X17.5014 Y28.8308 
G01 X17.4770 Y28.9849 
G01 X17.4288 Y29.1334 
G01 X17.3579 Y29.2724 
G01 X17.2662 Y29.3986 
G01 X17.1558 Y29.5090 
G01 X17.0296 Y29.6007 
G01 X16.8906 Y29.6716 
G01 X16.8394 Y29.6882 
G01 X16.8394 Y29.5777 
G01 X16.9307 Y29.5399 
G01 X17.0762 Y29.4427 
G01 X17.1999 Y29.3190 
G01 X17.2971 Y29.1735 
G01 X17.3641 Y29.0119 
G01 X17.3982 Y28.8403 
G01 X17.3982 Y28.2694 
G00 Z2.5400 
G00 X15.6218 Y28.2694 
G01 Z-0.1778 F254.00 
G01 X15.6218 Y28.8403 F508.00 
G01 X15.6559 Y29.0119 
G01 X15.7229 Y29.1735 
G01 X15.8201 Y29.3190 
G01 X15.9438 Y29.4427 
G01 X16.0893 Y29.5399 
G01 X16.1806 Y29.5777 
G01 X16.1806 Y29.6882 
G01 X16.1294 Y29.6716 
G01 X15.9904 Y29.6007 
G01 X15.8642 Y29.5090 
G01 X15.7538 Y29.3986 
G01 X15.6621 Y29.2724 
G01 X15.5912 Y29.1334 
G01 X15.5430 Y28.9849 
G01 X15.5186 Y28.8308 
G01 X15.5186 Y28.2694 
G01 X15.6218 Y28.2694 
G00 Z2.5400 
G00 X17.8559 Y32.6382 
G01 Z-0.1778 F254.00 
G01 X17.9963 Y32.6963 F508.00 
G01 X18.1688 Y32.8688 
G01 X19.2011 Y33.9012 
G01 X19.2530 Y33.9531 
G01 X19.3737 Y34.0737 
G01 X19.4318 Y34.2141 
G01 X19.4318 Y36.0462 
G01 X19.4371 Y36.0660 
G01 X19.4508 Y36.1171 
G01 X19.4875 Y36.1806 
G01 X19.5393 Y36.2325 
G01 X19.6029 Y36.2692 
G01 X19.6737 Y36.2882 
G01 X19.7471 Y36.2882 
G01 X19.7669 Y36.2828 
G01 X19.8179 Y36.2692 
G01 X19.8815 Y36.2325 
G01 X19.9333 Y36.1806 
G01 X20.0165 Y36.0974 
G01 X20.4339 Y36.0974 
G01 X20.5048 Y36.0784 
G01 X20.5683 Y36.0417 
G01 X21.1007 Y35.5094 
G01 X21.1525 Y35.4575 
G01 X21.1892 Y35.3940 
G01 X21.2082 Y35.3231 
G01 X21.2082 Y31.6741 
G01 X21.2663 Y31.5337 
G01 X21.3870 Y31.4131 
G01 X23.6407 Y29.1594 
G01 X23.6925 Y29.1075 
G01 X23.7292 Y29.0440 
G01 X23.7482 Y28.9731 
G01 X23.7482 Y18.9740 
G01 X23.8063 Y18.8337 
G01 X23.9270 Y18.7131 
G01 X27.7237 Y14.9163 
G01 X27.8640 Y14.8582 
G01 X55.9559 Y14.8582 
G01 X56.0963 Y14.9163 
G01 X56.2169 Y15.0370 
G01 X57.4737 Y16.2937 
G01 X57.5318 Y16.4340 
G01 X57.5318 Y20.0831 
G01 X57.5508 Y20.1540 
G01 X57.5875 Y20.2175 
G01 X60.0137 Y22.6437 
G01 X60.0718 Y22.7841 
G01 X60.0718 Y32.7831 
G01 X60.0908 Y32.8540 
G01 X60.1275 Y32.9175 
G01 X61.0106 Y33.8007 
G01 X61.0625 Y33.8525 
G01 X61.1260 Y33.8892 
G01 X61.1969 Y33.9082 
G01 X61.6310 Y33.9082 
G01 X61.7019 Y33.8892 
G01 X61.7654 Y33.8525 
G01 X62.3194 Y33.2986 
G01 X63.1406 Y33.2986 
G01 X63.7214 Y33.8794 
G01 X63.7214 Y34.7006 
G01 X63.1406 Y35.2814 
G01 X62.3194 Y35.2814 
G01 X61.8173 Y34.7793 
G01 X61.7654 Y34.7275 
G01 X61.7019 Y34.6908 
G01 X61.6310 Y34.6718 
G01 X60.8840 Y34.6718 
G01 X60.7437 Y34.6137 
G01 X59.5388 Y33.4088 
G01 X59.3663 Y33.2363 
G01 X59.3082 Y33.0959 
G01 X59.3082 Y23.0969 
G01 X59.2892 Y23.0260 
G01 X59.2525 Y22.9625 
G01 X56.9988 Y20.7088 
G01 X56.8263 Y20.5363 
G01 X56.7682 Y20.3959 
G01 X56.7682 Y16.7469 
G01 X56.7492 Y16.6760 
G01 X56.7125 Y16.6125 
G01 X55.8294 Y15.7293 
G01 X55.7775 Y15.6775 
G01 X55.7140 Y15.6408 
G01 X55.6431 Y15.6218 
G01 X28.1769 Y15.6218 
G01 X28.1060 Y15.6408 
G01 X28.0425 Y15.6775 
G01 X24.6193 Y19.1006 
G01 X24.5675 Y19.1525 
G01 X24.5308 Y19.2160 
G01 X24.5118 Y19.2869 
G01 X24.5118 Y29.2859 
G01 X24.4537 Y29.4263 
G01 X22.0793 Y31.8006 
G01 X22.0275 Y31.8525 
G01 X21.9908 Y31.9160 
G01 X21.9718 Y31.9869 
G01 X21.9718 Y35.6359 
G01 X21.9137 Y35.7763 
G01 X21.1601 Y36.5298 
G01 X21.1083 Y36.5817 
G01 X21.0716 Y36.6452 
G01 X21.0526 Y36.7161 
G01 X21.0526 Y37.1334 
G01 X20.6234 Y37.5626 
G01 X20.0165 Y37.5626 
G01 X19.9333 Y37.4794 
G01 X19.8815 Y37.4275 
G01 X19.8179 Y37.3908 
G01 X19.7653 Y37.3767 
G01 X19.7471 Y37.3718 
G01 X19.6737 Y37.3718 
G01 X19.6029 Y37.3908 
G01 X19.5393 Y37.4275 
G01 X19.4875 Y37.4794 
G01 X19.4508 Y37.5429 
G01 X19.4367 Y37.5956 
G01 X19.4318 Y37.6138 
G01 X19.4318 Y37.8631 
G01 X19.4508 Y37.9340 
G01 X19.4875 Y37.9975 
G01 X20.3706 Y38.8807 
G01 X20.4225 Y38.9325 
G01 X20.4860 Y38.9692 
G01 X20.5569 Y38.9882 
G01 X61.6310 Y38.9882 
G01 X61.7019 Y38.9692 
G01 X61.7654 Y38.9325 
G01 X62.3194 Y38.3786 
G01 X63.1406 Y38.3786 
G01 X63.7214 Y38.9594 
G01 X63.7214 Y39.7806 
G01 X63.1406 Y40.3614 
G01 X62.3194 Y40.3614 
G01 X61.8173 Y39.8593 
G01 X61.7654 Y39.8075 
G01 X61.7019 Y39.7708 
G01 X61.6310 Y39.7518 
G01 X59.9622 Y39.7518 
G01 X59.9440 Y39.7494 
G01 X59.9257 Y39.7518 
G01 X59.9073 Y39.7518 
G01 X59.8895 Y39.7566 
G01 X59.8713 Y39.7590 
G01 X59.8543 Y39.7660 
G01 X59.8365 Y39.7708 
G01 X59.8205 Y39.7800 
G01 X59.8035 Y39.7870 
G01 X59.7889 Y39.7983 
G01 X59.7729 Y39.8075 
G01 X59.7599 Y39.8205 
G01 X59.7453 Y39.8317 
G01 X59.7341 Y39.8463 
G01 X59.7211 Y39.8593 
G01 X59.7118 Y39.8753 
G01 X59.7006 Y39.8899 
G01 X59.6936 Y39.9069 
G01 X59.6844 Y39.9229 
G01 X59.6796 Y39.9407 
G01 X59.6726 Y39.9577 
G01 X59.6702 Y39.9759 
G01 X59.6654 Y39.9937 
G01 X59.6654 Y40.0121 
G01 X59.6630 Y40.0304 
G01 X59.6654 Y40.0487 
G01 X59.6654 Y40.0671 
G01 X59.6702 Y40.0849 
G01 X59.6726 Y40.1031 
G01 X59.6796 Y40.1201 
G01 X59.6844 Y40.1379 
G01 X59.6936 Y40.1539 
G01 X59.7006 Y40.1709 
G01 X59.7118 Y40.1855 
G01 X59.7211 Y40.2015 
G01 X59.7341 Y40.2145 
G01 X59.7453 Y40.2291 
G01 X59.7599 Y40.2403 
G01 X59.7729 Y40.2533 
G01 X59.7889 Y40.2625 
G01 X59.8035 Y40.2737 
G01 X59.8205 Y40.2808 
G01 X59.8365 Y40.2900 
G01 X59.8543 Y40.2948 
G01 X59.9063 Y40.3163 
G01 X60.0269 Y40.4370 
G01 X61.0625 Y41.4725 
G01 X61.1260 Y41.5092 
G01 X61.1969 Y41.5282 
G01 X61.6310 Y41.5282 
G01 X61.7019 Y41.5092 
G01 X61.7654 Y41.4725 
G01 X61.8173 Y41.4207 
G01 X62.3193 Y40.9186 
G01 X63.1406 Y40.9186 
G01 X63.7214 Y41.4993 
G01 X63.7214 Y42.3206 
G01 X63.1406 Y42.9014 
G01 X62.3194 Y42.9014 
G01 X61.8173 Y42.3993 
G01 X61.7654 Y42.3475 
G01 X61.7019 Y42.3108 
G01 X61.6310 Y42.2918 
G01 X60.8841 Y42.2918 
G01 X60.7437 Y42.2337 
G01 X60.6231 Y42.1130 
G01 X59.6394 Y41.1293 
G01 X59.5875 Y41.0775 
G01 X59.5240 Y41.0408 
G01 X59.4531 Y41.0218 
G01 X58.6922 Y41.0218 
G01 X58.6740 Y41.0194 
G01 X58.6557 Y41.0218 
G01 X58.6373 Y41.0218 
G01 X58.6195 Y41.0266 
G01 X58.6013 Y41.0290 
G01 X58.5842 Y41.0360 
G01 X58.5665 Y41.0408 
G01 X58.5505 Y41.0500 
G01 X58.5335 Y41.0570 
G01 X58.5189 Y41.0682 
G01 X58.5029 Y41.0775 
G01 X58.4899 Y41.0905 
G01 X58.4753 Y41.1017 
G01 X58.4641 Y41.1163 
G01 X58.4511 Y41.1293 
G01 X58.4418 Y41.1453 
G01 X58.4306 Y41.1599 
G01 X58.4236 Y41.1769 
G01 X58.4144 Y41.1929 
G01 X58.4096 Y41.2107 
G01 X58.4026 Y41.2277 
G01 X58.4002 Y41.2459 
G01 X58.3954 Y41.2637 
G01 X58.3954 Y41.2821 
G01 X58.3930 Y41.3004 
G01 X58.3954 Y41.3186 
G01 X58.3954 Y41.3371 
G01 X58.4002 Y41.3549 
G01 X58.4026 Y41.3731 
G01 X58.4096 Y41.3901 
G01 X58.4144 Y41.4079 
G01 X58.4236 Y41.4239 
G01 X58.4306 Y41.4409 
G01 X58.4418 Y41.4555 
G01 X58.4511 Y41.4715 
G01 X58.4641 Y41.4845 
G01 X58.4753 Y41.4991 
G01 X58.4899 Y41.5103 
G01 X58.5029 Y41.5233 
G01 X58.5189 Y41.5325 
G01 X58.5335 Y41.5438 
G01 X58.5505 Y41.5508 
G01 X58.5665 Y41.5600 
G01 X58.5843 Y41.5648 
G01 X58.6363 Y41.5863 
G01 X59.8411 Y42.7912 
G01 X60.0137 Y42.9637 
G01 X60.0718 Y43.1041 
G01 X60.0718 Y48.0231 
G01 X60.0908 Y48.0940 
G01 X60.1275 Y48.1575 
G01 X61.0106 Y49.0407 
G01 X61.0625 Y49.0925 
G01 X61.1260 Y49.1292 
G01 X61.1969 Y49.1482 
G01 X61.6310 Y49.1482 
G01 X61.7019 Y49.1292 
G01 X61.7654 Y49.0925 
G01 X61.8173 Y49.0407 
G01 X62.3194 Y48.5386 
G01 X63.1406 Y48.5386 
G01 X63.7214 Y49.1193 
G01 X63.7214 Y49.9406 
G01 X63.1406 Y50.5214 
G01 X62.3194 Y50.5214 
G01 X61.8173 Y50.0193 
G01 X61.7654 Y49.9675 
G01 X61.7019 Y49.9308 
G01 X61.6310 Y49.9118 
G01 X60.8841 Y49.9118 
G01 X60.7437 Y49.8537 
G01 X60.6231 Y49.7330 
G01 X59.3663 Y48.4763 
G01 X59.3448 Y48.4242 
G01 X59.3400 Y48.4064 
G01 X59.3308 Y48.3905 
G01 X59.3238 Y48.3735 
G01 X59.3125 Y48.3589 
G01 X59.3033 Y48.3429 
G01 X59.2903 Y48.3299 
G01 X59.2791 Y48.3153 
G01 X59.2645 Y48.3041 
G01 X59.2515 Y48.2910 
G01 X59.2355 Y48.2818 
G01 X59.2209 Y48.2706 
G01 X59.2039 Y48.2636 
G01 X59.1879 Y48.2544 
G01 X59.1701 Y48.2496 
G01 X59.1531 Y48.2426 
G01 X59.1349 Y48.2402 
G01 X59.1171 Y48.2354 
G01 X59.0986 Y48.2354 
G01 X59.0804 Y48.2330 
G01 X59.0621 Y48.2354 
G01 X59.0437 Y48.2354 
G01 X59.0259 Y48.2402 
G01 X59.0077 Y48.2426 
G01 X58.9907 Y48.2496 
G01 X58.9729 Y48.2544 
G01 X58.9569 Y48.2636 
G01 X58.9399 Y48.2706 
G01 X58.9253 Y48.2818 
G01 X58.9093 Y48.2910 
G01 X58.8963 Y48.3041 
G01 X58.8817 Y48.3153 
G01 X58.8705 Y48.3299 
G01 X58.8575 Y48.3429 
G01 X58.8482 Y48.3589 
G01 X58.8370 Y48.3735 
G01 X58.8300 Y48.3905 
G01 X58.8208 Y48.4064 
G01 X58.8160 Y48.4242 
G01 X58.8090 Y48.4413 
G01 X58.8066 Y48.4595 
G01 X58.8018 Y48.4773 
G01 X58.8018 Y48.4957 
G01 X58.7994 Y48.5140 
G01 X58.8018 Y48.5322 
G01 X58.8018 Y50.5631 
G01 X58.8208 Y50.6340 
G01 X58.8575 Y50.6975 
G01 X59.7406 Y51.5807 
G01 X59.7925 Y51.6325 
G01 X59.8560 Y51.6692 
G01 X59.9269 Y51.6882 
G01 X61.6310 Y51.6882 
G01 X61.7019 Y51.6692 
G01 X61.7654 Y51.6325 
G01 X62.3194 Y51.0786 
G01 X63.1406 Y51.0786 
G01 X63.7214 Y51.6593 
G01 X63.7214 Y52.4806 
G01 X63.1406 Y53.0614 
G01 X62.3194 Y53.0614 
G01 X61.8173 Y52.5593 
G01 X61.7654 Y52.5075 
G01 X61.7019 Y52.4708 
G01 X61.6310 Y52.4518 
G01 X59.6140 Y52.4518 
G01 X59.4737 Y52.3937 
G01 X59.3531 Y52.2730 
G01 X58.0963 Y51.0163 
G01 X58.0382 Y50.8759 
G01 X58.0382 Y44.6869 
G01 X58.0192 Y44.6160 
G01 X57.9825 Y44.5525 
G01 X57.0994 Y43.6693 
G01 X57.0475 Y43.6175 
G01 X56.9840 Y43.5808 
G01 X56.9131 Y43.5618 
G01 X28.1769 Y43.5618 
G01 X28.1060 Y43.5808 
G01 X28.0425 Y43.6175 
G01 X27.1593 Y44.5006 
G01 X27.1075 Y44.5525 
G01 X27.0708 Y44.6160 
G01 X27.0518 Y44.6869 
G01 X27.0518 Y52.1459 
G01 X26.9937 Y52.2863 
G01 X26.8730 Y52.4069 
G01 X25.7888 Y53.4911 
G01 X25.7369 Y53.5430 
G01 X25.6163 Y53.6637 
G01 X25.4759 Y53.7218 
G01 X24.8369 Y53.7218 
G01 X24.8150 Y53.7195 
G01 X24.8004 Y53.7218 
G01 X24.7856 Y53.7218 
G01 X24.7643 Y53.7275 
G01 X24.7425 Y53.7310 
G01 X24.7291 Y53.7370 
G01 X24.7148 Y53.7408 
G01 X24.6957 Y53.7518 
G01 X24.6755 Y53.7608 
G01 X24.6640 Y53.7701 
G01 X24.6513 Y53.7775 
G01 X24.6356 Y53.7931 
G01 X24.6185 Y53.8070 
G01 X24.6098 Y53.8189 
G01 X24.5994 Y53.8293 
G01 X24.5883 Y53.8485 
G01 X24.5754 Y53.8663 
G01 X24.5701 Y53.8801 
G01 X24.5627 Y53.8929 
G01 X24.5570 Y53.9142 
G01 X24.5491 Y53.9348 
G01 X24.5475 Y53.9495 
G01 X24.5437 Y53.9637 
G01 X24.5437 Y53.9858 
G01 X24.5414 Y54.0078 
G01 X24.5437 Y54.0223 
G01 X24.5437 Y54.0371 
G01 X24.5494 Y54.0584 
G01 X24.5529 Y54.0802 
G01 X24.5589 Y54.0937 
G01 X24.5627 Y54.1079 
G01 X24.5738 Y54.1271 
G01 X24.5827 Y54.1472 
G01 X24.5920 Y54.1587 
G01 X24.5994 Y54.1715 
G01 X24.6150 Y54.1871 
G01 X24.6289 Y54.2042 
G01 X24.6408 Y54.2129 
G01 X24.6513 Y54.2233 
G01 X24.6704 Y54.2344 
G01 X24.7758 Y54.3110 
G01 X24.8862 Y54.4213 
G01 X24.9779 Y54.5476 
G01 X25.0488 Y54.6866 
G01 X25.0970 Y54.8351 
G01 X25.1214 Y54.9892 
G01 X25.1214 Y55.5506 
G01 X25.0182 Y55.5506 
G01 X25.0182 Y54.9797 
G01 X24.9841 Y54.8081 
G01 X24.9171 Y54.6465 
G01 X24.8199 Y54.5010 
G01 X24.6962 Y54.3773 
G01 X24.5507 Y54.2801 
G01 X24.3891 Y54.2131 
G01 X24.2175 Y54.1790 
G01 X24.0425 Y54.1790 
G01 X23.8709 Y54.2131 
G01 X23.7093 Y54.2801 
G01 X23.5638 Y54.3773 
G01 X23.4401 Y54.5010 
G01 X23.3429 Y54.6465 
G01 X23.2759 Y54.8081 
G01 X23.2418 Y54.9797 
G01 X23.2418 Y55.5506 
G01 X23.1386 Y55.5506 
G01 X23.1386 Y54.9892 
G01 X23.1630 Y54.8351 
G01 X23.2112 Y54.6866 
G01 X23.2821 Y54.5476 
G01 X23.3738 Y54.4213 
G01 X23.4841 Y54.3110 
G01 X23.5896 Y54.2344 
G01 X23.6087 Y54.2233 
G01 X23.6192 Y54.2129 
G01 X23.6311 Y54.2042 
G01 X23.6450 Y54.1871 
G01 X23.6606 Y54.1715 
G01 X23.6680 Y54.1587 
G01 X23.6773 Y54.1472 
G01 X23.6862 Y54.1271 
G01 X23.6973 Y54.1079 
G01 X23.7011 Y54.0937 
G01 X23.7071 Y54.0802 
G01 X23.7106 Y54.0584 
G01 X23.7163 Y54.0371 
G01 X23.7163 Y54.0223 
G01 X23.7186 Y54.0078 
G01 X23.7163 Y53.9858 
G01 X23.7163 Y53.9637 
G01 X23.7125 Y53.9495 
G01 X23.7109 Y53.9348 
G01 X23.7030 Y53.9142 
G01 X23.6973 Y53.8929 
G01 X23.6899 Y53.8801 
G01 X23.6846 Y53.8663 
G01 X23.6716 Y53.8485 
G01 X23.6606 Y53.8293 
G01 X23.6502 Y53.8189 
G01 X23.6415 Y53.8070 
G01 X23.6243 Y53.7931 
G01 X23.6087 Y53.7775 
G01 X23.5960 Y53.7701 
G01 X23.5845 Y53.7608 
G01 X23.5643 Y53.7518 
G01 X23.5452 Y53.7408 
G01 X23.5309 Y53.7370 
G01 X23.5175 Y53.7310 
G01 X23.4957 Y53.7275 
G01 X23.4744 Y53.7218 
G01 X23.4596 Y53.7218 
G01 X23.4450 Y53.7195 
G01 X23.4231 Y53.7218 
G01 X22.2826 Y53.7218 
G01 X22.2117 Y53.7408 
G01 X22.1482 Y53.7775 
G01 X22.0971 Y53.8285 
G01 X22.0596 Y53.8929 
G01 X22.0406 Y53.9637 
G01 X22.0406 Y54.0371 
G01 X22.0596 Y54.1079 
G01 X22.0963 Y54.1715 
G01 X22.1482 Y54.2233 
G01 X22.4305 Y54.5056 
G01 X22.5814 Y54.8700 
G01 X22.5814 Y54.9453 
G01 X22.5791 Y54.9599 
G01 X22.5814 Y54.9818 
G01 X22.5814 Y56.7782 
G01 X22.5791 Y56.8001 
G01 X22.5814 Y56.8146 
G01 X22.5814 Y56.8900 
G01 X22.4305 Y57.2544 
G01 X22.1516 Y57.5333 
G01 X21.7872 Y57.6842 
G01 X21.3928 Y57.6842 
G01 X21.0284 Y57.5333 
G01 X20.7495 Y57.2544 
G01 X20.5986 Y56.8900 
G01 X20.5986 Y54.8700 
G01 X20.7623 Y54.4747 
G01 X20.7716 Y54.4587 
G01 X20.7763 Y54.4409 
G01 X20.7834 Y54.4239 
G01 X20.7858 Y54.4057 
G01 X20.7905 Y54.3879 
G01 X20.7905 Y54.3694 
G01 X20.7929 Y54.3512 
G01 X20.7905 Y54.3329 
G01 X20.7905 Y54.3145 
G01 X20.7858 Y54.2967 
G01 X20.7834 Y54.2785 
G01 X20.7763 Y54.2615 
G01 X20.7716 Y54.2437 
G01 X20.7623 Y54.2277 
G01 X20.7553 Y54.2107 
G01 X20.7441 Y54.1961 
G01 X20.7349 Y54.1801 
G01 X20.7218 Y54.1671 
G01 X20.7106 Y54.1525 
G01 X20.6960 Y54.1413 
G01 X20.6830 Y54.1283 
G01 X20.6670 Y54.1190 
G01 X20.6524 Y54.1078 
G01 X20.6354 Y54.1008 
G01 X20.6195 Y54.0916 
G01 X20.6017 Y54.0868 
G01 X20.5847 Y54.0798 
G01 X20.5664 Y54.0774 
G01 X20.5486 Y54.0726 
G01 X20.5302 Y54.0726 
G01 X20.5119 Y54.0702 
G01 X20.4937 Y54.0726 
G01 X20.1463 Y54.0726 
G01 X20.1281 Y54.0702 
G01 X20.1098 Y54.0726 
G01 X20.0914 Y54.0726 
G01 X20.0736 Y54.0774 
G01 X20.0553 Y54.0798 
G01 X20.0383 Y54.0868 
G01 X20.0205 Y54.0916 
G01 X20.0046 Y54.1008 
G01 X19.9876 Y54.1078 
G01 X19.9730 Y54.1190 
G01 X19.9570 Y54.1283 
G01 X19.9440 Y54.1413 
G01 X19.9294 Y54.1525 
G01 X19.9182 Y54.1671 
G01 X19.9051 Y54.1801 
G01 X19.8959 Y54.1961 
G01 X19.8847 Y54.2107 
G01 X19.8777 Y54.2277 
G01 X19.8684 Y54.2437 
G01 X19.8637 Y54.2615 
G01 X19.8566 Y54.2785 
G01 X19.8542 Y54.2967 
G01 X19.8495 Y54.3145 
G01 X19.8495 Y54.3329 
G01 X19.8471 Y54.3512 
G01 X19.8495 Y54.3695 
G01 X19.8495 Y54.3879 
G01 X19.8542 Y54.4057 
G01 X19.8566 Y54.4239 
G01 X19.8637 Y54.4409 
G01 X19.8684 Y54.4587 
G01 X19.8777 Y54.4747 
G01 X20.0414 Y54.8700 
G01 X20.0414 Y56.8900 
G01 X19.8905 Y57.2544 
G01 X19.6116 Y57.5333 
G01 X19.2472 Y57.6842 
G01 X18.8528 Y57.6842 
G01 X18.4884 Y57.5333 
G01 X18.2095 Y57.2544 
G01 X18.0586 Y56.8900 
G01 X18.0586 Y54.8700 
G01 X18.2095 Y54.5056 
G01 X18.4884 Y54.2267 
G01 X18.8528 Y54.0758 
G01 X19.2472 Y54.0758 
G01 X19.2552 Y54.0791 
G01 X19.2711 Y54.0883 
G01 X19.2889 Y54.0931 
G01 X19.3059 Y54.1001 
G01 X19.3242 Y54.1025 
G01 X19.3420 Y54.1073 
G01 X19.3604 Y54.1073 
G01 X19.3786 Y54.1097 
G01 X19.3969 Y54.1073 
G01 X19.4153 Y54.1073 
G01 X19.4331 Y54.1025 
G01 X19.4514 Y54.1001 
G01 X19.4684 Y54.0931 
G01 X19.4862 Y54.0883 
G01 X19.5021 Y54.0791 
G01 X19.5191 Y54.0720 
G01 X19.5338 Y54.0608 
G01 X19.5497 Y54.0516 
G01 X19.5627 Y54.0386 
G01 X19.5773 Y54.0274 
G01 X19.5886 Y54.0128 
G01 X19.6016 Y53.9997 
G01 X19.6108 Y53.9838 
G01 X19.6220 Y53.9692 
G01 X19.6290 Y53.9522 
G01 X19.6383 Y53.9362 
G01 X19.6430 Y53.9184 
G01 X19.6501 Y53.9014 
G01 X19.6525 Y53.8832 
G01 X19.6572 Y53.8654 
G01 X19.6572 Y53.8469 
G01 X19.6596 Y53.8287 
G01 X19.6572 Y53.8104 
G01 X19.6572 Y53.7920 
G01 X19.6525 Y53.7742 
G01 X19.6501 Y53.7560 
G01 X19.6430 Y53.7390 
G01 X19.6383 Y53.7211 
G01 X19.6290 Y53.7052 
G01 X19.6220 Y53.6882 
G01 X19.6108 Y53.6736 
G01 X19.6016 Y53.6576 
G01 X19.5885 Y53.6446 
G01 X19.5874 Y53.0365 
G01 X20.0165 Y52.6074 
G01 X20.6234 Y52.6074 
G01 X20.8667 Y52.8507 
G01 X20.9186 Y52.9025 
G01 X20.9821 Y52.9392 
G01 X21.0530 Y52.9582 
G01 X22.0762 Y52.9582 
G01 X22.0960 Y52.9529 
G01 X22.1471 Y52.9392 
G01 X22.2106 Y52.9025 
G01 X22.2625 Y52.8507 
G01 X22.2992 Y52.7871 
G01 X22.3181 Y52.7163 
G01 X22.3181 Y52.6429 
G01 X22.3128 Y52.6231 
G01 X22.2992 Y52.5721 
G01 X22.2625 Y52.5085 
G01 X22.2106 Y52.4567 
G01 X22.1274 Y52.3734 
G01 X22.1274 Y51.7665 
G01 X22.5565 Y51.3374 
G01 X22.9739 Y51.3374 
G01 X23.0448 Y51.3184 
G01 X23.1083 Y51.2817 
G01 X23.6407 Y50.7494 
G01 X23.6925 Y50.6975 
G01 X23.7292 Y50.6340 
G01 X23.7482 Y50.5631 
G01 X23.7482 Y43.1041 
G01 X23.8063 Y42.9637 
G01 X25.0112 Y41.7588 
G01 X25.1837 Y41.5863 
G01 X25.2357 Y41.5648 
G01 X25.2535 Y41.5600 
G01 X25.2695 Y41.5508 
G01 X25.2865 Y41.5438 
G01 X25.3011 Y41.5325 
G01 X25.3171 Y41.5233 
G01 X25.3301 Y41.5103 
G01 X25.3447 Y41.4991 
G01 X25.3559 Y41.4845 
G01 X25.3689 Y41.4715 
G01 X25.3782 Y41.4555 
G01 X25.3894 Y41.4409 
G01 X25.3964 Y41.4239 
G01 X25.4056 Y41.4079 
G01 X25.4104 Y41.3901 
G01 X25.4174 Y41.3731 
G01 X25.4198 Y41.3549 
G01 X25.4246 Y41.3371 
G01 X25.4246 Y41.3186 
G01 X25.4270 Y41.3004 
G01 X25.4246 Y41.2821 
G01 X25.4246 Y41.2637 
G01 X25.4198 Y41.2459 
G01 X25.4174 Y41.2277 
G01 X25.4104 Y41.2107 
G01 X25.4056 Y41.1929 
G01 X25.3964 Y41.1769 
G01 X25.3894 Y41.1599 
G01 X25.3782 Y41.1453 
G01 X25.3689 Y41.1293 
G01 X25.3559 Y41.1163 
G01 X25.3447 Y41.1017 
G01 X25.3301 Y41.0905 
G01 X25.3171 Y41.0775 
G01 X25.3011 Y41.0682 
G01 X25.2865 Y41.0570 
G01 X25.2695 Y41.0500 
G01 X25.2535 Y41.0408 
G01 X25.2357 Y41.0360 
G01 X25.2187 Y41.0290 
G01 X25.2005 Y41.0266 
G01 X25.1827 Y41.0218 
G01 X25.1643 Y41.0218 
G01 X25.1460 Y41.0194 
G01 X25.1278 Y41.0218 
G01 X18.9740 Y41.0218 
G01 X18.8337 Y40.9637 
G01 X18.7131 Y40.8430 
G01 X18.6612 Y40.7911 
G01 X17.4563 Y39.5863 
G01 X17.3982 Y39.4459 
G01 X17.3982 Y35.7969 
G01 X17.3792 Y35.7260 
G01 X17.3425 Y35.6625 
G01 X16.4075 Y34.7275 
G01 X16.3440 Y34.6908 
G01 X16.2731 Y34.6718 
G01 X7.8569 Y34.6718 
G01 X7.7860 Y34.6908 
G01 X7.7225 Y34.7275 
G01 X5.5693 Y36.8806 
G01 X5.5175 Y36.9325 
G01 X5.4808 Y36.9960 
G01 X5.4618 Y37.0669 
G01 X5.4618 Y47.0659 
G01 X5.4037 Y47.2063 
G01 X4.6501 Y47.9598 
G01 X4.5983 Y48.0117 
G01 X4.5616 Y48.0752 
G01 X4.5426 Y48.1461 
G01 X4.5426 Y48.5634 
G01 X4.1134 Y48.9926 
G01 X3.5065 Y48.9926 
G01 X3.0774 Y48.5634 
G01 X3.0774 Y47.9565 
G01 X3.5065 Y47.5274 
G01 X3.9239 Y47.5274 
G01 X3.9948 Y47.5084 
G01 X4.0583 Y47.4717 
G01 X4.5907 Y46.9394 
G01 X4.6425 Y46.8875 
G01 X4.6792 Y46.8240 
G01 X4.6982 Y46.7531 
G01 X4.6982 Y36.7540 
G01 X4.7563 Y36.6137 
G01 X4.8770 Y36.4931 
G01 X7.4037 Y33.9663 
G01 X7.5441 Y33.9082 
G01 X8.6177 Y33.9082 
G01 X8.6360 Y33.9106 
G01 X8.6543 Y33.9082 
G01 X8.6727 Y33.9082 
G01 X8.6905 Y33.9034 
G01 X8.7087 Y33.9010 
G01 X8.7257 Y33.8940 
G01 X8.7435 Y33.8892 
G01 X8.7595 Y33.8800 
G01 X8.7765 Y33.8730 
G01 X8.7911 Y33.8617 
G01 X8.8071 Y33.8525 
G01 X8.8201 Y33.8395 
G01 X8.8347 Y33.8283 
G01 X8.8459 Y33.8137 
G01 X8.8589 Y33.8007 
G01 X8.8682 Y33.7847 
G01 X8.8794 Y33.7701 
G01 X8.8864 Y33.7531 
G01 X8.8956 Y33.7371 
G01 X8.9004 Y33.7193 
G01 X8.9074 Y33.7023 
G01 X8.9098 Y33.6841 
G01 X8.9146 Y33.6663 
G01 X8.9146 Y33.6479 
G01 X8.9170 Y33.6296 
G01 X8.9146 Y33.6113 
G01 X8.9146 Y33.5929 
G01 X8.9098 Y33.5751 
G01 X8.9074 Y33.5569 
G01 X8.9004 Y33.5399 
G01 X8.8956 Y33.5221 
G01 X8.8864 Y33.5061 
G01 X8.8794 Y33.4891 
G01 X8.8681 Y33.4745 
G01 X8.8589 Y33.4585 
G01 X8.8459 Y33.4455 
G01 X8.8347 Y33.4309 
G01 X8.8201 Y33.4197 
G01 X8.8071 Y33.4067 
G01 X8.7911 Y33.3974 
G01 X8.7765 Y33.3862 
G01 X8.7595 Y33.3792 
G01 X8.7435 Y33.3700 
G01 X8.7257 Y33.3652 
G01 X8.6737 Y33.3437 
G01 X7.4688 Y32.1388 
G01 X7.2963 Y31.9663 
G01 X7.2382 Y31.8259 
G01 X7.2382 Y27.4030 
G01 X7.2192 Y27.3321 
G01 X7.1825 Y27.2686 
G01 X6.8874 Y26.9734 
G01 X6.8874 Y26.3665 
G01 X7.3165 Y25.9374 
G01 X7.9234 Y25.9374 
G01 X8.3526 Y26.3665 
G01 X8.3526 Y26.9734 
G01 X8.1093 Y27.2167 
G01 X8.0575 Y27.2686 
G01 X8.0208 Y27.3321 
G01 X8.0018 Y27.4030 
G01 X8.0018 Y31.5131 
G01 X8.0208 Y31.5840 
G01 X8.0575 Y31.6475 
G01 X8.9406 Y32.5307 
G01 X8.9925 Y32.5825 
G01 X9.0560 Y32.6192 
G01 X9.1269 Y32.6382 
G01 X17.8559 Y32.6382 
G00 Z2.5400 
G00 X17.8167 Y32.7414 
G01 Z-0.1778 F254.00 
G01 X9.0054 Y32.7414 F508.00 
G01 X7.8986 Y31.6346 
G01 X7.8986 Y27.2815 
G01 X8.2494 Y26.9307 
G01 X8.2494 Y26.4093 
G01 X7.8807 Y26.0406 
G01 X7.3593 Y26.0406 
G01 X6.9906 Y26.4093 
G01 X6.9906 Y26.9307 
G01 X7.3414 Y27.2815 
G01 X7.3414 Y31.7867 
G01 X7.3604 Y31.8575 
G01 X7.3971 Y31.9211 
G01 X7.4489 Y31.9729 
G01 X8.7189 Y33.2429 
G01 X8.7825 Y33.2796 
G01 X8.8533 Y33.2986 
G01 X17.6646 Y33.2986 
G01 X18.7714 Y34.4054 
G01 X18.7714 Y38.1367 
G01 X18.7904 Y38.2075 
G01 X18.8271 Y38.2711 
G01 X18.8789 Y38.3229 
G01 X20.1489 Y39.5929 
G01 X20.2125 Y39.6296 
G01 X20.2833 Y39.6486 
G01 X61.8418 Y39.6486 
G01 X61.8418 Y39.7379 
G01 X62.3621 Y40.2582 
G01 X63.0979 Y40.2582 
G01 X63.6182 Y39.7379 
G01 X63.6182 Y39.0021 
G01 X63.0979 Y38.4818 
G01 X62.3621 Y38.4818 
G01 X61.8418 Y39.0021 
G01 X61.8418 Y39.0914 
G01 X20.4354 Y39.0914 
G01 X19.3286 Y37.9846 
G01 X19.3286 Y34.2533 
G01 X19.3096 Y34.1825 
G01 X19.2729 Y34.1189 
G01 X19.2211 Y34.0671 
G01 X18.0029 Y32.8489 
G01 X17.9511 Y32.7971 
G01 X17.8875 Y32.7604 
G01 X17.8167 Y32.7414 
G00 Z2.5400 
G00 X16.6811 Y34.0671 
G01 Z-0.1778 F254.00 
G01 X16.6175 Y34.0304 F508.00 
G01 X16.5467 Y34.0114 
G01 X7.5833 Y34.0114 
G01 X7.5125 Y34.0304 
G01 X7.4489 Y34.0671 
G01 X4.9089 Y36.6071 
G01 X4.8571 Y36.6589 
G01 X4.8204 Y36.7225 
G01 X4.8014 Y36.7933 
G01 X4.8014 Y46.8746 
G01 X4.0454 Y47.6306 
G01 X3.5493 Y47.6306 
G01 X3.1806 Y47.9993 
G01 X3.1806 Y48.5207 
G01 X3.5493 Y48.8894 
G01 X4.0707 Y48.8894 
G01 X4.4394 Y48.5207 
G01 X4.4394 Y48.0246 
G01 X5.3029 Y47.1611 
G01 X5.3396 Y47.0975 
G01 X5.3586 Y47.0267 
G01 X5.3586 Y36.9454 
G01 X7.7354 Y34.5686 
G01 X16.3946 Y34.5686 
G01 X17.5014 Y35.6754 
G01 X17.5014 Y39.4067 
G01 X17.5204 Y39.4775 
G01 X17.5571 Y39.5411 
G01 X18.8789 Y40.8629 
G01 X18.9425 Y40.8996 
G01 X19.0133 Y40.9186 
G01 X59.5746 Y40.9186 
G01 X60.7371 Y42.0811 
G01 X60.7889 Y42.1329 
G01 X60.8525 Y42.1696 
G01 X60.9233 Y42.1886 
G01 X61.8418 Y42.1886 
G01 X61.8418 Y42.2779 
G01 X62.3621 Y42.7982 
G01 X63.0979 Y42.7982 
G01 X63.6182 Y42.2779 
G01 X63.6182 Y41.5421 
G01 X63.0979 Y41.0218 
G01 X62.3621 Y41.0218 
G01 X61.8418 Y41.5421 
G01 X61.8418 Y41.6314 
G01 X61.0754 Y41.6314 
G01 X59.9129 Y40.4689 
G01 X59.8611 Y40.4171 
G01 X59.7975 Y40.3804 
G01 X59.7267 Y40.3614 
G01 X19.1654 Y40.3614 
G01 X18.0586 Y39.2546 
G01 X18.0586 Y35.5233 
G01 X18.0396 Y35.4525 
G01 X18.0029 Y35.3889 
G01 X17.9511 Y35.3371 
G01 X16.7329 Y34.1189 
G01 X16.6811 Y34.0671 
G00 Z2.5400 
G00 X16.0805 Y36.7256 
G01 Z-0.1778 F254.00 
G01 X16.2314 Y37.0900 F508.00 
G01 X16.2314 Y39.1100 
G01 X16.0805 Y39.4744 
G01 X15.8016 Y39.7533 
G01 X15.7814 Y39.7616 
G01 X15.7318 Y39.7996 
G01 X15.7232 Y39.8063 
G01 X15.6918 Y39.8472 
G01 X15.6785 Y39.8645 
G01 X15.6598 Y39.9096 
G01 X15.6504 Y39.9323 
G01 X15.6446 Y39.9767 
G01 X15.6409 Y40.0050 
G01 X15.6485 Y40.0633 
G01 X15.6504 Y40.0777 
G01 X15.6678 Y40.1198 
G01 X15.6785 Y40.1455 
G01 X15.7165 Y40.1950 
G01 X15.7232 Y40.2037 
G01 X15.7641 Y40.2351 
G01 X15.7814 Y40.2484 
G01 X15.8016 Y40.2567 
G01 X16.0805 Y40.5356 
G01 X16.2314 Y40.9000 
G01 X16.2314 Y42.9200 
G01 X16.0805 Y43.2844 
G01 X15.8016 Y43.5633 
G01 X15.7814 Y43.5716 
G01 X15.7635 Y43.5854 
G01 X15.7232 Y43.6163 
G01 X15.7153 Y43.6266 
G01 X15.6785 Y43.6745 
G01 X15.6676 Y43.7009 
G01 X15.6504 Y43.7422 
G01 X15.6483 Y43.7583 
G01 X15.6409 Y43.8150 
G01 X15.6447 Y43.8441 
G01 X15.6504 Y43.8877 
G01 X15.6603 Y43.9115 
G01 X15.6785 Y43.9555 
G01 X15.6922 Y43.9734 
G01 X15.7231 Y44.0137 
G01 X15.7335 Y44.0216 
G01 X15.7813 Y44.0583 
G01 X15.8016 Y44.0667 
G01 X16.0805 Y44.3456 
G01 X16.2314 Y44.7100 
G01 X16.2314 Y46.7300 
G01 X16.0805 Y47.0944 
G01 X15.8016 Y47.3733 
G01 X15.4372 Y47.5242 
G01 X15.0428 Y47.5242 
G01 X14.6784 Y47.3733 
G01 X14.3995 Y47.0944 
G01 X14.2486 Y46.7300 
G01 X14.2486 Y44.7100 
G01 X14.3995 Y44.3456 
G01 X14.6784 Y44.0667 
G01 X14.6986 Y44.0583 
G01 X14.7482 Y44.0204 
G01 X14.7568 Y44.0137 
G01 X14.7882 Y43.9728 
G01 X14.8015 Y43.9555 
G01 X14.8202 Y43.9104 
G01 X14.8296 Y43.8877 
G01 X14.8354 Y43.8433 
G01 X14.8391 Y43.8150 
G01 X14.8315 Y43.7567 
G01 X14.8296 Y43.7423 
G01 X14.8122 Y43.7002 
G01 X14.8015 Y43.6745 
G01 X14.7635 Y43.6250 
G01 X14.7568 Y43.6163 
G01 X14.7159 Y43.5849 
G01 X14.6986 Y43.5716 
G01 X14.6784 Y43.5633 
G01 X14.3995 Y43.2844 
G01 X14.2486 Y42.9200 
G01 X14.2486 Y40.9000 
G01 X14.3995 Y40.5356 
G01 X14.6784 Y40.2567 
G01 X14.6986 Y40.2484 
G01 X14.7165 Y40.2346 
G01 X14.7568 Y40.2037 
G01 X14.7647 Y40.1934 
G01 X14.8015 Y40.1455 
G01 X14.8124 Y40.1191 
G01 X14.8296 Y40.0777 
G01 X14.8317 Y40.0617 
G01 X14.8391 Y40.0050 
G01 X14.8353 Y39.9759 
G01 X14.8296 Y39.9323 
G01 X14.8197 Y39.9085 
G01 X14.8015 Y39.8645 
G01 X14.7878 Y39.8466 
G01 X14.7569 Y39.8063 
G01 X14.7465 Y39.7984 
G01 X14.6987 Y39.7617 
G01 X14.6784 Y39.7533 
G01 X14.3995 Y39.4744 
G01 X14.2486 Y39.1100 
G01 X14.2486 Y37.0900 
G01 X14.3995 Y36.7256 
G01 X14.6784 Y36.4467 
G01 X15.0428 Y36.2958 
G01 X15.4372 Y36.2958 
G01 X15.8016 Y36.4467 
G01 X16.0805 Y36.7256 
G00 Z2.5400 
G00 X15.9299 Y36.7210 
G01 Z-0.1778 F254.00 
G01 X15.8062 Y36.5973 F508.00 
G01 X15.6607 Y36.5001 
G01 X15.4991 Y36.4331 
G01 X15.3275 Y36.3990 
G01 X15.1525 Y36.3990 
G01 X14.9809 Y36.4331 
G01 X14.8193 Y36.5001 
G01 X14.6738 Y36.5973 
G01 X14.5501 Y36.7210 
G01 X14.4529 Y36.8665 
G01 X14.3859 Y37.0281 
G01 X14.3518 Y37.1997 
G01 X14.3518 Y39.0003 
G01 X14.3859 Y39.1719 
G01 X14.4529 Y39.3335 
G01 X14.5501 Y39.4790 
G01 X14.6738 Y39.6027 
G01 X14.8193 Y39.6999 
G01 X14.9809 Y39.7669 
G01 X15.1525 Y39.8010 
G01 X15.3275 Y39.8010 
G01 X15.4991 Y39.7669 
G01 X15.6607 Y39.6999 
G01 X15.8062 Y39.6027 
G01 X15.9299 Y39.4790 
G01 X16.0271 Y39.3335 
G01 X16.0941 Y39.1719 
G01 X16.1282 Y39.0003 
G01 X16.1282 Y37.1997 
G01 X16.0941 Y37.0281 
G01 X16.0271 Y36.8665 
G01 X15.9299 Y36.7210 
G00 Z2.5400 
G00 X13.5405 Y36.7256 
G01 Z-0.1778 F254.00 
G01 X13.6914 Y37.0900 F508.00 
G01 X13.6914 Y39.1100 
G01 X13.5405 Y39.4744 
G01 X13.2616 Y39.7533 
G01 X13.2414 Y39.7616 
G01 X13.1918 Y39.7996 
G01 X13.1832 Y39.8063 
G01 X13.1518 Y39.8472 
G01 X13.1385 Y39.8645 
G01 X13.1198 Y39.9096 
G01 X13.1104 Y39.9323 
G01 X13.1046 Y39.9767 
G01 X13.1009 Y40.0050 
G01 X13.1085 Y40.0633 
G01 X13.1104 Y40.0777 
G01 X13.1278 Y40.1198 
G01 X13.1385 Y40.1455 
G01 X13.1765 Y40.1950 
G01 X13.1832 Y40.2037 
G01 X13.2241 Y40.2351 
G01 X13.2414 Y40.2484 
G01 X13.2616 Y40.2567 
G01 X13.5405 Y40.5356 
G01 X13.6914 Y40.9000 
G01 X13.6914 Y42.9200 
G01 X13.5405 Y43.2844 
G01 X13.2616 Y43.5633 
G01 X13.2414 Y43.5716 
G01 X13.1918 Y43.6096 
G01 X13.1832 Y43.6163 
G01 X13.1518 Y43.6572 
G01 X13.1385 Y43.6745 
G01 X13.1198 Y43.7196 
G01 X13.1104 Y43.7423 
G01 X13.1046 Y43.7867 
G01 X13.1009 Y43.8150 
G01 X13.1085 Y43.8733 
G01 X13.1104 Y43.8877 
G01 X13.1278 Y43.9298 
G01 X13.1385 Y43.9555 
G01 X13.1765 Y44.0050 
G01 X13.1832 Y44.0137 
G01 X13.2241 Y44.0451 
G01 X13.2414 Y44.0584 
G01 X13.2616 Y44.0667 
G01 X13.5405 Y44.3456 
G01 X13.6914 Y44.7100 
G01 X13.6914 Y46.7300 
G01 X13.5405 Y47.0944 
G01 X13.2616 Y47.3733 
G01 X12.8972 Y47.5242 
G01 X12.5028 Y47.5242 
G01 X12.1384 Y47.3733 
G01 X11.8595 Y47.0944 
G01 X11.7086 Y46.7300 
G01 X11.7086 Y44.7100 
G01 X11.8595 Y44.3456 
G01 X12.1384 Y44.0667 
G01 X12.1586 Y44.0584 
G01 X12.1765 Y44.0446 
G01 X12.2168 Y44.0137 
G01 X12.2247 Y44.0034 
G01 X12.2615 Y43.9555 
G01 X12.2724 Y43.9291 
G01 X12.2896 Y43.8877 
G01 X12.2917 Y43.8717 
G01 X12.2991 Y43.8150 
G01 X12.2953 Y43.7859 
G01 X12.2896 Y43.7423 
G01 X12.2797 Y43.7185 
G01 X12.2615 Y43.6745 
G01 X12.2478 Y43.6566 
G01 X12.2169 Y43.6163 
G01 X12.2065 Y43.6084 
G01 X12.1587 Y43.5717 
G01 X12.1384 Y43.5633 
G01 X11.8595 Y43.2844 
G01 X11.7086 Y42.9200 
G01 X11.7086 Y40.9000 
G01 X11.8595 Y40.5356 
G01 X12.1384 Y40.2567 
G01 X12.1586 Y40.2484 
G01 X12.1765 Y40.2346 
G01 X12.2168 Y40.2037 
G01 X12.2247 Y40.1934 
G01 X12.2615 Y40.1455 
G01 X12.2724 Y40.1191 
G01 X12.2896 Y40.0777 
G01 X12.2917 Y40.0617 
G01 X12.2991 Y40.0050 
G01 X12.2953 Y39.9759 
G01 X12.2896 Y39.9323 
G01 X12.2797 Y39.9085 
G01 X12.2615 Y39.8645 
G01 X12.2478 Y39.8466 
G01 X12.2169 Y39.8063 
G01 X12.2065 Y39.7984 
G01 X12.1587 Y39.7617 
G01 X12.1384 Y39.7533 
G01 X11.8595 Y39.4744 
G01 X11.7086 Y39.1100 
G01 X11.7086 Y37.0900 
G01 X11.8595 Y36.7256 
G01 X12.1384 Y36.4467 
G01 X12.5028 Y36.2958 
G01 X12.8972 Y36.2958 
G01 X13.2616 Y36.4467 
G01 X13.5405 Y36.7256 
G00 Z2.5400 
G00 X13.3899 Y36.7210 
G01 Z-0.1778 F254.00 
G01 X13.2662 Y36.5973 F508.00 
G01 X13.1207 Y36.5001 
G01 X12.9591 Y36.4331 
G01 X12.7875 Y36.3990 
G01 X12.6125 Y36.3990 
G01 X12.4409 Y36.4331 
G01 X12.2793 Y36.5001 
G01 X12.1338 Y36.5973 
G01 X12.0101 Y36.7210 
G01 X11.9129 Y36.8665 
G01 X11.8459 Y37.0281 
G01 X11.8118 Y37.1997 
G01 X11.8118 Y39.0003 
G01 X11.8459 Y39.1719 
G01 X11.9129 Y39.3335 
G01 X12.0101 Y39.4790 
G01 X12.1338 Y39.6027 
G01 X12.2793 Y39.6999 
G01 X12.4409 Y39.7669 
G01 X12.6125 Y39.8010 
G01 X12.7875 Y39.8010 
G01 X12.9591 Y39.7669 
G01 X13.1207 Y39.6999 
G01 X13.2662 Y39.6027 
G01 X13.3899 Y39.4790 
G01 X13.4871 Y39.3335 
G01 X13.5541 Y39.1719 
G01 X13.5882 Y39.0003 
G01 X13.5882 Y37.1997 
G01 X13.5541 Y37.0281 
G01 X13.4871 Y36.8665 
G01 X13.3899 Y36.7210 
G00 Z2.5400 
G00 X11.0005 Y36.7256 
G01 Z-0.1778 F254.00 
G01 X11.1514 Y37.0900 F508.00 
G01 X11.1514 Y39.1100 
G01 X11.0005 Y39.4744 
G01 X10.7216 Y39.7533 
G01 X10.7014 Y39.7616 
G01 X10.6518 Y39.7996 
G01 X10.6432 Y39.8063 
G01 X10.6118 Y39.8472 
G01 X10.5985 Y39.8645 
G01 X10.5798 Y39.9096 
G01 X10.5704 Y39.9323 
G01 X10.5646 Y39.9767 
G01 X10.5609 Y40.0050 
G01 X10.5685 Y40.0633 
G01 X10.5704 Y40.0777 
G01 X10.5878 Y40.1198 
G01 X10.5985 Y40.1455 
G01 X10.6365 Y40.1950 
G01 X10.6432 Y40.2037 
G01 X10.6841 Y40.2351 
G01 X10.7014 Y40.2484 
G01 X10.7216 Y40.2567 
G01 X11.0005 Y40.5356 
G01 X11.1514 Y40.9000 
G01 X11.1514 Y42.9200 
G01 X11.0005 Y43.2844 
G01 X10.7216 Y43.5633 
G01 X10.7014 Y43.5716 
G01 X10.6518 Y43.6096 
G01 X10.6432 Y43.6163 
G01 X10.6118 Y43.6572 
G01 X10.5985 Y43.6745 
G01 X10.5798 Y43.7196 
G01 X10.5704 Y43.7423 
G01 X10.5646 Y43.7867 
G01 X10.5609 Y43.8150 
G01 X10.5685 Y43.8733 
G01 X10.5704 Y43.8877 
G01 X10.5878 Y43.9298 
G01 X10.5985 Y43.9555 
G01 X10.6365 Y44.0050 
G01 X10.6432 Y44.0137 
G01 X10.6841 Y44.0451 
G01 X10.7014 Y44.0584 
G01 X10.7216 Y44.0667 
G01 X11.0005 Y44.3456 
G01 X11.1514 Y44.7100 
G01 X11.1514 Y46.7300 
G01 X11.0005 Y47.0944 
G01 X10.7216 Y47.3733 
G01 X10.3572 Y47.5242 
G01 X9.9628 Y47.5242 
G01 X9.5984 Y47.3733 
G01 X9.3195 Y47.0944 
G01 X9.1686 Y46.7300 
G01 X9.1686 Y46.6546 
G01 X9.1709 Y46.6401 
G01 X9.1686 Y46.6182 
G01 X9.1686 Y44.8218 
G01 X9.1709 Y44.7999 
G01 X9.1686 Y44.7854 
G01 X9.1686 Y44.7100 
G01 X9.3195 Y44.3456 
G01 X9.5984 Y44.0667 
G01 X9.6186 Y44.0584 
G01 X9.6260 Y44.0527 
G01 X9.6768 Y44.0137 
G01 X9.7215 Y43.9555 
G01 X9.7274 Y43.9412 
G01 X9.7496 Y43.8877 
G01 X9.7591 Y43.8150 
G01 X9.7572 Y43.8004 
G01 X9.7496 Y43.7423 
G01 X9.7482 Y43.7390 
G01 X9.7215 Y43.6745 
G01 X9.7158 Y43.6671 
G01 X9.6769 Y43.6163 
G01 X9.6187 Y43.5717 
G01 X9.6040 Y43.5656 
G01 X9.5984 Y43.5633 
G01 X9.3195 Y43.2844 
G01 X9.1686 Y42.9200 
G01 X9.1686 Y42.8446 
G01 X9.1709 Y42.8301 
G01 X9.1686 Y42.8082 
G01 X9.1686 Y41.0118 
G01 X9.1709 Y40.9899 
G01 X9.1686 Y40.9753 
G01 X9.1686 Y40.9000 
G01 X9.3195 Y40.5356 
G01 X9.5984 Y40.2567 
G01 X9.6186 Y40.2484 
G01 X9.6365 Y40.2346 
G01 X9.6768 Y40.2037 
G01 X9.6847 Y40.1934 
G01 X9.7215 Y40.1455 
G01 X9.7324 Y40.1191 
G01 X9.7496 Y40.0777 
G01 X9.7517 Y40.0617 
G01 X9.7591 Y40.0050 
G01 X9.7553 Y39.9759 
G01 X9.7496 Y39.9323 
G01 X9.7397 Y39.9085 
G01 X9.7215 Y39.8645 
G01 X9.7078 Y39.8466 
G01 X9.6769 Y39.8063 
G01 X9.6665 Y39.7984 
G01 X9.6187 Y39.7617 
G01 X9.5984 Y39.7533 
G01 X9.3195 Y39.4744 
G01 X9.1686 Y39.1100 
G01 X9.1686 Y39.0346 
G01 X9.1709 Y39.0201 
G01 X9.1686 Y38.9982 
G01 X9.1686 Y37.2018 
G01 X9.1709 Y37.1799 
G01 X9.1686 Y37.1653 
G01 X9.1686 Y37.0900 
G01 X9.3195 Y36.7256 
G01 X9.5984 Y36.4467 
G01 X9.9628 Y36.2958 
G01 X10.3572 Y36.2958 
G01 X10.7216 Y36.4467 
G01 X11.0005 Y36.7256 
G00 Z2.5400 
G00 X10.8499 Y36.7210 
G01 Z-0.1778 F254.00 
G01 X10.7262 Y36.5973 F508.00 
G01 X10.5807 Y36.5001 
G01 X10.4191 Y36.4331 
G01 X10.2475 Y36.3990 
G01 X10.0725 Y36.3990 
G01 X9.9009 Y36.4331 
G01 X9.7393 Y36.5001 
G01 X9.5938 Y36.5973 
G01 X9.4701 Y36.7210 
G01 X9.3729 Y36.8665 
G01 X9.3059 Y37.0281 
G01 X9.2718 Y37.1997 
G01 X9.2718 Y39.0003 
G01 X9.3059 Y39.1719 
G01 X9.3729 Y39.3335 
G01 X9.4701 Y39.4790 
G01 X9.5938 Y39.6027 
G01 X9.7393 Y39.6999 
G01 X9.9009 Y39.7669 
G01 X10.0725 Y39.8010 
G01 X10.2475 Y39.8010 
G01 X10.4191 Y39.7669 
G01 X10.5807 Y39.6999 
G01 X10.7262 Y39.6027 
G01 X10.8499 Y39.4790 
G01 X10.9471 Y39.3335 
G01 X11.0141 Y39.1719 
G01 X11.0482 Y39.0003 
G01 X11.0482 Y37.1997 
G01 X11.0141 Y37.0281 
G01 X10.9471 Y36.8665 
G01 X10.8499 Y36.7210 
G00 Z2.5400 
G00 X8.4679 Y36.7676 
G01 Z-0.1778 F254.00 
G01 X8.5388 Y36.9066 F508.00 
G01 X8.5870 Y37.0551 
G01 X8.6114 Y37.2092 
G01 X8.6114 Y37.7706 
G01 X8.5082 Y37.7706 
G01 X8.5082 Y37.1997 
G01 X8.4741 Y37.0281 
G01 X8.4071 Y36.8665 
G01 X8.3099 Y36.7210 
G01 X8.1862 Y36.5973 
G01 X8.0407 Y36.5001 
G01 X7.9494 Y36.4623 
G01 X7.9494 Y36.3518 
G01 X8.0006 Y36.3684 
G01 X8.1396 Y36.4393 
G01 X8.2658 Y36.5310 
G01 X8.3762 Y36.6414 
G01 X8.4679 Y36.7676 
G00 Z2.5400 
G00 X7.2906 Y36.4623 
G01 Z-0.1778 F254.00 
G01 X7.1993 Y36.5001 F508.00 
G01 X7.0538 Y36.5973 
G01 X6.9301 Y36.7210 
G01 X6.8329 Y36.8665 
G01 X6.7659 Y37.0281 
G01 X6.7318 Y37.1997 
G01 X6.7318 Y37.7706 
G01 X6.6286 Y37.7706 
G01 X6.6286 Y37.2092 
G01 X6.6530 Y37.0551 
G01 X6.7012 Y36.9066 
G01 X6.7721 Y36.7676 
G01 X6.8638 Y36.6414 
G01 X6.9741 Y36.5310 
G01 X7.1004 Y36.4393 
G01 X7.2394 Y36.3684 
G01 X7.2906 Y36.3518 
G01 X7.2906 Y36.4623 
G00 Z2.5400 
G00 X6.7318 Y38.4294 
G01 Z-0.1778 F254.00 
G01 X6.7318 Y39.0003 F508.00 
G01 X6.7659 Y39.1719 
G01 X6.8329 Y39.3335 
G01 X6.9301 Y39.4790 
G01 X7.0538 Y39.6027 
G01 X7.1993 Y39.6999 
G01 X7.2906 Y39.7377 
G01 X7.2906 Y40.2723 
G01 X7.1993 Y40.3101 
G01 X7.0538 Y40.4073 
G01 X6.9301 Y40.5310 
G01 X6.8329 Y40.6765 
G01 X6.7659 Y40.8381 
G01 X6.7318 Y41.0097 
G01 X6.7318 Y41.5806 
G01 X6.6286 Y41.5806 
G01 X6.6286 Y41.0192 
G01 X6.6530 Y40.8650 
G01 X6.7012 Y40.7166 
G01 X6.7721 Y40.5776 
G01 X6.8638 Y40.4513 
G01 X6.9741 Y40.3410 
G01 X7.0908 Y40.2562 
G01 X7.1056 Y40.2466 
G01 X7.1253 Y40.2366 
G01 X7.1362 Y40.2267 
G01 X7.1486 Y40.2187 
G01 X7.1634 Y40.2023 
G01 X7.1798 Y40.1875 
G01 X7.1878 Y40.1751 
G01 X7.1977 Y40.1642 
G01 X7.2077 Y40.1445 
G01 X7.2198 Y40.1260 
G01 X7.2243 Y40.1120 
G01 X7.2310 Y40.0988 
G01 X7.2356 Y40.0772 
G01 X7.2424 Y40.0563 
G01 X7.2432 Y40.0415 
G01 X7.2463 Y40.0271 
G01 X7.2451 Y40.0050 
G01 X7.2463 Y39.9830 
G01 X7.2432 Y39.9686 
G01 X7.2424 Y39.9538 
G01 X7.2356 Y39.9328 
G01 X7.2310 Y39.9112 
G01 X7.2243 Y39.8981 
G01 X7.2198 Y39.8840 
G01 X7.2078 Y39.8655 
G01 X7.1978 Y39.8459 
G01 X7.1879 Y39.8349 
G01 X7.1798 Y39.8225 
G01 X7.1634 Y39.8077 
G01 X7.1487 Y39.7914 
G01 X7.1363 Y39.7833 
G01 X7.1253 Y39.7734 
G01 X7.1057 Y39.7634 
G01 X7.0908 Y39.7538 
G01 X6.9741 Y39.6690 
G01 X6.8638 Y39.5586 
G01 X6.7721 Y39.4324 
G01 X6.7012 Y39.2934 
G01 X6.6530 Y39.1449 
G01 X6.6286 Y38.9908 
G01 X6.6286 Y38.4294 
G01 X6.7318 Y38.4294 
G00 Z2.5400 
G00 X8.5082 Y38.4294 
G01 Z-0.1778 F254.00 
G01 X8.6114 Y38.4294 F508.00 
G01 X8.6114 Y38.9908 
G01 X8.5870 Y39.1449 
G01 X8.5388 Y39.2934 
G01 X8.4679 Y39.4324 
G01 X8.3762 Y39.5586 
G01 X8.2658 Y39.6690 
G01 X8.1492 Y39.7538 
G01 X8.1343 Y39.7634 
G01 X8.1147 Y39.7734 
G01 X8.1037 Y39.7833 
G01 X8.0913 Y39.7914 
G01 X8.0766 Y39.8077 
G01 X8.0602 Y39.8225 
G01 X8.0521 Y39.8349 
G01 X8.0422 Y39.8459 
G01 X8.0322 Y39.8655 
G01 X8.0202 Y39.8840 
G01 X8.0156 Y39.8981 
G01 X8.0089 Y39.9112 
G01 X8.0044 Y39.9328 
G01 X7.9976 Y39.9538 
G01 X7.9968 Y39.9686 
G01 X7.9937 Y39.9830 
G01 X7.9949 Y40.0050 
G01 X7.9937 Y40.0271 
G01 X7.9968 Y40.0415 
G01 X7.9976 Y40.0563 
G01 X8.0044 Y40.0772 
G01 X8.0090 Y40.0988 
G01 X8.0157 Y40.1120 
G01 X8.0202 Y40.1260 
G01 X8.0323 Y40.1445 
G01 X8.0423 Y40.1642 
G01 X8.0522 Y40.1751 
G01 X8.0602 Y40.1875 
G01 X8.0766 Y40.2023 
G01 X8.0914 Y40.2187 
G01 X8.1038 Y40.2267 
G01 X8.1147 Y40.2366 
G01 X8.1344 Y40.2466 
G01 X8.1492 Y40.2562 
G01 X8.2658 Y40.3410 
G01 X8.3762 Y40.4513 
G01 X8.4679 Y40.5776 
G01 X8.5388 Y40.7166 
G01 X8.5870 Y40.8650 
G01 X8.6114 Y41.0192 
G01 X8.6114 Y41.5806 
G01 X8.5082 Y41.5806 
G01 X8.5082 Y41.0097 
G01 X8.4741 Y40.8381 
G01 X8.4071 Y40.6765 
G01 X8.3099 Y40.5310 
G01 X8.1862 Y40.4073 
G01 X8.0407 Y40.3101 
G01 X7.9494 Y40.2723 
G01 X7.9494 Y39.7377 
G01 X8.0407 Y39.6999 
G01 X8.1862 Y39.6027 
G01 X8.3099 Y39.4790 
G01 X8.4071 Y39.3335 
G01 X8.4741 Y39.1719 
G01 X8.5082 Y39.0003 
G01 X8.5082 Y38.4294 
G00 Z2.5400 
G00 X9.4701 Y40.5310 
G01 Z-0.1778 F254.00 
G01 X9.3729 Y40.6765 F508.00 
G01 X9.3059 Y40.8381 
G01 X9.2718 Y41.0097 
G01 X9.2718 Y42.8103 
G01 X9.3059 Y42.9819 
G01 X9.3729 Y43.1435 
G01 X9.4701 Y43.2890 
G01 X9.5938 Y43.4127 
G01 X9.7393 Y43.5099 
G01 X9.9009 Y43.5769 
G01 X10.0725 Y43.6110 
G01 X10.2475 Y43.6110 
G01 X10.4191 Y43.5769 
G01 X10.5807 Y43.5099 
G01 X10.7262 Y43.4127 
G01 X10.8499 Y43.2890 
G01 X10.9471 Y43.1435 
G01 X11.0141 Y42.9819 
G01 X11.0482 Y42.8103 
G01 X11.0482 Y41.0097 
G01 X11.0141 Y40.8381 
G01 X10.9471 Y40.6765 
G01 X10.8499 Y40.5310 
G01 X10.7262 Y40.4073 
G01 X10.5807 Y40.3101 
G01 X10.4191 Y40.2431 
G01 X10.2475 Y40.2090 
G01 X10.0725 Y40.2090 
G01 X9.9009 Y40.2431 
G01 X9.7393 Y40.3101 
G01 X9.5938 Y40.4073 
G01 X9.4701 Y40.5310 
G00 Z2.5400 
G00 X12.0101 Y40.5310 
G01 Z-0.1778 F254.00 
G01 X11.9129 Y40.6765 F508.00 
G01 X11.8459 Y40.8381 
G01 X11.8118 Y41.0097 
G01 X11.8118 Y42.8103 
G01 X11.8459 Y42.9819 
G01 X11.9129 Y43.1435 
G01 X12.0101 Y43.2890 
G01 X12.1338 Y43.4127 
G01 X12.2793 Y43.5099 
G01 X12.4409 Y43.5769 
G01 X12.6125 Y43.6110 
G01 X12.7875 Y43.6110 
G01 X12.9591 Y43.5769 
G01 X13.1207 Y43.5099 
G01 X13.2662 Y43.4127 
G01 X13.3899 Y43.2890 
G01 X13.4871 Y43.1435 
G01 X13.5541 Y42.9819 
G01 X13.5882 Y42.8103 
G01 X13.5882 Y41.0097 
G01 X13.5541 Y40.8381 
G01 X13.4871 Y40.6765 
G01 X13.3899 Y40.5310 
G01 X13.2662 Y40.4073 
G01 X13.1207 Y40.3101 
G01 X12.9591 Y40.2431 
G01 X12.7875 Y40.2090 
G01 X12.6125 Y40.2090 
G01 X12.4409 Y40.2431 
G01 X12.2793 Y40.3101 
G01 X12.1338 Y40.4073 
G01 X12.0101 Y40.5310 
G00 Z2.5400 
G00 X14.5501 Y40.5310 
G01 Z-0.1778 F254.00 
G01 X14.4529 Y40.6765 F508.00 
G01 X14.3859 Y40.8381 
G01 X14.3518 Y41.0097 
G01 X14.3518 Y42.8103 
G01 X14.3859 Y42.9819 
G01 X14.4529 Y43.1435 
G01 X14.5501 Y43.2890 
G01 X14.6738 Y43.4127 
G01 X14.8193 Y43.5099 
G01 X14.9809 Y43.5769 
G01 X15.1525 Y43.6110 
G01 X15.3275 Y43.6110 
G01 X15.4991 Y43.5769 
G01 X15.6607 Y43.5099 
G01 X15.8062 Y43.4127 
G01 X15.9299 Y43.2890 
G01 X16.0271 Y43.1435 
G01 X16.0941 Y42.9819 
G01 X16.1282 Y42.8103 
G01 X16.1282 Y41.0097 
G01 X16.0941 Y40.8381 
G01 X16.0271 Y40.6765 
G01 X15.9299 Y40.5310 
G01 X15.8062 Y40.4073 
G01 X15.6607 Y40.3101 
G01 X15.4991 Y40.2431 
G01 X15.3275 Y40.2090 
G01 X15.1525 Y40.2090 
G01 X14.9809 Y40.2431 
G01 X14.8193 Y40.3101 
G01 X14.6738 Y40.4073 
G01 X14.5501 Y40.5310 
G00 Z2.5400 
G00 X14.5501 Y44.3410 
G01 Z-0.1778 F254.00 
G01 X14.4529 Y44.4865 F508.00 
G01 X14.3859 Y44.6481 
G01 X14.3518 Y44.8197 
G01 X14.3518 Y46.6203 
G01 X14.3859 Y46.7919 
G01 X14.4529 Y46.9535 
G01 X14.5501 Y47.0990 
G01 X14.6738 Y47.2227 
G01 X14.8193 Y47.3199 
G01 X14.9809 Y47.3869 
G01 X15.1525 Y47.4210 
G01 X15.3275 Y47.4210 
G01 X15.4991 Y47.3869 
G01 X15.6607 Y47.3199 
G01 X15.8062 Y47.2227 
G01 X15.9299 Y47.0990 
G01 X16.0271 Y46.9535 
G01 X16.0941 Y46.7919 
G01 X16.1282 Y46.6203 
G01 X16.1282 Y44.8197 
G01 X16.0941 Y44.6481 
G01 X16.0271 Y44.4865 
G01 X15.9299 Y44.3410 
G01 X15.8062 Y44.2173 
G01 X15.6607 Y44.1201 
G01 X15.4991 Y44.0531 
G01 X15.3275 Y44.0190 
G01 X15.1525 Y44.0190 
G01 X14.9809 Y44.0531 
G01 X14.8193 Y44.1201 
G01 X14.6738 Y44.2173 
G01 X14.5501 Y44.3410 
G00 Z2.5400 
G00 X13.3899 Y44.3410 
G01 Z-0.1778 F254.00 
G01 X13.2662 Y44.2173 F508.00 
G01 X13.1207 Y44.1201 
G01 X12.9591 Y44.0531 
G01 X12.7875 Y44.0190 
G01 X12.6125 Y44.0190 
G01 X12.4409 Y44.0531 
G01 X12.2793 Y44.1201 
G01 X12.1338 Y44.2173 
G01 X12.0101 Y44.3410 
G01 X11.9129 Y44.4865 
G01 X11.8459 Y44.6481 
G01 X11.8118 Y44.8197 
G01 X11.8118 Y46.6203 
G01 X11.8459 Y46.7919 
G01 X11.9129 Y46.9535 
G01 X12.0101 Y47.0990 
G01 X12.1338 Y47.2227 
G01 X12.2793 Y47.3199 
G01 X12.4409 Y47.3869 
G01 X12.6125 Y47.4210 
G01 X12.7875 Y47.4210 
G01 X12.9591 Y47.3869 
G01 X13.1207 Y47.3199 
G01 X13.2662 Y47.2227 
G01 X13.3899 Y47.0990 
G01 X13.4871 Y46.9535 
G01 X13.5541 Y46.7919 
G01 X13.5882 Y46.6203 
G01 X13.5882 Y44.8197 
G01 X13.5541 Y44.6481 
G01 X13.4871 Y44.4865 
G01 X13.3899 Y44.3410 
G00 Z2.5400 
G00 X10.8499 Y44.3410 
G01 Z-0.1778 F254.00 
G01 X10.7262 Y44.2173 F508.00 
G01 X10.5807 Y44.1201 
G01 X10.4191 Y44.0531 
G01 X10.2475 Y44.0190 
G01 X10.0725 Y44.0190 
G01 X9.9009 Y44.0531 
G01 X9.7393 Y44.1201 
G01 X9.5938 Y44.2173 
G01 X9.4701 Y44.3410 
G01 X9.3729 Y44.4865 
G01 X9.3059 Y44.6481 
G01 X9.2718 Y44.8197 
G01 X9.2718 Y46.6203 
G01 X9.3059 Y46.7919 
G01 X9.3729 Y46.9535 
G01 X9.4701 Y47.0990 
G01 X9.5938 Y47.2227 
G01 X9.7393 Y47.3199 
G01 X9.9009 Y47.3869 
G01 X10.0725 Y47.4210 
G01 X10.2475 Y47.4210 
G01 X10.4191 Y47.3869 
G01 X10.5807 Y47.3199 
G01 X10.7262 Y47.2227 
G01 X10.8499 Y47.0990 
G01 X10.9471 Y46.9535 
G01 X11.0141 Y46.7919 
G01 X11.0482 Y46.6203 
G01 X11.0482 Y44.8197 
G01 X11.0141 Y44.6481 
G01 X10.9471 Y44.4865 
G01 X10.8499 Y44.3410 
G00 Z2.5400 
G00 X8.4679 Y44.3876 
G01 Z-0.1778 F254.00 
G01 X8.5388 Y44.5266 F508.00 
G01 X8.5870 Y44.6750 
G01 X8.6114 Y44.8292 
G01 X8.6114 Y45.3906 
G01 X8.5082 Y45.3906 
G01 X8.5082 Y44.8197 
G01 X8.4741 Y44.6481 
G01 X8.4071 Y44.4865 
G01 X8.3099 Y44.3410 
G01 X8.1862 Y44.2173 
G01 X8.0407 Y44.1201 
G01 X7.9494 Y44.0823 
G01 X7.9494 Y43.5477 
G01 X8.0407 Y43.5099 
G01 X8.1862 Y43.4127 
G01 X8.3099 Y43.2890 
G01 X8.4071 Y43.1435 
G01 X8.4741 Y42.9819 
G01 X8.5082 Y42.8103 
G01 X8.5082 Y42.2394 
G01 X8.6114 Y42.2394 
G01 X8.6114 Y42.8008 
G01 X8.5870 Y42.9549 
G01 X8.5388 Y43.1034 
G01 X8.4679 Y43.2424 
G01 X8.3762 Y43.3686 
G01 X8.2658 Y43.4790 
G01 X8.1493 Y43.5637 
G01 X8.1343 Y43.5734 
G01 X8.1147 Y43.5834 
G01 X8.1037 Y43.5933 
G01 X8.0913 Y43.6014 
G01 X8.0765 Y43.6178 
G01 X8.0602 Y43.6325 
G01 X8.0521 Y43.6449 
G01 X8.0422 Y43.6559 
G01 X8.0322 Y43.6755 
G01 X8.0202 Y43.6940 
G01 X8.0157 Y43.7081 
G01 X8.0089 Y43.7213 
G01 X8.0044 Y43.7428 
G01 X7.9976 Y43.7638 
G01 X7.9968 Y43.7786 
G01 X7.9937 Y43.7930 
G01 X7.9949 Y43.8150 
G01 X7.9937 Y43.8370 
G01 X7.9968 Y43.8515 
G01 X7.9976 Y43.8663 
G01 X8.0044 Y43.8872 
G01 X8.0090 Y43.9088 
G01 X8.0157 Y43.9220 
G01 X8.0203 Y43.9361 
G01 X8.0323 Y43.9545 
G01 X8.0422 Y43.9741 
G01 X8.0521 Y43.9851 
G01 X8.0602 Y43.9976 
G01 X8.0766 Y44.0123 
G01 X8.0913 Y44.0287 
G01 X8.1037 Y44.0367 
G01 X8.1148 Y44.0466 
G01 X8.1344 Y44.0566 
G01 X8.1492 Y44.0663 
G01 X8.2658 Y44.1510 
G01 X8.3762 Y44.2614 
G01 X8.4679 Y44.3876 
G00 Z2.5400 
G00 X7.2906 Y44.0823 
G01 Z-0.1778 F254.00 
G01 X7.1993 Y44.1201 F508.00 
G01 X7.0538 Y44.2173 
G01 X6.9301 Y44.3410 
G01 X6.8329 Y44.4865 
G01 X6.7659 Y44.6481 
G01 X6.7318 Y44.8197 
G01 X6.7318 Y45.3906 
G01 X6.6286 Y45.3906 
G01 X6.6286 Y44.8292 
G01 X6.6530 Y44.6750 
G01 X6.7012 Y44.5266 
G01 X6.7721 Y44.3876 
G01 X6.8638 Y44.2614 
G01 X6.9741 Y44.1510 
G01 X7.0908 Y44.0663 
G01 X7.1056 Y44.0566 
G01 X7.1252 Y44.0466 
G01 X7.1363 Y44.0367 
G01 X7.1487 Y44.0287 
G01 X7.1634 Y44.0123 
G01 X7.1798 Y43.9976 
G01 X7.1878 Y43.9851 
G01 X7.1977 Y43.9741 
G01 X7.2077 Y43.9545 
G01 X7.2197 Y43.9361 
G01 X7.2243 Y43.9220 
G01 X7.2310 Y43.9088 
G01 X7.2356 Y43.8872 
G01 X7.2424 Y43.8663 
G01 X7.2432 Y43.8515 
G01 X7.2463 Y43.8370 
G01 X7.2451 Y43.8150 
G01 X7.2463 Y43.7930 
G01 X7.2432 Y43.7786 
G01 X7.2424 Y43.7638 
G01 X7.2356 Y43.7428 
G01 X7.2311 Y43.7213 
G01 X7.2243 Y43.7081 
G01 X7.2198 Y43.6940 
G01 X7.2078 Y43.6755 
G01 X7.1978 Y43.6559 
G01 X7.1879 Y43.6449 
G01 X7.1798 Y43.6325 
G01 X7.1635 Y43.6178 
G01 X7.1487 Y43.6014 
G01 X7.1363 Y43.5933 
G01 X7.1253 Y43.5834 
G01 X7.1057 Y43.5734 
G01 X7.0907 Y43.5637 
G01 X6.9741 Y43.4790 
G01 X6.8638 Y43.3686 
G01 X6.7721 Y43.2424 
G01 X6.7012 Y43.1034 
G01 X6.6530 Y42.9549 
G01 X6.6286 Y42.8008 
G01 X6.6286 Y42.2394 
G01 X6.7318 Y42.2394 
G01 X6.7318 Y42.8103 
G01 X6.7659 Y42.9819 
G01 X6.8329 Y43.1435 
G01 X6.9301 Y43.2890 
G01 X7.0538 Y43.4127 
G01 X7.1993 Y43.5099 
G01 X7.2906 Y43.5477 
G01 X7.2906 Y44.0823 
G00 Z2.5400 
G00 X6.7318 Y46.0494 
G01 Z-0.1778 F254.00 
G01 X6.7318 Y46.6203 F508.00 
G01 X6.7659 Y46.7919 
G01 X6.8329 Y46.9535 
G01 X6.9301 Y47.0990 
G01 X7.0538 Y47.2227 
G01 X7.1993 Y47.3199 
G01 X7.2906 Y47.3577 
G01 X7.2906 Y47.4682 
G01 X7.2394 Y47.4516 
G01 X7.1004 Y47.3807 
G01 X6.9741 Y47.2890 
G01 X6.8638 Y47.1786 
G01 X6.7721 Y47.0524 
G01 X6.7012 Y46.9134 
G01 X6.6530 Y46.7649 
G01 X6.6286 Y46.6108 
G01 X6.6286 Y46.0494 
G01 X6.7318 Y46.0494 
G00 Z2.5400 
G00 X8.5082 Y46.0494 
G01 Z-0.1778 F254.00 
G01 X8.6114 Y46.0494 F508.00 
G01 X8.6114 Y46.6108 
G01 X8.5870 Y46.7649 
G01 X8.5388 Y46.9134 
G01 X8.4679 Y47.0524 
G01 X8.3762 Y47.1786 
G01 X8.2658 Y47.2890 
G01 X8.1396 Y47.3807 
G01 X8.0006 Y47.4516 
G01 X7.9494 Y47.4682 
G01 X7.9494 Y47.3577 
G01 X8.0407 Y47.3199 
G01 X8.1862 Y47.2227 
G01 X8.3099 Y47.0990 
G01 X8.4071 Y46.9535 
G01 X8.4741 Y46.7919 
G01 X8.5082 Y46.6203 
G01 X8.5082 Y46.0494 
G00 Z2.5400 
G00 X5.9691 Y50.4076 
G01 Z-0.1778 F254.00 
G01 X6.1201 Y50.7720 F508.00 
G01 X6.1201 Y51.1664 
G01 X5.9691 Y51.5308 
G01 X4.5408 Y52.9592 
G01 X4.1764 Y53.1101 
G01 X3.7820 Y53.1101 
G01 X3.4176 Y52.9592 
G01 X3.1387 Y52.6803 
G01 X2.9878 Y52.3159 
G01 X2.9878 Y51.9215 
G01 X3.1387 Y51.5571 
G01 X4.5671 Y50.1287 
G01 X4.9315 Y49.9778 
G01 X5.3259 Y49.9778 
G01 X5.6903 Y50.1287 
G01 X5.9691 Y50.4076 
G00 Z2.5400 
G00 X5.8186 Y50.4030 
G01 Z-0.1778 F254.00 
G01 X5.6949 Y50.2793 F508.00 
G01 X5.5494 Y50.1821 
G01 X5.3878 Y50.1151 
G01 X5.2162 Y50.0810 
G01 X5.0412 Y50.0810 
G01 X4.8696 Y50.1151 
G01 X4.7080 Y50.1821 
G01 X4.5625 Y50.2793 
G01 X3.2893 Y51.5525 
G01 X3.1921 Y51.6980 
G01 X3.1251 Y51.8596 
G01 X3.0910 Y52.0312 
G01 X3.0910 Y52.2062 
G01 X3.1251 Y52.3778 
G01 X3.1921 Y52.5394 
G01 X3.2893 Y52.6849 
G01 X3.4130 Y52.8086 
G01 X3.5585 Y52.9058 
G01 X3.7201 Y52.9727 
G01 X3.8917 Y53.0069 
G01 X4.0667 Y53.0069 
G01 X4.2383 Y52.9727 
G01 X4.3999 Y52.9058 
G01 X4.5454 Y52.8086 
G01 X5.8186 Y51.5354 
G01 X5.9158 Y51.3899 
G01 X5.9827 Y51.2283 
G01 X6.0169 Y51.0567 
G01 X6.0169 Y50.8817 
G01 X5.9827 Y50.7101 
G01 X5.9158 Y50.5485 
G01 X5.8186 Y50.4030 
G00 Z2.5400 
G00 X6.3632 Y51.9248 
G01 Z-0.1778 F254.00 
G01 X6.7275 Y51.7739 F508.00 
G01 X7.1219 Y51.7739 
G01 X7.4863 Y51.9248 
G01 X7.7652 Y52.2037 
G01 X7.9161 Y52.5681 
G01 X7.9161 Y52.9625 
G01 X7.7652 Y53.3268 
G01 X6.3368 Y54.7552 
G01 X5.9725 Y54.9061 
G01 X5.5781 Y54.9061 
G01 X5.2137 Y54.7552 
G01 X4.9348 Y54.4763 
G01 X4.7839 Y54.1119 
G01 X4.7839 Y53.7175 
G01 X4.9348 Y53.3531 
G01 X6.3632 Y51.9248 
G00 Z2.5400 
G00 X6.3585 Y52.0754 
G01 Z-0.1778 F254.00 
G01 X5.0854 Y53.3485 F508.00 
G01 X4.9882 Y53.4940 
G01 X4.9212 Y53.6557 
G01 X4.8871 Y53.8272 
G01 X4.8871 Y54.0022 
G01 X4.9212 Y54.1738 
G01 X4.9882 Y54.3355 
G01 X5.0854 Y54.4809 
G01 X5.2091 Y54.6046 
G01 X5.3545 Y54.7018 
G01 X5.5162 Y54.7688 
G01 X5.6878 Y54.8029 
G01 X5.8627 Y54.8029 
G01 X6.0343 Y54.7688 
G01 X6.1960 Y54.7018 
G01 X6.3415 Y54.6046 
G01 X7.6146 Y53.3315 
G01 X7.7118 Y53.1860 
G01 X7.7788 Y53.0243 
G01 X7.8129 Y52.8527 
G01 X7.8129 Y52.6778 
G01 X7.7788 Y52.5062 
G01 X7.7118 Y52.3445 
G01 X7.6146 Y52.1991 
G01 X7.4909 Y52.0754 
G01 X7.3455 Y51.9782 
G01 X7.1838 Y51.9112 
G01 X7.0122 Y51.8771 
G01 X6.8373 Y51.8771 
G01 X6.6657 Y51.9112 
G01 X6.5040 Y51.9782 
G01 X6.3585 Y52.0754 
G00 Z2.5400 
G00 X6.7308 Y55.1492 
G01 Z-0.1778 F254.00 
G01 X8.1592 Y53.7208 F508.00 
G01 X8.5236 Y53.5699 
G01 X8.9180 Y53.5699 
G01 X9.2824 Y53.7208 
G01 X9.5613 Y53.9997 
G01 X9.7122 Y54.3641 
G01 X9.7122 Y54.7585 
G01 X9.5613 Y55.1229 
G01 X8.1329 Y56.5513 
G01 X7.7685 Y56.7022 
G01 X7.3741 Y56.7022 
G01 X7.0097 Y56.5513 
G01 X6.7308 Y56.2724 
G01 X6.5799 Y55.9080 
G01 X6.5799 Y55.5136 
G01 X6.7308 Y55.1492 
G00 Z2.5400 
G00 X6.8814 Y55.1446 
G01 Z-0.1778 F254.00 
G01 X6.7842 Y55.2901 F508.00 
G01 X6.7172 Y55.4517 
G01 X6.6831 Y55.6233 
G01 X6.6831 Y55.7983 
G01 X6.7172 Y55.9699 
G01 X6.7842 Y56.1315 
G01 X6.8814 Y56.2770 
G01 X7.0051 Y56.4007 
G01 X7.1506 Y56.4979 
G01 X7.3122 Y56.5648 
G01 X7.4838 Y56.5990 
G01 X7.6588 Y56.5990 
G01 X7.8304 Y56.5648 
G01 X7.9920 Y56.4979 
G01 X8.1375 Y56.4007 
G01 X9.4107 Y55.1275 
G01 X9.5079 Y54.9820 
G01 X9.5748 Y54.8204 
G01 X9.6090 Y54.6488 
G01 X9.6090 Y54.4738 
G01 X9.5748 Y54.3022 
G01 X9.5079 Y54.1406 
G01 X9.4107 Y53.9951 
G01 X9.2870 Y53.8714 
G01 X9.1415 Y53.7742 
G01 X8.9799 Y53.7073 
G01 X8.8083 Y53.6731 
G01 X8.6333 Y53.6731 
G01 X8.4617 Y53.7073 
G01 X8.3001 Y53.7742 
G01 X8.1546 Y53.8714 
G01 X6.8814 Y55.1446 
G00 Z2.5400 
G00 X13.0818 Y54.9797 
G01 Z-0.1778 F254.00 
G01 X13.0818 Y56.7803 F508.00 
G01 X13.1159 Y56.9519 
G01 X13.1829 Y57.1135 
G01 X13.2801 Y57.2590 
G01 X13.4038 Y57.3827 
G01 X13.5493 Y57.4799 
G01 X13.7109 Y57.5469 
G01 X13.8825 Y57.5810 
G01 X14.0575 Y57.5810 
G01 X14.2291 Y57.5469 
G01 X14.3907 Y57.4799 
G01 X14.5362 Y57.3827 
G01 X14.6599 Y57.2590 
G01 X14.7571 Y57.1135 
G01 X14.8241 Y56.9519 
G01 X14.8582 Y56.7803 
G01 X14.8582 Y54.9797 
G01 X14.8241 Y54.8081 
G01 X14.7571 Y54.6465 
G01 X14.6599 Y54.5010 
G01 X14.5362 Y54.3773 
G01 X14.3907 Y54.2801 
G01 X14.2291 Y54.2131 
G01 X14.0575 Y54.1790 
G01 X13.8825 Y54.1790 
G01 X13.7109 Y54.2131 
G01 X13.5493 Y54.2801 
G01 X13.4038 Y54.3773 
G01 X13.2801 Y54.5010 
G01 X13.1829 Y54.6465 
G01 X13.1159 Y54.8081 
G01 X13.0818 Y54.9797 
G00 Z2.5400 
G00 X12.9786 Y54.8700 
G01 Z-0.1778 F254.00 
G01 X13.1295 Y54.5056 F508.00 
G01 X13.4084 Y54.2267 
G01 X13.7728 Y54.0758 
G01 X14.1672 Y54.0758 
G01 X14.5316 Y54.2267 
G01 X14.8105 Y54.5056 
G01 X14.9614 Y54.8700 
G01 X14.9614 Y56.8900 
G01 X14.8105 Y57.2544 
G01 X14.5316 Y57.5333 
G01 X14.1672 Y57.6842 
G01 X13.7728 Y57.6842 
G01 X13.4084 Y57.5333 
G01 X13.1295 Y57.2544 
G01 X12.9786 Y56.8900 
G01 X12.9786 Y54.8700 
G00 Z2.5400 
G00 X15.5186 Y54.8700 
G01 Z-0.1778 F254.00 
G01 X15.6695 Y54.5056 F508.00 
G01 X15.9484 Y54.2267 
G01 X16.3128 Y54.0758 
G01 X16.7072 Y54.0758 
G01 X17.0716 Y54.2267 
G01 X17.3505 Y54.5056 
G01 X17.5014 Y54.8700 
G01 X17.5014 Y56.8900 
G01 X17.3505 Y57.2544 
G01 X17.0716 Y57.5333 
G01 X16.7072 Y57.6842 
G01 X16.3128 Y57.6842 
G01 X15.9484 Y57.5333 
G01 X15.6695 Y57.2544 
G01 X15.5186 Y56.8900 
G01 X15.5186 Y54.8700 
G00 Z2.5400 
G00 X15.6559 Y54.8081 
G01 Z-0.1778 F254.00 
G01 X15.6218 Y54.9797 F508.00 
G01 X15.6218 Y56.7803 
G01 X15.6559 Y56.9519 
G01 X15.7229 Y57.1135 
G01 X15.8201 Y57.2590 
G01 X15.9438 Y57.3827 
G01 X16.0893 Y57.4799 
G01 X16.2509 Y57.5469 
G01 X16.4225 Y57.5810 
G01 X16.5975 Y57.5810 
G01 X16.7691 Y57.5469 
G01 X16.9307 Y57.4799 
G01 X17.0762 Y57.3827 
G01 X17.1999 Y57.2590 
G01 X17.2971 Y57.1135 
G01 X17.3641 Y56.9519 
G01 X17.3982 Y56.7803 
G01 X17.3982 Y54.9797 
G01 X17.3641 Y54.8081 
G01 X17.2971 Y54.6465 
G01 X17.1999 Y54.5010 
G01 X17.0762 Y54.3773 
G01 X16.9307 Y54.2801 
G01 X16.7691 Y54.2131 
G01 X16.5975 Y54.1790 
G01 X16.4225 Y54.1790 
G01 X16.2509 Y54.2131 
G01 X16.0893 Y54.2801 
G01 X15.9438 Y54.3773 
G01 X15.8201 Y54.5010 
G01 X15.7229 Y54.6465 
G01 X15.6559 Y54.8081 
G00 Z2.5400 
G00 X18.1959 Y54.8081 
G01 Z-0.1778 F254.00 
G01 X18.1618 Y54.9797 F508.00 
G01 X18.1618 Y56.7803 
G01 X18.1959 Y56.9519 
G01 X18.2629 Y57.1135 
G01 X18.3601 Y57.2590 
G01 X18.4838 Y57.3827 
G01 X18.6293 Y57.4799 
G01 X18.7909 Y57.5469 
G01 X18.9625 Y57.5810 
G01 X19.1375 Y57.5810 
G01 X19.3091 Y57.5469 
G01 X19.4707 Y57.4799 
G01 X19.6162 Y57.3827 
G01 X19.7399 Y57.2590 
G01 X19.8371 Y57.1135 
G01 X19.9041 Y56.9519 
G01 X19.9382 Y56.7803 
G01 X19.9382 Y54.9797 
G01 X19.9041 Y54.8081 
G01 X19.8371 Y54.6465 
G01 X19.7399 Y54.5010 
G01 X19.6162 Y54.3773 
G01 X19.4707 Y54.2801 
G01 X19.3091 Y54.2131 
G01 X19.1375 Y54.1790 
G01 X18.9625 Y54.1790 
G01 X18.7909 Y54.2131 
G01 X18.6293 Y54.2801 
G01 X18.4838 Y54.3773 
G01 X18.3601 Y54.5010 
G01 X18.2629 Y54.6465 
G01 X18.1959 Y54.8081 
G00 Z2.5400 
G00 X20.7359 Y54.8081 
G01 Z-0.1778 F254.00 
G01 X20.7018 Y54.9797 F508.00 
G01 X20.7018 Y56.7803 
G01 X20.7359 Y56.9519 
G01 X20.8029 Y57.1135 
G01 X20.9001 Y57.2590 
G01 X21.0238 Y57.3827 
G01 X21.1693 Y57.4799 
G01 X21.3309 Y57.5469 
G01 X21.5025 Y57.5810 
G01 X21.6775 Y57.5810 
G01 X21.8491 Y57.5469 
G01 X22.0107 Y57.4799 
G01 X22.1562 Y57.3827 
G01 X22.2799 Y57.2590 
G01 X22.3771 Y57.1135 
G01 X22.4441 Y56.9519 
G01 X22.4782 Y56.7803 
G01 X22.4782 Y54.9797 
G01 X22.4441 Y54.8081 
G01 X22.3771 Y54.6465 
G01 X22.2799 Y54.5010 
G01 X22.1562 Y54.3773 
G01 X22.0107 Y54.2801 
G01 X21.8491 Y54.2131 
G01 X21.6775 Y54.1790 
G01 X21.5025 Y54.1790 
G01 X21.3309 Y54.2131 
G01 X21.1693 Y54.2801 
G01 X21.0238 Y54.3773 
G01 X20.9001 Y54.5010 
G01 X20.8029 Y54.6465 
G01 X20.7359 Y54.8081 
G00 Z2.5400 
G00 X20.5807 Y53.9694 
G01 Z-0.1778 F254.00 
G01 X20.9315 Y53.6186 F508.00 
G01 X25.4367 Y53.6186 
G01 X25.5075 Y53.5996 
G01 X25.5711 Y53.5629 
G01 X26.8411 Y52.2929 
G01 X26.8929 Y52.2411 
G01 X26.9296 Y52.1775 
G01 X26.9486 Y52.1067 
G01 X26.9486 Y44.5654 
G01 X28.0554 Y43.4586 
G01 X57.0346 Y43.4586 
G01 X58.1414 Y44.5654 
G01 X58.1414 Y50.8367 
G01 X58.1604 Y50.9075 
G01 X58.1971 Y50.9711 
G01 X59.4671 Y52.2411 
G01 X59.5189 Y52.2929 
G01 X59.5825 Y52.3296 
G01 X59.6533 Y52.3486 
G01 X61.8418 Y52.3486 
G01 X61.8418 Y52.4379 
G01 X62.3621 Y52.9582 
G01 X63.0979 Y52.9582 
G01 X63.6182 Y52.4379 
G01 X63.6182 Y51.7021 
G01 X63.0979 Y51.1818 
G01 X62.3621 Y51.1818 
G01 X61.8418 Y51.7021 
G01 X61.8418 Y51.7914 
G01 X59.8054 Y51.7914 
G01 X58.6986 Y50.6846 
G01 X58.6986 Y44.4133 
G01 X58.6796 Y44.3425 
G01 X58.6429 Y44.2789 
G01 X58.5911 Y44.2271 
G01 X57.3211 Y42.9571 
G01 X57.2575 Y42.9204 
G01 X57.1867 Y42.9014 
G01 X27.9033 Y42.9014 
G01 X27.8325 Y42.9204 
G01 X27.7689 Y42.9571 
G01 X27.7171 Y43.0089 
G01 X26.4471 Y44.2789 
G01 X26.4104 Y44.3425 
G01 X26.3914 Y44.4133 
G01 X26.3914 Y51.9546 
G01 X25.2846 Y53.0614 
G01 X20.9315 Y53.0614 
G01 X20.5807 Y52.7106 
G01 X20.0593 Y52.7106 
G01 X19.6906 Y53.0793 
G01 X19.6906 Y53.6007 
G01 X20.0593 Y53.9694 
G01 X20.5807 Y53.9694 
G00 Z2.5400 
G00 X22.5993 Y52.6994 
G01 Z-0.1778 F254.00 
G01 X23.1207 Y52.6994 F508.00 
G01 X23.4894 Y52.3307 
G01 X23.4894 Y51.8346 
G01 X24.3011 Y51.0229 
G01 X24.3529 Y50.9711 
G01 X24.3896 Y50.9075 
G01 X24.4086 Y50.8367 
G01 X24.4086 Y43.2954 
G01 X25.5154 Y42.1886 
G01 X58.3046 Y42.1886 
G01 X59.4114 Y43.2954 
G01 X59.4114 Y48.2967 
G01 X59.4304 Y48.3675 
G01 X59.4671 Y48.4311 
G01 X60.7371 Y49.7011 
G01 X60.7889 Y49.7529 
G01 X60.8525 Y49.7896 
G01 X60.9233 Y49.8086 
G01 X61.8418 Y49.8086 
G01 X61.8418 Y49.8979 
G01 X62.3621 Y50.4182 
G01 X63.0979 Y50.4182 
G01 X63.6182 Y49.8979 
G01 X63.6182 Y49.1621 
G01 X63.0979 Y48.6418 
G01 X62.3621 Y48.6418 
G01 X61.8418 Y49.1621 
G01 X61.8418 Y49.2514 
G01 X61.0754 Y49.2514 
G01 X59.9686 Y48.1446 
G01 X59.9686 Y43.1433 
G01 X59.9496 Y43.0725 
G01 X59.9129 Y43.0089 
G01 X59.8611 Y42.9571 
G01 X58.5911 Y41.6871 
G01 X58.5275 Y41.6504 
G01 X58.4567 Y41.6314 
G01 X25.3633 Y41.6314 
G01 X25.2925 Y41.6504 
G01 X25.2289 Y41.6871 
G01 X25.1771 Y41.7389 
G01 X23.9071 Y43.0089 
G01 X23.8704 Y43.0725 
G01 X23.8514 Y43.1433 
G01 X23.8514 Y50.6846 
G01 X23.0954 Y51.4406 
G01 X22.5993 Y51.4406 
G01 X22.2306 Y51.8093 
G01 X22.2306 Y52.3307 
G01 X22.5993 Y52.6994 
G00 Z2.5400 
G00 X23.1386 Y56.2094 
G01 Z-0.1778 F254.00 
G01 X23.2418 Y56.2094 F508.00 
G01 X23.2418 Y56.7803 
G01 X23.2759 Y56.9519 
G01 X23.3429 Y57.1135 
G01 X23.4401 Y57.2590 
G01 X23.5638 Y57.3827 
G01 X23.7093 Y57.4799 
G01 X23.8006 Y57.5177 
G01 X23.8006 Y57.6282 
G01 X23.7494 Y57.6116 
G01 X23.6104 Y57.5407 
G01 X23.4841 Y57.4490 
G01 X23.3738 Y57.3386 
G01 X23.2821 Y57.2124 
G01 X23.2112 Y57.0734 
G01 X23.1630 Y56.9249 
G01 X23.1386 Y56.7708 
G01 X23.1386 Y56.2094 
G00 Z2.5400 
G00 X25.0182 Y56.2094 
G01 Z-0.1778 F254.00 
G01 X25.1214 Y56.2094 F508.00 
G01 X25.1214 Y56.7708 
G01 X25.0970 Y56.9250 
G01 X25.0488 Y57.0734 
G01 X24.9779 Y57.2124 
G01 X24.8862 Y57.3386 
G01 X24.7758 Y57.4490 
G01 X24.6496 Y57.5407 
G01 X24.5106 Y57.6116 
G01 X24.4594 Y57.6282 
G01 X24.4594 Y57.5177 
G01 X24.5507 Y57.4799 
G01 X24.6962 Y57.3827 
G01 X24.8199 Y57.2590 
G01 X24.9171 Y57.1135 
G01 X24.9841 Y56.9519 
G01 X25.0182 Y56.7803 
G01 X25.0182 Y56.2094 
G00 Z2.5400 
G00 X25.6786 Y56.7782 
G01 Z-0.1778 F254.00 
G01 X25.6786 Y54.9818 F508.00 
G01 X25.6809 Y54.9599 
G01 X25.6786 Y54.9453 
G01 X25.6786 Y54.8700 
G01 X25.8295 Y54.5056 
G01 X26.1084 Y54.2267 
G01 X26.4728 Y54.0758 
G01 X26.8672 Y54.0758 
G01 X27.2316 Y54.2267 
G01 X27.5105 Y54.5056 
G01 X27.6614 Y54.8700 
G01 X27.6614 Y56.8900 
G01 X27.5105 Y57.2544 
G01 X27.2316 Y57.5333 
G01 X26.8672 Y57.6842 
G01 X26.4728 Y57.6842 
G01 X26.1084 Y57.5333 
G01 X25.8295 Y57.2544 
G01 X25.6786 Y56.8900 
G01 X25.6786 Y56.8147 
G01 X25.6809 Y56.8001 
G01 X25.6786 Y56.7782 
G00 Z2.5400 
G00 X25.7818 Y56.7803 
G01 Z-0.1778 F254.00 
G01 X25.8159 Y56.9519 F508.00 
G01 X25.8829 Y57.1135 
G01 X25.9801 Y57.2590 
G01 X26.1038 Y57.3827 
G01 X26.2493 Y57.4799 
G01 X26.4109 Y57.5469 
G01 X26.5825 Y57.5810 
G01 X26.7575 Y57.5810 
G01 X26.9291 Y57.5469 
G01 X27.0907 Y57.4799 
G01 X27.2362 Y57.3827 
G01 X27.3599 Y57.2590 
G01 X27.4571 Y57.1135 
G01 X27.5241 Y56.9519 
G01 X27.5582 Y56.7803 
G01 X27.5582 Y54.9797 
G01 X27.5241 Y54.8081 
G01 X27.4571 Y54.6465 
G01 X27.3599 Y54.5010 
G01 X27.2362 Y54.3773 
G01 X27.0907 Y54.2801 
G01 X26.9291 Y54.2131 
G01 X26.7575 Y54.1790 
G01 X26.5825 Y54.1790 
G01 X26.4109 Y54.2131 
G01 X26.2493 Y54.2801 
G01 X26.1038 Y54.3773 
G01 X25.9801 Y54.5010 
G01 X25.8829 Y54.6465 
G01 X25.8159 Y54.8081 
G01 X25.7818 Y54.9797 
G01 X25.7818 Y56.7803 
G00 Z2.5400 
G00 X29.7474 Y53.6434 
G01 Z-0.1778 F254.00 
G01 X29.7474 Y53.0365 F508.00 
G01 X30.1765 Y52.6074 
G01 X30.7834 Y52.6074 
G01 X31.0267 Y52.8507 
G01 X31.0786 Y52.9025 
G01 X31.1421 Y52.9392 
G01 X31.2130 Y52.9582 
G01 X58.4959 Y52.9582 
G01 X58.6363 Y53.0163 
G01 X59.7406 Y54.1207 
G01 X59.7925 Y54.1725 
G01 X59.8560 Y54.2092 
G01 X59.9269 Y54.2282 
G01 X61.6310 Y54.2282 
G01 X61.7019 Y54.2092 
G01 X61.7654 Y54.1725 
G01 X61.8173 Y54.1207 
G01 X62.3194 Y53.6186 
G01 X63.1406 Y53.6186 
G01 X63.7214 Y54.1993 
G01 X63.7214 Y55.0206 
G01 X63.1406 Y55.6014 
G01 X62.3194 Y55.6014 
G01 X61.8173 Y55.0993 
G01 X61.7654 Y55.0475 
G01 X61.7019 Y55.0108 
G01 X61.6310 Y54.9918 
G01 X59.6140 Y54.9918 
G01 X59.4737 Y54.9337 
G01 X59.3531 Y54.8130 
G01 X58.3694 Y53.8293 
G01 X58.3175 Y53.7775 
G01 X58.2540 Y53.7408 
G01 X58.1831 Y53.7218 
G01 X43.2326 Y53.7218 
G01 X43.1617 Y53.7408 
G01 X43.0982 Y53.7775 
G01 X43.0471 Y53.8285 
G01 X43.0096 Y53.8929 
G01 X42.9906 Y53.9637 
G01 X42.9906 Y54.0371 
G01 X43.0096 Y54.1079 
G01 X43.0463 Y54.1715 
G01 X43.0982 Y54.2233 
G01 X43.3805 Y54.5056 
G01 X43.5314 Y54.8700 
G01 X43.5314 Y56.8900 
G01 X43.3805 Y57.2544 
G01 X43.1016 Y57.5333 
G01 X42.7372 Y57.6842 
G01 X42.3428 Y57.6842 
G01 X41.9784 Y57.5333 
G01 X41.6995 Y57.2544 
G01 X41.5486 Y56.8900 
G01 X41.5486 Y54.8700 
G01 X41.6995 Y54.5056 
G01 X41.9818 Y54.2233 
G01 X42.0337 Y54.1715 
G01 X42.0704 Y54.1079 
G01 X42.0894 Y54.0371 
G01 X42.0894 Y53.9637 
G01 X42.0704 Y53.8929 
G01 X42.0337 Y53.8293 
G01 X41.9818 Y53.7775 
G01 X41.9183 Y53.7408 
G01 X41.8474 Y53.7218 
G01 X40.6926 Y53.7218 
G01 X40.6217 Y53.7408 
G01 X40.5582 Y53.7775 
G01 X40.5071 Y53.8285 
G01 X40.4696 Y53.8929 
G01 X40.4506 Y53.9637 
G01 X40.4506 Y54.0371 
G01 X40.4696 Y54.1079 
G01 X40.5063 Y54.1715 
G01 X40.5582 Y54.2233 
G01 X40.8405 Y54.5056 
G01 X40.9914 Y54.8700 
G01 X40.9914 Y56.8900 
G01 X40.8405 Y57.2544 
G01 X40.5616 Y57.5333 
G01 X40.1972 Y57.6842 
G01 X39.8028 Y57.6842 
G01 X39.4384 Y57.5333 
G01 X39.1595 Y57.2544 
G01 X39.0086 Y56.8900 
G01 X39.0086 Y54.8700 
G01 X39.1595 Y54.5056 
G01 X39.4418 Y54.2233 
G01 X39.4937 Y54.1715 
G01 X39.5304 Y54.1079 
G01 X39.5493 Y54.0371 
G01 X39.5493 Y53.9637 
G01 X39.5304 Y53.8929 
G01 X39.4937 Y53.8293 
G01 X39.4418 Y53.7775 
G01 X39.3783 Y53.7408 
G01 X39.3074 Y53.7218 
G01 X38.1526 Y53.7218 
G01 X38.0817 Y53.7408 
G01 X38.0182 Y53.7775 
G01 X37.9671 Y53.8285 
G01 X37.9296 Y53.8929 
G01 X37.9106 Y53.9637 
G01 X37.9106 Y54.0371 
G01 X37.9296 Y54.1079 
G01 X37.9663 Y54.1715 
G01 X38.0182 Y54.2233 
G01 X38.3005 Y54.5056 
G01 X38.4514 Y54.8700 
G01 X38.4514 Y56.8900 
G01 X38.3005 Y57.2544 
G01 X38.0216 Y57.5333 
G01 X37.6572 Y57.6842 
G01 X37.2628 Y57.6842 
G01 X36.8984 Y57.5333 
G01 X36.6195 Y57.2544 
G01 X36.4686 Y56.8900 
G01 X36.4686 Y54.8700 
G01 X36.6195 Y54.5056 
G01 X36.9018 Y54.2233 
G01 X36.9537 Y54.1715 
G01 X36.9904 Y54.1079 
G01 X37.0093 Y54.0371 
G01 X37.0093 Y53.9637 
G01 X36.9904 Y53.8929 
G01 X36.9537 Y53.8293 
G01 X36.9018 Y53.7775 
G01 X36.8383 Y53.7408 
G01 X36.7674 Y53.7218 
G01 X31.2863 Y53.7218 
G01 X31.2130 Y53.7218 
G01 X31.1421 Y53.7408 
G01 X31.0786 Y53.7775 
G01 X30.7834 Y54.0726 
G01 X30.1765 Y54.0726 
G01 X29.7474 Y53.6434 
G00 Z2.5400 
G00 X29.8506 Y53.6007 
G01 Z-0.1778 F254.00 
G01 X30.2193 Y53.9694 F508.00 
G01 X30.7407 Y53.9694 
G01 X31.0915 Y53.6186 
G01 X58.3046 Y53.6186 
G01 X59.5189 Y54.8329 
G01 X59.5825 Y54.8696 
G01 X59.6533 Y54.8886 
G01 X61.8418 Y54.8886 
G01 X61.8418 Y54.9779 
G01 X62.3621 Y55.4982 
G01 X63.0979 Y55.4982 
G01 X63.6182 Y54.9779 
G01 X63.6182 Y54.2421 
G01 X63.0979 Y53.7218 
G01 X62.3621 Y53.7218 
G01 X61.8418 Y54.2421 
G01 X61.8418 Y54.3314 
G01 X59.8054 Y54.3314 
G01 X58.5911 Y53.1171 
G01 X58.5275 Y53.0804 
G01 X58.4567 Y53.0614 
G01 X31.0915 Y53.0614 
G01 X30.7407 Y52.7106 
G01 X30.2193 Y52.7106 
G01 X29.8506 Y53.0793 
G01 X29.8506 Y53.6007 
G00 Z2.5400 
G00 X36.7701 Y54.5010 
G01 Z-0.1778 F254.00 
G01 X36.6729 Y54.6465 F508.00 
G01 X36.6059 Y54.8081 
G01 X36.5718 Y54.9797 
G01 X36.5718 Y56.7803 
G01 X36.6059 Y56.9519 
G01 X36.6729 Y57.1135 
G01 X36.7701 Y57.2590 
G01 X36.8938 Y57.3827 
G01 X37.0393 Y57.4799 
G01 X37.2009 Y57.5469 
G01 X37.3725 Y57.5810 
G01 X37.5475 Y57.5810 
G01 X37.7191 Y57.5469 
G01 X37.8807 Y57.4799 
G01 X38.0262 Y57.3827 
G01 X38.1499 Y57.2590 
G01 X38.2471 Y57.1135 
G01 X38.3141 Y56.9519 
G01 X38.3482 Y56.7803 
G01 X38.3482 Y54.9797 
G01 X38.3141 Y54.8081 
G01 X38.2471 Y54.6465 
G01 X38.1499 Y54.5010 
G01 X38.0262 Y54.3773 
G01 X37.8807 Y54.2801 
G01 X37.7191 Y54.2131 
G01 X37.5475 Y54.1790 
G01 X37.3725 Y54.1790 
G01 X37.2009 Y54.2131 
G01 X37.0393 Y54.2801 
G01 X36.8938 Y54.3773 
G01 X36.7701 Y54.5010 
G00 Z2.5400 
G00 X39.3101 Y54.5010 
G01 Z-0.1778 F254.00 
G01 X39.2129 Y54.6465 F508.00 
G01 X39.1459 Y54.8081 
G01 X39.1118 Y54.9797 
G01 X39.1118 Y56.7803 
G01 X39.1459 Y56.9519 
G01 X39.2129 Y57.1135 
G01 X39.3101 Y57.2590 
G01 X39.4338 Y57.3827 
G01 X39.5793 Y57.4799 
G01 X39.7409 Y57.5469 
G01 X39.9125 Y57.5810 
G01 X40.0875 Y57.5810 
G01 X40.2591 Y57.5469 
G01 X40.4207 Y57.4799 
G01 X40.5662 Y57.3827 
G01 X40.6899 Y57.2590 
G01 X40.7871 Y57.1135 
G01 X40.8541 Y56.9519 
G01 X40.8882 Y56.7803 
G01 X40.8882 Y54.9797 
G01 X40.8541 Y54.8081 
G01 X40.7871 Y54.6465 
G01 X40.6899 Y54.5010 
G01 X40.5662 Y54.3773 
G01 X40.4207 Y54.2801 
G01 X40.2591 Y54.2131 
G01 X40.0875 Y54.1790 
G01 X39.9125 Y54.1790 
G01 X39.7409 Y54.2131 
G01 X39.5793 Y54.2801 
G01 X39.4338 Y54.3773 
G01 X39.3101 Y54.5010 
G00 Z2.5400 
G00 X41.8501 Y54.5010 
G01 Z-0.1778 F254.00 
G01 X41.7529 Y54.6465 F508.00 
G01 X41.6859 Y54.8081 
G01 X41.6518 Y54.9797 
G01 X41.6518 Y56.7803 
G01 X41.6859 Y56.9519 
G01 X41.7529 Y57.1135 
G01 X41.8501 Y57.2590 
G01 X41.9738 Y57.3827 
G01 X42.1193 Y57.4799 
G01 X42.2809 Y57.5469 
G01 X42.4525 Y57.5810 
G01 X42.6275 Y57.5810 
G01 X42.7991 Y57.5469 
G01 X42.9607 Y57.4799 
G01 X43.1062 Y57.3827 
G01 X43.2299 Y57.2590 
G01 X43.3271 Y57.1135 
G01 X43.3941 Y56.9519 
G01 X43.4282 Y56.7803 
G01 X43.4282 Y54.9797 
G01 X43.3941 Y54.8081 
G01 X43.3271 Y54.6465 
G01 X43.2299 Y54.5010 
G01 X43.1062 Y54.3773 
G01 X42.9607 Y54.2801 
G01 X42.7991 Y54.2131 
G01 X42.6275 Y54.1790 
G01 X42.4525 Y54.1790 
G01 X42.2809 Y54.2131 
G01 X42.1193 Y54.2801 
G01 X41.9738 Y54.3773 
G01 X41.8501 Y54.5010 
G00 Z2.5400 
G00 X45.4165 Y55.1474 
G01 Z-0.1778 F254.00 
G01 X46.0234 Y55.1474 F508.00 
G01 X46.4526 Y55.5765 
G01 X46.4526 Y55.9939 
G01 X46.4716 Y56.0648 
G01 X46.5083 Y56.1283 
G01 X47.0406 Y56.6607 
G01 X47.0925 Y56.7125 
G01 X47.1560 Y56.7492 
G01 X47.2269 Y56.7682 
G01 X64.5331 Y56.7682 
G01 X64.6040 Y56.7492 
G01 X64.6675 Y56.7125 
G01 X64.7807 Y56.5994 
G01 X64.8325 Y56.5475 
