(.../Tools/pcb/gcode/pcb-gcode.ulp)
(Copyright 2005 - 2012 by John Johnson)
(See readme.txt for licensing terms.)
(This file generated from the board:)
(.../BaseProximity/BaseProximity.brd)
(Current profile is .../pcb/gcode/profiles/generic.pp  )
(This file generated 1/7/2017 1:21 PM)
(Settings from pcb-machine.h)
(spindle on time = 3.0000)
(spindle speed = 20000.0000)
(tool change at 0.0000 0.0000 30.0000 )
(feed rate xy = F0.00  )
(feed rate z  = F508.00 )
(Z Axis Settings)
(  High     Up        Down     Drill)
(10.0000 	5.0000 	-0.1778 	-1.6000 )
(Settings from pcb-defaults.h)
(isolate min = 0.3000)
(isolate max = 0.2000)
(isolate step = 0.1000)
(Generated top outlines, top drill, bottom outlines, bottom drill, )
(Unit of measure: mm)
( Tool|       Size       |  Min Sub |  Max Sub |   Count )
( T01  0.600mm 0.0236in 0.0000in 0.0000in )
( T02  0.900mm 0.0354in 0.0000in 0.0000in )
( T03  1.016mm 0.0400in 0.0000in 0.0000in )
(Metric Mode)
G21
(Absolute Coordinates)
G90
S20000
G00 Z10.0000 
G00 X0.0000 Y0.0000 
M03
G04 P3.000000
M05
G00 Z30.0000 
M06 T01  ; 0.6000 
G01 Z0.0000 F508.00 
M06 
G00 Z5.0000 
M03
G04 P3.000000
G00 Z4.999990
G00 X5.0800 Y40.6400 
G01 Z-1.6000 F508.00 
G01 Z4.999990
(R5.0000  P1.000000)
G00 X8.8900 Y69.8500 
G01 Z-1.599997
G01 Z4.999990
G00 X49.5300 Y76.2000 
G01 Z-1.599997
G01 Z4.999990
G00 X81.2800 Y55.8800 
G01 Z-1.599997
G01 Z4.999990
G00 X82.5500 Y46.9900 
G01 Z-1.599997
G01 Z4.999990
G00 X81.2800 Y35.5600 
G01 Z-1.599997
G01 Z4.999990
G00 X91.4400 Y69.8500 
G01 Z-1.599997
G01 Z4.999990
G00 X54.6100 Y10.1600 
G01 Z-1.599997
G01 Z4.999990
G00 X7.6200 Y7.6200 
G01 Z-1.599997
G01 Z4.999990
M05
G00 Z30.0000 
G00 X0.0000 Y0.0000 
M06 T02  ; 0.9000 
G01 Z0.0000 F508.00 
M06 
G00 Z5.0000 
M03
G04 P3.000000
G00 Z4.999990
G00 X16.5100 Y68.5800 
G01 Z-1.6000 F508.00 
G01 Z4.999990
(R5.0000  P1.000000)
G00 X31.7500 Y68.5800 
G01 Z-1.599997
G01 Z4.999990
G00 X39.3700 Y71.1200 
G01 Z-1.599997
G01 Z4.999990
G00 X45.7200 Y66.0400 
G01 Z-1.599997
G01 Z4.999990
G00 X58.4200 Y64.7700 
G01 Z-1.599997
G01 Z4.999990
G00 X71.1200 Y63.5000 
G01 Z-1.599997
G01 Z4.999990
G00 X81.2800 Y59.6900 
G01 Z-1.599997
G01 Z4.999990
G00 X86.3600 Y53.3400 
G01 Z-1.599997
G01 Z4.999990
G00 X90.1700 Y52.0700 
G01 Z-1.599997
G01 Z4.999990
G00 X66.0400 Y33.0200 
G01 Z-1.599997
G01 Z4.999990
G00 X64.7700 Y27.9400 
G01 Z-1.599997
G01 Z4.999990
G00 X66.0400 Y22.8600 
G01 Z-1.599997
G01 Z4.999990
G00 X66.0400 Y17.7800 
G01 Z-1.599997
G01 Z4.999990
G00 X58.4200 Y38.1000 
G01 Z-1.599997
G01 Z4.999990
G00 X72.3900 Y77.4700 
G01 Z-1.599997
G01 Z4.999990
M05
G00 Z30.0000 
G00 X0.0000 Y0.0000 
M06 T03  ; 1.0160 
G01 Z0.0000 F508.00 
M06 
G00 Z5.0000 
M03
G04 P3.000000
G00 Z4.999990
G00 X9.6339 Y13.2261 
G01 Z-1.6000 F508.00 
G01 Z4.999990
(R5.0000  P1.000000)
G00 X11.4300 Y11.4300 
G01 Z-1.599997
G01 Z4.999990
G00 X13.2261 Y9.6339 
G01 Z-1.599997
G01 Z4.999990
G00 X10.1600 Y38.1000 
G01 Z-1.599997
G01 Z4.999990
G00 X10.1600 Y40.6400 
G01 Z-1.599997
G01 Z4.999990
G00 X10.1600 Y43.1800 
G01 Z-1.599997
G01 Z4.999990
G00 X9.6339 Y64.2439 
G01 Z-1.599997
G01 Z4.999990
G00 X11.4300 Y66.0400 
G01 Z-1.599997
G01 Z4.999990
G00 X13.2261 Y67.8361 
G01 Z-1.599997
G01 Z4.999990
G00 X20.3200 Y68.5800 
G01 Z-1.599997
G01 Z4.999990
G00 X20.3200 Y66.0400 
G01 Z-1.599997
G01 Z4.999990
G00 X20.3200 Y71.1200 
G01 Z-1.599997
G01 Z4.999990
G00 X20.3200 Y73.6600 
G01 Z-1.599997
G01 Z4.999990
G00 X27.9400 Y73.6600 
G01 Z-1.599997
G01 Z4.999990
G00 X27.9400 Y71.1200 
G01 Z-1.599997
G01 Z4.999990
G00 X27.9400 Y68.5800 
G01 Z-1.599997
G01 Z4.999990
G00 X27.9400 Y66.0400 
G01 Z-1.599997
G01 Z4.999990
G00 X35.5600 Y66.0400 
G01 Z-1.599997
G01 Z4.999990
G00 X35.5600 Y68.5800 
G01 Z-1.599997
G01 Z4.999990
G00 X35.5600 Y71.1200 
G01 Z-1.599997
G01 Z4.999990
G00 X35.5600 Y73.6600 
G01 Z-1.599997
G01 Z4.999990
G00 X46.9900 Y69.8500 
G01 Z-1.599997
G01 Z4.999990
G00 X49.5300 Y69.8500 
G01 Z-1.599997
G01 Z4.999990
G00 X52.0700 Y69.8500 
G01 Z-1.599997
G01 Z4.999990
G00 X59.6900 Y71.1200 
G01 Z-1.599997
G01 Z4.999990
G00 X62.2300 Y71.1200 
G01 Z-1.599997
G01 Z4.999990
G00 X64.7700 Y71.1200 
G01 Z-1.599997
G01 Z4.999990
G00 X67.3100 Y71.1200 
G01 Z-1.599997
G01 Z4.999990
G00 X69.8500 Y71.1200 
G01 Z-1.599997
G01 Z4.999990
G00 X72.3900 Y71.1200 
G01 Z-1.599997
G01 Z4.999990
G00 X71.1200 Y60.9600 
G01 Z-1.599997
G01 Z4.999990
G00 X73.6600 Y60.9600 
G01 Z-1.599997
G01 Z4.999990
G00 X73.6600 Y58.4200 
G01 Z-1.599997
G01 Z4.999990
G00 X71.1200 Y58.4200 
G01 Z-1.599997
G01 Z4.999990
G00 X71.1200 Y55.8800 
G01 Z-1.599997
G01 Z4.999990
G00 X73.6600 Y55.8800 
G01 Z-1.599997
G01 Z4.999990
G00 X73.6600 Y53.3400 
G01 Z-1.599997
G01 Z4.999990
G00 X71.1200 Y53.3400 
G01 Z-1.599997
G01 Z4.999990
G00 X71.1200 Y50.8000 
G01 Z-1.599997
G01 Z4.999990
G00 X73.6600 Y50.8000 
G01 Z-1.599997
G01 Z4.999990
G00 X73.6600 Y48.2600 
G01 Z-1.599997
G01 Z4.999990
G00 X71.1200 Y48.2600 
G01 Z-1.599997
G01 Z4.999990
G00 X71.1200 Y45.7200 
G01 Z-1.599997
G01 Z4.999990
G00 X73.6600 Y45.7200 
G01 Z-1.599997
G01 Z4.999990
G00 X73.6600 Y43.1800 
G01 Z-1.599997
G01 Z4.999990
G00 X71.1200 Y43.1800 
G01 Z-1.599997
G01 Z4.999990
G00 X71.1200 Y40.6400 
G01 Z-1.599997
G01 Z4.999990
G00 X73.6600 Y40.6400 
G01 Z-1.599997
G01 Z4.999990
G00 X73.6600 Y38.1000 
G01 Z-1.599997
G01 Z4.999990
G00 X71.1200 Y38.1000 
G01 Z-1.599997
G01 Z4.999990
G00 X71.1200 Y35.5600 
G01 Z-1.599997
G01 Z4.999990
G00 X73.6600 Y35.5600 
G01 Z-1.599997
G01 Z4.999990
G00 X73.6600 Y33.0200 
G01 Z-1.599997
G01 Z4.999990
G00 X71.1200 Y33.0200 
G01 Z-1.599997
G01 Z4.999990
G00 X71.1200 Y30.4800 
G01 Z-1.599997
G01 Z4.999990
G00 X73.6600 Y30.4800 
G01 Z-1.599997
G01 Z4.999990
G00 X73.6600 Y27.9400 
G01 Z-1.599997
G01 Z4.999990
G00 X71.1200 Y27.9400 
G01 Z-1.599997
G01 Z4.999990
G00 X71.1200 Y25.4000 
G01 Z-1.599997
G01 Z4.999990
G00 X73.6600 Y25.4000 
G01 Z-1.599997
G01 Z4.999990
G00 X73.6600 Y22.8600 
G01 Z-1.599997
G01 Z4.999990
G00 X71.1200 Y22.8600 
G01 Z-1.599997
G01 Z4.999990
G00 X71.1200 Y20.3200 
G01 Z-1.599997
G01 Z4.999990
G00 X73.6600 Y20.3200 
G01 Z-1.599997
G01 Z4.999990
G00 X73.6600 Y17.7800 
G01 Z-1.599997
G01 Z4.999990
G00 X71.1200 Y17.7800 
G01 Z-1.599997
G01 Z4.999990
G00 X71.1200 Y15.2400 
G01 Z-1.599997
G01 Z4.999990
G00 X73.6600 Y15.2400 
G01 Z-1.599997
G01 Z4.999990
G00 X73.6600 Y12.7000 
G01 Z-1.599997
G01 Z4.999990
G00 X71.1200 Y12.7000 
G01 Z-1.599997
G01 Z4.999990
G00 X59.6900 Y17.7800 
G01 Z-1.599997
G01 Z4.999990
G00 X57.1500 Y17.7800 
G01 Z-1.599997
G01 Z4.999990
G00 X54.6100 Y17.7800 
G01 Z-1.599997
G01 Z4.999990
G00 X54.6100 Y22.8600 
G01 Z-1.599997
G01 Z4.999990
G00 X57.1500 Y22.8600 
G01 Z-1.599997
G01 Z4.999990
G00 X59.6900 Y22.8600 
G01 Z-1.599997
G01 Z4.999990
G00 X59.6900 Y27.9400 
G01 Z-1.599997
G01 Z4.999990
G00 X57.1500 Y27.9400 
G01 Z-1.599997
G01 Z4.999990
G00 X54.6100 Y27.9400 
G01 Z-1.599997
G01 Z4.999990
G00 X54.6100 Y33.0200 
G01 Z-1.599997
G01 Z4.999990
G00 X57.1500 Y33.0200 
G01 Z-1.599997
G01 Z4.999990
G00 X59.6900 Y33.0200 
G01 Z-1.599997
G01 Z4.999990
G00 X52.0700 Y12.7000 
G01 Z-1.599997
G01 Z4.999990
G00 X49.5300 Y12.7000 
G01 Z-1.599997
G01 Z4.999990
G00 X46.9900 Y12.7000 
G01 Z-1.599997
G01 Z4.999990
G00 X85.8339 Y9.6339 
G01 Z-1.599997
G01 Z4.999990
G00 X87.6300 Y11.4300 
G01 Z-1.599997
G01 Z4.999990
G00 X89.4261 Y13.2261 
G01 Z-1.599997
G01 Z4.999990
G00 X91.4400 Y39.3700 
G01 Z-1.599997
G01 Z4.999990
G00 X91.4400 Y41.9100 
G01 Z-1.599997
G01 Z4.999990
G00 X91.4400 Y44.4500 
G01 Z-1.599997
G01 Z4.999990
G00 X91.4400 Y55.8800 
G01 Z-1.599997
G01 Z4.999990
G00 X88.9000 Y55.8800 
G01 Z-1.599997
G01 Z4.999990
G00 X86.3600 Y55.8800 
G01 Z-1.599997
G01 Z4.999990
G00 X83.8200 Y55.8800 
G01 Z-1.599997
G01 Z4.999990
G00 X89.4261 Y64.2439 
G01 Z-1.599997
G01 Z4.999990
G00 X87.6300 Y66.0400 
G01 Z-1.599997
G01 Z4.999990
G00 X85.8339 Y67.8361 
G01 Z-1.599997
G01 Z4.999990
T01 
G00 Z10.0000 
M05
M02
