(.../Tools/pcb/gcode/pcb-gcode.ulp)
(Copyright 2005 - 2012 by John Johnson)
(See readme.txt for licensing terms.)
(This file generated from the board:)
(.../BaseProximity/BaseProximity.brd)
(Current profile is .../pcb/gcode/profiles/generic.pp  )
(This file generated 1/7/2017 1:21 PM)
(Settings from pcb-machine.h)
(spindle on time = 3.0000)
(  Tool Size)
(0.1000 )
(spindle speed = 30000.0000)
(tool change at 0.0000 0.0000 30.0000 )
(feed rate xy = F100.00 )
(feed rate z  = F200.00 )
(Z Axis Settings)
(  High     Up        Down     Drill)
(10.0000 	5.0000 	-0.1778 	-1.6000 )
(Settings from pcb-defaults.h)
(isolate min = 0.3000)
(isolate max = 0.2000)
(isolate step = 0.1000)
(Generated top outlines, top drill, bottom outlines, bottom drill, )
(Unit of measure: mm)
(Metric Mode)
G21
(Absolute Coordinates)
G90
S30000
G00 Z10.0000 
G00 X0.0000 Y0.0000 
M03
G04 P3.000000
G00 Z5.0000 
G00 X2.0973 Y4.7403 
G01 Z-0.1778 F200.00 
G01 X2.0245 Y4.8665 F100.00 
G01 X1.9868 Y5.0072 
G01 X1.9868 Y62.3028 
G01 X2.0245 Y62.4435 
G01 X2.0973 Y62.5697 
G01 X3.3673 Y63.8397 
G01 X3.4703 Y63.9427 
G01 X3.5965 Y64.0155 
G01 X3.7372 Y64.0532 
G01 X8.1802 Y64.0532 
G01 X8.1723 Y64.0612 
G01 X8.0647 Y64.2092 
G01 X7.9816 Y64.3723 
G01 X7.9250 Y64.5464 
G01 X7.8964 Y64.7272 
G01 X7.8964 Y64.9102 
G01 X7.9061 Y64.9715 
G01 X5.9073 Y66.9703 
G01 X5.8345 Y67.0965 
G01 X5.7968 Y67.2372 
G01 X5.7968 Y71.1928 
G01 X5.8345 Y71.3335 
G01 X5.9073 Y71.4597 
G01 X6.0103 Y71.5627 
G01 X7.2803 Y72.8327 
G01 X7.4065 Y72.9055 
G01 X7.5472 Y72.9432 
G01 X13.9534 Y72.9432 
G01 X14.0096 Y72.9466 
G01 X14.0260 Y72.9432 
G01 X14.0428 Y72.9432 
G01 X14.0972 Y72.9286 
G01 X14.1523 Y72.9174 
G01 X14.1673 Y72.9098 
G01 X14.1835 Y72.9055 
G01 X14.2322 Y72.8774 
G01 X16.7073 Y71.6398 
G01 X16.7235 Y71.6355 
G01 X16.7722 Y71.6074 
G01 X16.8225 Y71.5822 
G01 X16.8351 Y71.5711 
G01 X16.8497 Y71.5627 
G01 X16.8895 Y71.5229 
G01 X16.9315 Y71.4856 
G01 X16.9408 Y71.4716 
G01 X16.9527 Y71.4597 
G01 X16.9808 Y71.4109 
G01 X17.0118 Y71.3640 
G01 X17.0171 Y71.3481 
G01 X17.0255 Y71.3335 
G01 X17.0401 Y71.2792 
G01 X17.0578 Y71.2258 
G01 X17.0588 Y71.2091 
G01 X17.0632 Y71.1928 
G01 X17.0632 Y71.1366 
G01 X17.0666 Y71.0804 
G01 X17.0632 Y71.0640 
G01 X17.0632 Y69.5174 
G01 X17.5640 Y69.0166 
G01 X17.5640 Y68.1434 
G01 X16.9466 Y67.5260 
G01 X16.0734 Y67.5260 
G01 X15.4560 Y68.1434 
G01 X15.4560 Y69.0166 
G01 X15.9568 Y69.5174 
G01 X15.9568 Y70.7781 
G01 X13.8394 Y71.8368 
G01 X7.8491 Y71.8368 
G01 X6.9032 Y70.8909 
G01 X6.9032 Y67.5391 
G01 X8.5686 Y65.8737 
G01 X8.6128 Y65.8963 
G01 X8.7869 Y65.9528 
G01 X8.9677 Y65.9815 
G01 X9.1507 Y65.9815 
G01 X9.3315 Y65.9528 
G01 X9.5056 Y65.8963 
G01 X9.6686 Y65.8132 
G01 X9.8167 Y65.7056 
G01 X11.0956 Y64.4267 
G01 X11.2032 Y64.2786 
G01 X11.2863 Y64.1156 
G01 X11.3428 Y63.9415 
G01 X11.3715 Y63.7607 
G01 X11.3715 Y63.5777 
G01 X11.3428 Y63.3969 
G01 X11.2863 Y63.2229 
G01 X11.2032 Y63.0598 
G01 X11.0956 Y62.9117 
G01 X10.9662 Y62.7823 
G01 X10.8181 Y62.6747 
G01 X10.6550 Y62.5916 
G01 X10.4810 Y62.5350 
G01 X10.3002 Y62.5064 
G01 X10.1172 Y62.5064 
G01 X9.9364 Y62.5350 
G01 X9.7623 Y62.5916 
G01 X9.5992 Y62.6747 
G01 X9.4512 Y62.7823 
G01 X9.1957 Y63.0377 
G01 X9.1035 Y62.9845 
G01 X8.9628 Y62.9468 
G01 X4.0391 Y62.9468 
G01 X3.0932 Y62.0009 
G01 X3.0932 Y38.6532 
G01 X8.3240 Y38.6532 
G01 X8.3527 Y38.7094 
G01 X8.4603 Y38.8575 
G01 X8.5897 Y38.9869 
G01 X8.7378 Y39.0945 
G01 X8.9008 Y39.1776 
G01 X9.0749 Y39.2342 
G01 X9.2557 Y39.2628 
G01 X11.0643 Y39.2628 
G01 X11.2451 Y39.2342 
G01 X11.4192 Y39.1776 
G01 X11.5822 Y39.0945 
G01 X11.7303 Y38.9869 
G01 X11.8597 Y38.8575 
G01 X11.9673 Y38.7094 
G01 X11.9960 Y38.6532 
G01 X13.7409 Y38.6532 
G01 X16.1703 Y41.0827 
G01 X16.2965 Y41.1555 
G01 X16.4372 Y41.1932 
G01 X45.7928 Y41.1932 
G01 X45.8048 Y41.1900 
G01 X62.0022 Y41.1900 
G01 X62.0730 Y41.2608 
G01 X62.0730 Y42.3681 
G01 X61.9660 Y42.4299 
G01 X61.8729 Y42.5230 
G01 X61.8071 Y42.6370 
G01 X61.7730 Y42.7642 
G01 X61.7730 Y43.5958 
G01 X61.8071 Y43.7230 
G01 X61.8729 Y43.8370 
G01 X61.9660 Y43.9301 
G01 X62.0800 Y43.9959 
G01 X62.2072 Y44.0300 
G01 X63.0388 Y44.0300 
G01 X63.1660 Y43.9959 
G01 X63.2800 Y43.9301 
G01 X63.3731 Y43.8370 
G01 X63.4389 Y43.7230 
G01 X63.4730 Y43.5958 
G01 X63.4730 Y42.7642 
G01 X63.4389 Y42.6370 
G01 X63.3731 Y42.5230 
G01 X63.2800 Y42.4299 
G01 X63.1730 Y42.3681 
G01 X63.1730 Y41.1900 
G01 X70.0256 Y41.1900 
G01 X70.6384 Y41.8028 
G01 X71.6016 Y41.8028 
G01 X72.2828 Y41.1216 
G01 X72.2828 Y40.1584 
G01 X71.6016 Y39.4772 
G01 X70.6384 Y39.4772 
G01 X70.0256 Y40.0900 
G01 X46.2732 Y40.0900 
G01 X46.2732 Y24.3591 
G01 X52.5127 Y18.1197 
G01 X52.5855 Y17.9935 
G01 X52.6232 Y17.8528 
G01 X52.6232 Y14.5360 
G01 X52.6794 Y14.5073 
G01 X52.8275 Y14.3997 
G01 X52.9569 Y14.2703 
G01 X53.0645 Y14.1222 
G01 X53.1476 Y13.9592 
G01 X53.2042 Y13.7851 
G01 X53.2328 Y13.6043 
G01 X53.2328 Y11.7957 
G01 X53.2042 Y11.6149 
G01 X53.1476 Y11.4408 
G01 X53.0645 Y11.2778 
G01 X52.9569 Y11.1297 
G01 X52.8275 Y11.0003 
G01 X52.6794 Y10.8927 
G01 X52.5164 Y10.8096 
G01 X52.3423 Y10.7530 
G01 X52.1615 Y10.7244 
G01 X51.9785 Y10.7244 
G01 X51.7977 Y10.7530 
G01 X51.6236 Y10.8096 
G01 X51.4606 Y10.8927 
G01 X51.3125 Y11.0003 
G01 X51.1831 Y11.1297 
G01 X51.0755 Y11.2778 
G01 X50.9924 Y11.4408 
G01 X50.9358 Y11.6149 
G01 X50.9072 Y11.7957 
G01 X50.9072 Y13.6043 
G01 X50.9358 Y13.7851 
G01 X50.9924 Y13.9592 
G01 X51.0755 Y14.1222 
G01 X51.1831 Y14.2703 
G01 X51.3125 Y14.3997 
G01 X51.4606 Y14.5073 
G01 X51.5168 Y14.5360 
G01 X51.5168 Y17.5509 
G01 X45.3803 Y23.6873 
G01 X45.2773 Y23.7903 
G01 X45.2045 Y23.9165 
G01 X45.1668 Y24.0572 
G01 X45.1668 Y40.0868 
G01 X16.7391 Y40.0868 
G01 X14.4127 Y37.7603 
G01 X14.3097 Y37.6573 
G01 X14.1835 Y37.5845 
G01 X14.0428 Y37.5468 
G01 X11.9960 Y37.5468 
G01 X11.9673 Y37.4906 
G01 X11.8597 Y37.3425 
G01 X11.7303 Y37.2131 
G01 X11.5822 Y37.1055 
G01 X11.4192 Y37.0224 
G01 X11.2451 Y36.9658 
G01 X11.0643 Y36.9372 
G01 X9.2557 Y36.9372 
G01 X9.0749 Y36.9658 
G01 X8.9008 Y37.0224 
G01 X8.7378 Y37.1055 
G01 X8.5897 Y37.2131 
G01 X8.4603 Y37.3425 
G01 X8.3527 Y37.4906 
G01 X8.3240 Y37.5468 
G01 X3.0932 Y37.5468 
G01 X3.0932 Y5.3091 
G01 X5.3091 Y3.0932 
G01 X12.2856 Y3.0932 
G01 X12.6729 Y4.4154 
G01 X12.6729 Y7.8964 
G01 X12.5598 Y7.8964 
G01 X12.3790 Y7.9250 
G01 X12.2050 Y7.9816 
G01 X12.0419 Y8.0647 
G01 X11.8938 Y8.1723 
G01 X11.7644 Y8.3017 
G01 X11.6568 Y8.4498 
G01 X11.5737 Y8.6128 
G01 X11.5171 Y8.7869 
G01 X11.4885 Y8.9677 
G01 X11.4885 Y9.1507 
G01 X11.5171 Y9.3315 
G01 X11.5737 Y9.5056 
G01 X11.6568 Y9.6686 
G01 X11.7644 Y9.8167 
G01 X13.0433 Y11.0956 
G01 X13.1913 Y11.2032 
G01 X13.3544 Y11.2863 
G01 X13.5285 Y11.3428 
G01 X13.7093 Y11.3715 
G01 X13.8923 Y11.3715 
G01 X14.0731 Y11.3428 
G01 X14.2471 Y11.2863 
G01 X14.4102 Y11.2032 
G01 X14.5583 Y11.0956 
G01 X14.6877 Y10.9662 
G01 X14.7953 Y10.8181 
G01 X14.8784 Y10.6550 
G01 X14.9350 Y10.4810 
G01 X14.9636 Y10.3002 
G01 X14.9636 Y10.1172 
G01 X14.9350 Y9.9364 
G01 X14.8784 Y9.7623 
G01 X14.7953 Y9.5992 
G01 X14.6877 Y9.4512 
G01 X13.7792 Y8.5427 
G01 X13.7792 Y4.4024 
G01 X13.7808 Y4.3961 
G01 X13.7792 Y4.3296 
G01 X13.7792 Y4.2632 
G01 X13.7776 Y4.2569 
G01 X13.7774 Y4.2504 
G01 X13.7587 Y4.1867 
G01 X13.7415 Y4.1225 
G01 X13.7383 Y4.1169 
G01 X13.4385 Y3.0932 
G01 X83.5909 Y3.0932 
G01 X85.2807 Y4.7831 
G01 X85.2807 Y8.5427 
G01 X84.3723 Y9.4512 
G01 X84.2647 Y9.5992 
G01 X84.1816 Y9.7623 
G01 X84.1250 Y9.9364 
G01 X84.0964 Y10.1172 
G01 X84.0964 Y10.3002 
G01 X84.1250 Y10.4810 
G01 X84.1816 Y10.6550 
G01 X84.2647 Y10.8181 
G01 X84.3723 Y10.9662 
G01 X84.5017 Y11.0956 
G01 X84.6498 Y11.2032 
G01 X84.8128 Y11.2863 
G01 X84.9869 Y11.3428 
G01 X85.1677 Y11.3715 
G01 X85.3507 Y11.3715 
G01 X85.5315 Y11.3428 
G01 X85.7056 Y11.2863 
G01 X85.8687 Y11.2032 
G01 X86.0167 Y11.0956 
G01 X87.2956 Y9.8167 
G01 X87.4032 Y9.6686 
G01 X87.4863 Y9.5056 
G01 X87.5428 Y9.3315 
G01 X87.5715 Y9.1507 
G01 X87.5715 Y8.9677 
G01 X87.5428 Y8.7869 
G01 X87.4863 Y8.6128 
G01 X87.4032 Y8.4498 
G01 X87.2956 Y8.3017 
G01 X87.2501 Y8.2562 
G01 X87.3331 Y8.1732 
G01 X96.2909 Y8.1732 
G01 X97.2368 Y9.1191 
G01 X97.2368 Y36.6009 
G01 X95.0209 Y38.8168 
G01 X93.2760 Y38.8168 
G01 X93.2473 Y38.7606 
G01 X93.1397 Y38.6125 
G01 X93.0103 Y38.4831 
G01 X92.8622 Y38.3755 
G01 X92.6992 Y38.2924 
G01 X92.5251 Y38.2358 
G01 X92.3443 Y38.2072 
G01 X90.5357 Y38.2072 
G01 X90.3549 Y38.2358 
G01 X90.1808 Y38.2924 
G01 X90.0178 Y38.3755 
G01 X89.8697 Y38.4831 
G01 X89.7403 Y38.6125 
G01 X89.6327 Y38.7606 
G01 X89.5496 Y38.9236 
G01 X89.4930 Y39.0977 
G01 X89.4644 Y39.2785 
G01 X89.4644 Y39.4615 
G01 X89.4930 Y39.6423 
G01 X89.5496 Y39.8164 
G01 X89.6327 Y39.9794 
G01 X89.7403 Y40.1275 
G01 X89.8697 Y40.2569 
G01 X90.0178 Y40.3645 
G01 X90.1808 Y40.4476 
G01 X90.3549 Y40.5042 
G01 X90.5357 Y40.5328 
G01 X92.3443 Y40.5328 
G01 X92.5251 Y40.5042 
G01 X92.6992 Y40.4476 
G01 X92.8622 Y40.3645 
G01 X93.0103 Y40.2569 
G01 X93.1397 Y40.1275 
G01 X93.2473 Y39.9794 
G01 X93.2760 Y39.9232 
G01 X95.0209 Y39.9232 
G01 X95.9668 Y40.8691 
G01 X95.9668 Y63.2709 
G01 X95.5469 Y63.6907 
G01 X90.5173 Y63.6907 
G01 X89.6088 Y62.7823 
G01 X89.4608 Y62.6747 
G01 X89.2977 Y62.5916 
G01 X89.1236 Y62.5350 
G01 X88.9428 Y62.5064 
G01 X88.7598 Y62.5064 
G01 X88.5790 Y62.5350 
G01 X88.4050 Y62.5916 
G01 X88.2419 Y62.6747 
G01 X88.0938 Y62.7823 
G01 X87.9644 Y62.9117 
G01 X87.8568 Y63.0598 
G01 X87.7737 Y63.2229 
G01 X87.7171 Y63.3969 
G01 X87.6885 Y63.5777 
G01 X87.6885 Y63.7607 
G01 X87.7171 Y63.9415 
G01 X87.7737 Y64.1156 
G01 X87.8568 Y64.2786 
G01 X87.9644 Y64.4267 
G01 X89.2433 Y65.7056 
G01 X89.3913 Y65.8132 
G01 X89.5544 Y65.8963 
G01 X89.7285 Y65.9528 
G01 X89.9093 Y65.9815 
G01 X90.0923 Y65.9815 
G01 X90.2731 Y65.9528 
G01 X90.4471 Y65.8963 
G01 X90.6102 Y65.8132 
G01 X90.7583 Y65.7056 
G01 X90.8877 Y65.5762 
G01 X90.9953 Y65.4281 
G01 X91.0784 Y65.2650 
G01 X91.1350 Y65.0910 
G01 X91.1636 Y64.9102 
G01 X91.1636 Y64.7971 
G01 X95.0209 Y64.7971 
G01 X95.9668 Y65.7431 
G01 X95.9668 Y74.7994 
G01 X94.9081 Y76.9168 
G01 X73.3274 Y76.9168 
G01 X72.8266 Y76.4160 
G01 X71.9534 Y76.4160 
G01 X71.3360 Y77.0334 
G01 X71.3360 Y77.9066 
G01 X71.9534 Y78.5240 
G01 X72.8266 Y78.5240 
G01 X73.3274 Y78.0232 
G01 X95.1940 Y78.0232 
G01 X95.2104 Y78.0266 
G01 X95.2666 Y78.0232 
G01 X95.3228 Y78.0232 
G01 X95.3391 Y78.0188 
G01 X95.3558 Y78.0178 
G01 X95.4092 Y78.0000 
G01 X95.4635 Y77.9855 
G01 X95.4781 Y77.9771 
G01 X95.4940 Y77.9718 
G01 X95.5410 Y77.9408 
G01 X95.5897 Y77.9127 
G01 X95.6016 Y77.9008 
G01 X95.6156 Y77.8915 
G01 X95.6529 Y77.8494 
G01 X95.6927 Y77.8097 
G01 X95.7011 Y77.7951 
G01 X95.7122 Y77.7825 
G01 X95.7374 Y77.7322 
G01 X95.7655 Y77.6835 
G01 X95.7698 Y77.6673 
G01 X97.0074 Y75.1922 
G01 X97.0355 Y75.1435 
G01 X97.0398 Y75.1273 
G01 X97.0474 Y75.1123 
G01 X97.0586 Y75.0572 
G01 X97.0732 Y75.0028 
G01 X97.0732 Y74.9860 
G01 X97.0766 Y74.9696 
G01 X97.0732 Y74.9134 
G01 X97.0732 Y65.4411 
G01 X97.0355 Y65.3004 
G01 X96.9627 Y65.1743 
G01 X96.2954 Y64.5070 
G01 X96.8597 Y63.9427 
G01 X96.9627 Y63.8397 
G01 X97.0355 Y63.7135 
G01 X97.0732 Y63.5728 
G01 X97.0732 Y40.5672 
G01 X97.0355 Y40.4265 
G01 X96.9627 Y40.3003 
G01 X96.0323 Y39.3700 
G01 X98.1297 Y37.2727 
G01 X98.2327 Y37.1697 
G01 X98.3055 Y37.0435 
G01 X98.3432 Y36.9028 
G01 X98.3432 Y8.8172 
G01 X98.3055 Y8.6765 
G01 X98.2327 Y8.5503 
G01 X96.9627 Y7.2803 
G01 X96.8597 Y7.1773 
G01 X96.7335 Y7.1045 
G01 X96.5928 Y7.0668 
G01 X87.0311 Y7.0668 
G01 X86.8904 Y7.1045 
G01 X86.7643 Y7.1773 
G01 X86.3871 Y7.5545 
G01 X86.3871 Y4.4811 
G01 X86.3494 Y4.3404 
G01 X86.2766 Y4.2143 
G01 X84.2627 Y2.2003 
G01 X84.1597 Y2.0973 
G01 X84.0335 Y2.0245 
G01 X83.8928 Y1.9868 
G01 X12.7663 Y1.9868 
G01 X12.7600 Y1.9853 
G01 X12.6936 Y1.9868 
G01 X5.0072 Y1.9868 
G01 X4.8665 Y2.0245 
G01 X4.7403 Y2.0973 
G01 X2.2003 Y4.6373 
G01 X2.0973 Y4.7403 
G00 Z5.0000 
G00 X6.7859 Y6.8511 
G01 Z-0.1778 F200.00 
G01 X6.7399 Y6.9309 F100.00 
G01 X6.7160 Y7.0199 
G01 X6.7160 Y8.2201 
G01 X6.7399 Y8.3091 
G01 X6.7859 Y8.3889 
G01 X6.8511 Y8.4541 
G01 X6.9309 Y8.5001 
G01 X7.0199 Y8.5240 
G01 X7.7462 Y8.5240 
G01 X9.7417 Y10.5195 
G01 X9.7211 Y10.5830 
G01 X9.6925 Y10.7637 
G01 X9.6925 Y10.9468 
G01 X9.7211 Y11.1276 
G01 X9.7777 Y11.3016 
G01 X9.8607 Y11.4647 
G01 X9.9683 Y11.6128 
G01 X11.2472 Y12.8917 
G01 X11.3953 Y12.9992 
G01 X11.5584 Y13.0823 
G01 X11.7324 Y13.1389 
G01 X11.9132 Y13.1675 
G01 X12.0962 Y13.1675 
G01 X12.2770 Y13.1389 
G01 X12.4511 Y13.0823 
G01 X12.6142 Y12.9992 
G01 X12.7622 Y12.8917 
G01 X12.8917 Y12.7622 
G01 X12.9992 Y12.6142 
G01 X13.0823 Y12.4511 
G01 X13.1389 Y12.2770 
G01 X13.1675 Y12.0962 
G01 X13.1675 Y11.9132 
G01 X13.1389 Y11.7324 
G01 X13.0823 Y11.5584 
G01 X12.9992 Y11.3953 
G01 X12.8917 Y11.2472 
G01 X11.6128 Y9.9683 
G01 X11.4647 Y9.8607 
G01 X11.3016 Y9.7777 
G01 X11.1276 Y9.7211 
G01 X10.9468 Y9.6925 
G01 X10.7637 Y9.6925 
G01 X10.5830 Y9.7211 
G01 X10.5195 Y9.7417 
G01 X8.5240 Y7.7462 
G01 X8.5240 Y7.0199 
G01 X8.5001 Y6.9309 
G01 X8.4541 Y6.8511 
G01 X8.3889 Y6.7859 
G01 X8.3091 Y6.7399 
G01 X8.2201 Y6.7160 
G01 X7.0199 Y6.7160 
G01 X6.9309 Y6.7399 
G01 X6.8511 Y6.7859 
G01 X6.7859 Y6.8511 
G00 Z5.0000 
G00 X8.1723 Y11.8938 
G01 Z-0.1778 F200.00 
G01 X8.0647 Y12.0419 F100.00 
G01 X7.9816 Y12.2050 
G01 X7.9250 Y12.3790 
G01 X7.8964 Y12.5598 
G01 X7.8964 Y12.7428 
G01 X7.9250 Y12.9236 
G01 X7.9816 Y13.0977 
G01 X8.0647 Y13.2608 
G01 X8.1723 Y13.4088 
G01 X9.4512 Y14.6877 
G01 X9.5992 Y14.7953 
G01 X9.7623 Y14.8784 
G01 X9.9364 Y14.9350 
G01 X10.1172 Y14.9636 
G01 X10.3002 Y14.9636 
G01 X10.4810 Y14.9350 
G01 X10.5410 Y14.9154 
G01 X11.7931 Y16.1675 
G01 X11.8343 Y16.2087 
G01 X11.9604 Y16.2815 
G01 X12.1011 Y16.3192 
G01 X19.0246 Y16.3192 
G01 X19.0718 Y16.3236 
G01 X19.0971 Y16.3192 
G01 X19.1228 Y16.3192 
G01 X19.1686 Y16.3070 
G01 X19.2153 Y16.2990 
G01 X19.2387 Y16.2882 
G01 X19.2635 Y16.2815 
G01 X19.3046 Y16.2579 
G01 X19.3476 Y16.2380 
G01 X19.3674 Y16.2216 
G01 X19.3897 Y16.2087 
G01 X19.4232 Y16.1752 
G01 X19.4596 Y16.1449 
G01 X19.4745 Y16.1239 
G01 X19.4927 Y16.1057 
G01 X19.5164 Y16.0647 
G01 X20.7445 Y14.3279 
G01 X20.7627 Y14.3097 
G01 X20.7864 Y14.2686 
G01 X20.8137 Y14.2299 
G01 X20.8226 Y14.2058 
G01 X20.8355 Y14.1835 
G01 X20.8478 Y14.1377 
G01 X20.8642 Y14.0933 
G01 X20.8665 Y14.0677 
G01 X20.8732 Y14.0428 
G01 X20.8732 Y13.9954 
G01 X20.8775 Y13.9482 
G01 X20.8732 Y13.9229 
G01 X20.8732 Y5.3091 
G01 X21.8191 Y4.3632 
G01 X73.4309 Y4.3632 
G01 X80.7268 Y11.6591 
G01 X80.7268 Y13.7409 
G01 X79.7809 Y14.6868 
G01 X74.7512 Y14.6868 
G01 X74.1416 Y14.0772 
G01 X73.1784 Y14.0772 
G01 X72.4972 Y14.7584 
G01 X72.4972 Y15.7216 
G01 X73.1784 Y16.4028 
G01 X74.1416 Y16.4028 
G01 X74.7512 Y15.7932 
G01 X80.0828 Y15.7932 
G01 X80.2235 Y15.7555 
G01 X80.3497 Y15.6827 
G01 X80.4527 Y15.5797 
G01 X81.7227 Y14.3097 
G01 X81.7955 Y14.1835 
G01 X81.8332 Y14.0428 
G01 X81.8332 Y11.3572 
G01 X81.7955 Y11.2165 
G01 X81.7227 Y11.0903 
G01 X81.6197 Y10.9873 
G01 X73.9997 Y3.3673 
G01 X73.8735 Y3.2945 
G01 X73.7328 Y3.2568 
G01 X21.5172 Y3.2568 
G01 X21.3765 Y3.2945 
G01 X21.2503 Y3.3673 
G01 X21.1473 Y3.4703 
G01 X19.8773 Y4.7403 
G01 X19.8045 Y4.8665 
G01 X19.7668 Y5.0072 
G01 X19.7668 Y13.7942 
G01 X18.7636 Y15.2128 
G01 X12.4031 Y15.2128 
G01 X11.3233 Y14.1331 
G01 X11.3428 Y14.0731 
G01 X11.3715 Y13.8923 
G01 X11.3715 Y13.7093 
G01 X11.3428 Y13.5285 
G01 X11.2863 Y13.3544 
G01 X11.2032 Y13.1913 
G01 X11.0956 Y13.0433 
G01 X9.8167 Y11.7644 
G01 X9.6686 Y11.6568 
G01 X9.5056 Y11.5737 
G01 X9.3315 Y11.5171 
G01 X9.1507 Y11.4885 
G01 X8.9677 Y11.4885 
G01 X8.7869 Y11.5171 
G01 X8.6128 Y11.5737 
G01 X8.4498 Y11.6568 
G01 X8.3017 Y11.7644 
G01 X8.1723 Y11.8938 
G00 Z5.0000 
G00 X8.4603 Y39.8825 
G01 Z-0.1778 F200.00 
G01 X8.3527 Y40.0306 F100.00 
G01 X8.3224 Y40.0900 
G01 X5.9840 Y40.0900 
G01 X5.9840 Y40.0399 
G01 X5.9601 Y39.9509 
G01 X5.9141 Y39.8711 
G01 X5.8489 Y39.8059 
G01 X5.7691 Y39.7599 
G01 X5.6801 Y39.7360 
G01 X4.4799 Y39.7360 
G01 X4.3909 Y39.7599 
G01 X4.3111 Y39.8059 
G01 X4.2459 Y39.8711 
G01 X4.1999 Y39.9509 
G01 X4.1760 Y40.0399 
G01 X4.1760 Y41.2401 
G01 X4.1999 Y41.3291 
G01 X4.2459 Y41.4089 
G01 X4.3111 Y41.4741 
G01 X4.3909 Y41.5201 
G01 X4.4799 Y41.5440 
G01 X5.6801 Y41.5440 
G01 X5.7691 Y41.5201 
G01 X5.8489 Y41.4741 
G01 X5.9141 Y41.4089 
G01 X5.9601 Y41.3291 
G01 X5.9840 Y41.2401 
G01 X5.9840 Y41.1900 
G01 X6.2922 Y41.1900 
G01 X5.9099 Y41.5723 
G01 X5.8375 Y41.6977 
G01 X5.8000 Y41.8376 
G01 X5.8000 Y49.6024 
G01 X5.8375 Y49.7423 
G01 X5.9099 Y49.8677 
G01 X6.0123 Y49.9701 
G01 X14.6900 Y58.6478 
G01 X14.6900 Y62.0022 
G01 X12.3405 Y64.3517 
G01 X12.2770 Y64.3311 
G01 X12.0962 Y64.3025 
G01 X11.9132 Y64.3025 
G01 X11.7324 Y64.3311 
G01 X11.5584 Y64.3877 
G01 X11.3953 Y64.4707 
G01 X11.2472 Y64.5783 
G01 X9.9683 Y65.8572 
G01 X9.8607 Y66.0053 
G01 X9.7777 Y66.1684 
G01 X9.7211 Y66.3424 
G01 X9.6925 Y66.5232 
G01 X9.6925 Y66.7062 
G01 X9.7211 Y66.8870 
G01 X9.7417 Y66.9505 
G01 X8.5523 Y68.1399 
G01 X8.4499 Y68.2423 
G01 X8.3775 Y68.3677 
G01 X8.3400 Y68.5076 
G01 X8.3400 Y68.9460 
G01 X8.2899 Y68.9460 
G01 X8.2009 Y68.9699 
G01 X8.1211 Y69.0159 
G01 X8.0559 Y69.0811 
G01 X8.0099 Y69.1609 
G01 X7.9860 Y69.2499 
G01 X7.9860 Y70.4501 
G01 X8.0099 Y70.5391 
G01 X8.0559 Y70.6189 
G01 X8.1211 Y70.6841 
G01 X8.2009 Y70.7301 
G01 X8.2899 Y70.7540 
G01 X9.4901 Y70.7540 
G01 X9.5791 Y70.7301 
G01 X9.6589 Y70.6841 
G01 X9.7241 Y70.6189 
G01 X9.7701 Y70.5391 
G01 X9.7940 Y70.4501 
G01 X9.7940 Y69.2499 
G01 X9.7701 Y69.1609 
G01 X9.7241 Y69.0811 
G01 X9.6589 Y69.0159 
G01 X9.5791 Y68.9699 
G01 X9.4901 Y68.9460 
G01 X9.4400 Y68.9460 
G01 X9.4400 Y68.8078 
G01 X10.5195 Y67.7283 
G01 X10.5830 Y67.7489 
G01 X10.7637 Y67.7775 
G01 X10.9468 Y67.7775 
G01 X11.1276 Y67.7489 
G01 X11.3016 Y67.6923 
G01 X11.4647 Y67.6092 
G01 X11.6128 Y67.5017 
G01 X12.8917 Y66.2228 
G01 X12.9992 Y66.0747 
G01 X13.0823 Y65.9116 
G01 X13.1389 Y65.7376 
G01 X13.1675 Y65.5568 
G01 X13.1675 Y65.3737 
G01 X13.1389 Y65.1930 
G01 X13.1183 Y65.1295 
G01 X15.5777 Y62.6701 
G01 X15.6801 Y62.5677 
G01 X15.7525 Y62.4423 
G01 X15.7900 Y62.3024 
G01 X15.7900 Y58.3476 
G01 X15.7525 Y58.2077 
G01 X15.6801 Y58.0823 
G01 X6.9000 Y49.3022 
G01 X6.9000 Y42.1378 
G01 X7.8478 Y41.1900 
G01 X8.3224 Y41.1900 
G01 X8.3527 Y41.2494 
G01 X8.4603 Y41.3975 
G01 X8.5897 Y41.5269 
G01 X8.7378 Y41.6345 
G01 X8.9008 Y41.7176 
G01 X9.0749 Y41.7742 
G01 X9.2557 Y41.8028 
G01 X11.0643 Y41.8028 
G01 X11.2451 Y41.7742 
G01 X11.4192 Y41.7176 
G01 X11.5822 Y41.6345 
G01 X11.7303 Y41.5269 
G01 X11.8597 Y41.3975 
G01 X11.9673 Y41.2494 
G01 X12.0504 Y41.0864 
G01 X12.1070 Y40.9123 
G01 X12.1356 Y40.7315 
G01 X12.1356 Y40.5485 
G01 X12.1070 Y40.3677 
G01 X12.0504 Y40.1936 
G01 X11.9673 Y40.0306 
G01 X11.8597 Y39.8825 
G01 X11.7303 Y39.7531 
G01 X11.5822 Y39.6455 
G01 X11.4192 Y39.5624 
G01 X11.2451 Y39.5058 
G01 X11.0643 Y39.4772 
G01 X9.2557 Y39.4772 
G01 X9.0749 Y39.5058 
G01 X8.9008 Y39.5624 
G01 X8.7378 Y39.6455 
G01 X8.5897 Y39.7531 
G01 X8.4603 Y39.8825 
G00 Z5.0000 
G00 X8.4603 Y42.4225 
G01 Z-0.1778 F200.00 
G01 X8.3527 Y42.5706 F100.00 
G01 X8.2696 Y42.7336 
G01 X8.2130 Y42.9077 
G01 X8.1844 Y43.0885 
G01 X8.1844 Y43.2715 
G01 X8.2130 Y43.4523 
G01 X8.2696 Y43.6264 
G01 X8.3527 Y43.7894 
G01 X8.4603 Y43.9375 
G01 X8.5897 Y44.0669 
G01 X8.7378 Y44.1745 
G01 X8.9008 Y44.2576 
G01 X9.0749 Y44.3142 
G01 X9.2557 Y44.3428 
G01 X11.0643 Y44.3428 
G01 X11.2451 Y44.3142 
G01 X11.4192 Y44.2576 
G01 X11.5822 Y44.1745 
G01 X11.7303 Y44.0669 
G01 X11.8597 Y43.9375 
G01 X11.9673 Y43.7894 
G01 X11.9960 Y43.7332 
G01 X58.1909 Y43.7332 
G01 X60.5173 Y46.0597 
G01 X60.6203 Y46.1627 
G01 X60.7465 Y46.2355 
G01 X60.8872 Y46.2732 
G01 X70.0288 Y46.2732 
G01 X70.6384 Y46.8828 
G01 X71.6016 Y46.8828 
G01 X72.2828 Y46.2016 
G01 X72.2828 Y45.2384 
G01 X71.6016 Y44.5572 
G01 X70.6384 Y44.5572 
G01 X70.0288 Y45.1668 
G01 X61.1891 Y45.1668 
G01 X58.7597 Y42.7373 
G01 X58.6335 Y42.6645 
G01 X58.4928 Y42.6268 
G01 X11.9960 Y42.6268 
G01 X11.9673 Y42.5706 
G01 X11.8597 Y42.4225 
G01 X11.7303 Y42.2931 
G01 X11.5822 Y42.1855 
G01 X11.4192 Y42.1024 
G01 X11.2451 Y42.0458 
G01 X11.0643 Y42.0172 
G01 X9.2557 Y42.0172 
G01 X9.0749 Y42.0458 
G01 X8.9008 Y42.1024 
G01 X8.7378 Y42.1855 
G01 X8.5897 Y42.2931 
G01 X8.4603 Y42.4225 
G00 Z5.0000 
G00 X16.0673 Y51.7303 
G01 Z-0.1778 F200.00 
G01 X15.9945 Y51.8565 F100.00 
G01 X15.9568 Y51.9972 
G01 X15.9568 Y64.5409 
G01 X14.2914 Y66.2063 
G01 X14.2471 Y66.1837 
G01 X14.0731 Y66.1271 
G01 X13.8923 Y66.0985 
G01 X13.7093 Y66.0985 
G01 X13.5285 Y66.1271 
G01 X13.3544 Y66.1837 
G01 X13.1913 Y66.2668 
G01 X13.0433 Y66.3744 
G01 X11.7644 Y67.6533 
G01 X11.6568 Y67.8013 
G01 X11.5737 Y67.9644 
G01 X11.5171 Y68.1385 
G01 X11.4885 Y68.3193 
G01 X11.4885 Y68.5023 
G01 X11.5171 Y68.6831 
G01 X11.5737 Y68.8571 
G01 X11.6568 Y69.0202 
G01 X11.7644 Y69.1683 
G01 X11.8938 Y69.2977 
G01 X12.0419 Y69.4053 
G01 X12.2050 Y69.4884 
G01 X12.3790 Y69.5450 
G01 X12.5598 Y69.5736 
G01 X12.7428 Y69.5736 
G01 X12.9236 Y69.5450 
G01 X13.0977 Y69.4884 
G01 X13.2608 Y69.4053 
G01 X13.4088 Y69.2977 
G01 X14.6877 Y68.0188 
G01 X14.7953 Y67.8708 
G01 X14.8784 Y67.7077 
G01 X14.9350 Y67.5336 
G01 X14.9636 Y67.3528 
G01 X14.9636 Y67.1698 
G01 X14.9539 Y67.1085 
G01 X16.8497 Y65.2127 
G01 X16.9527 Y65.1097 
G01 X17.0255 Y64.9835 
G01 X17.0632 Y64.8428 
G01 X17.0632 Y52.2991 
G01 X20.5491 Y48.8132 
G01 X70.0288 Y48.8132 
G01 X70.6384 Y49.4228 
G01 X71.6016 Y49.4228 
G01 X72.2828 Y48.7416 
G01 X72.2828 Y47.7784 
G01 X71.6016 Y47.0972 
G01 X70.6384 Y47.0972 
G01 X70.0288 Y47.7068 
G01 X20.2472 Y47.7068 
G01 X20.1065 Y47.7445 
G01 X19.9803 Y47.8173 
G01 X19.8773 Y47.9203 
G01 X16.0673 Y51.7303 
G00 Z5.0000 
G00 X18.6203 Y65.2825 
G01 Z-0.1778 F200.00 
G01 X18.5127 Y65.4306 F100.00 
G01 X18.4296 Y65.5936 
G01 X18.3730 Y65.7677 
G01 X18.3444 Y65.9485 
G01 X18.3444 Y66.1315 
G01 X18.3730 Y66.3123 
G01 X18.4296 Y66.4864 
G01 X18.5127 Y66.6494 
G01 X18.6203 Y66.7975 
G01 X18.7497 Y66.9269 
G01 X18.8978 Y67.0345 
G01 X19.0608 Y67.1176 
G01 X19.2349 Y67.1742 
G01 X19.4157 Y67.2028 
G01 X21.2243 Y67.2028 
G01 X21.4051 Y67.1742 
G01 X21.5792 Y67.1176 
G01 X21.7422 Y67.0345 
G01 X21.8903 Y66.9269 
G01 X22.0197 Y66.7975 
G01 X22.1273 Y66.6494 
G01 X22.2104 Y66.4864 
G01 X22.2670 Y66.3123 
G01 X22.2956 Y66.1315 
G01 X22.2956 Y65.9485 
G01 X22.2670 Y65.7677 
G01 X22.2104 Y65.5936 
G01 X22.1273 Y65.4306 
G01 X22.0197 Y65.2825 
G01 X21.8903 Y65.1531 
G01 X21.7422 Y65.0455 
G01 X21.5792 Y64.9624 
G01 X21.4051 Y64.9058 
G01 X21.2243 Y64.8772 
G01 X19.4157 Y64.8772 
G01 X19.2349 Y64.9058 
G01 X19.0608 Y64.9624 
G01 X18.8978 Y65.0455 
G01 X18.7497 Y65.1531 
G01 X18.6203 Y65.2825 
G00 Z5.0000 
G00 X18.6203 Y67.8225 
G01 Z-0.1778 F200.00 
G01 X18.5127 Y67.9706 F100.00 
G01 X18.4296 Y68.1336 
G01 X18.3730 Y68.3077 
G01 X18.3444 Y68.4885 
G01 X18.3444 Y68.6715 
G01 X18.3730 Y68.8523 
G01 X18.4296 Y69.0264 
G01 X18.5127 Y69.1894 
G01 X18.6203 Y69.3375 
G01 X18.7497 Y69.4669 
G01 X18.8978 Y69.5745 
G01 X19.0608 Y69.6576 
G01 X19.2349 Y69.7142 
G01 X19.4157 Y69.7428 
G01 X21.2243 Y69.7428 
G01 X21.4051 Y69.7142 
G01 X21.5792 Y69.6576 
G01 X21.7422 Y69.5745 
G01 X21.8903 Y69.4669 
G01 X22.0197 Y69.3375 
G01 X22.1273 Y69.1894 
G01 X22.2104 Y69.0264 
G01 X22.2670 Y68.8523 
G01 X22.2956 Y68.6715 
G01 X22.2956 Y68.4885 
G01 X22.2670 Y68.3077 
G01 X22.2104 Y68.1336 
G01 X22.1273 Y67.9706 
G01 X22.0197 Y67.8225 
G01 X21.8903 Y67.6931 
G01 X21.7422 Y67.5855 
G01 X21.5792 Y67.5024 
G01 X21.4051 Y67.4458 
G01 X21.2243 Y67.4172 
G01 X19.4157 Y67.4172 
G01 X19.2349 Y67.4458 
G01 X19.0608 Y67.5024 
G01 X18.8978 Y67.5855 
G01 X18.7497 Y67.6931 
G01 X18.6203 Y67.8225 
G00 Z5.0000 
G00 X18.6203 Y70.3625 
G01 Z-0.1778 F200.00 
G01 X18.5127 Y70.5106 F100.00 
G01 X18.4296 Y70.6736 
G01 X18.3730 Y70.8477 
G01 X18.3444 Y71.0285 
G01 X18.3444 Y71.2115 
G01 X18.3730 Y71.3923 
G01 X18.4296 Y71.5664 
G01 X18.5127 Y71.7294 
G01 X18.6203 Y71.8775 
G01 X18.7497 Y72.0069 
G01 X18.8978 Y72.1145 
G01 X19.0608 Y72.1976 
G01 X19.2349 Y72.2542 
G01 X19.4157 Y72.2828 
G01 X21.2243 Y72.2828 
G01 X21.4051 Y72.2542 
G01 X21.5792 Y72.1976 
G01 X21.7422 Y72.1145 
G01 X21.8903 Y72.0069 
G01 X22.0197 Y71.8775 
G01 X22.1273 Y71.7294 
G01 X22.2104 Y71.5664 
G01 X22.2670 Y71.3923 
G01 X22.2956 Y71.2115 
G01 X22.2956 Y71.0285 
G01 X22.2670 Y70.8477 
G01 X22.2104 Y70.6736 
G01 X22.1273 Y70.5106 
G01 X22.0197 Y70.3625 
G01 X21.8903 Y70.2331 
G01 X21.7422 Y70.1255 
G01 X21.5792 Y70.0424 
G01 X21.4051 Y69.9858 
G01 X21.2243 Y69.9572 
G01 X19.4157 Y69.9572 
G01 X19.2349 Y69.9858 
G01 X19.0608 Y70.0424 
G01 X18.8978 Y70.1255 
G01 X18.7497 Y70.2331 
G01 X18.6203 Y70.3625 
G00 Z5.0000 
G00 X18.6203 Y72.9025 
G01 Z-0.1778 F200.00 
G01 X18.5127 Y73.0506 F100.00 
G01 X18.4296 Y73.2136 
G01 X18.3730 Y73.3877 
G01 X18.3444 Y73.5685 
G01 X18.3444 Y73.7515 
G01 X18.3730 Y73.9323 
G01 X18.4296 Y74.1064 
G01 X18.5127 Y74.2694 
G01 X18.6203 Y74.4175 
G01 X18.7497 Y74.5469 
G01 X18.8978 Y74.6545 
G01 X19.0608 Y74.7376 
G01 X19.2349 Y74.7942 
G01 X19.4157 Y74.8228 
G01 X21.2243 Y74.8228 
G01 X21.4051 Y74.7942 
G01 X21.5792 Y74.7376 
G01 X21.7422 Y74.6545 
G01 X21.8903 Y74.5469 
G01 X22.0197 Y74.4175 
G01 X22.1273 Y74.2694 
G01 X22.2104 Y74.1064 
G01 X22.2670 Y73.9323 
G01 X22.2956 Y73.7515 
G01 X22.2956 Y73.5685 
G01 X22.2670 Y73.3877 
G01 X22.2104 Y73.2136 
G01 X22.1273 Y73.0506 
G01 X22.0197 Y72.9025 
G01 X21.8903 Y72.7731 
G01 X21.7422 Y72.6655 
G01 X21.5792 Y72.5824 
G01 X21.4051 Y72.5258 
G01 X21.2243 Y72.4972 
G01 X19.4157 Y72.4972 
G01 X19.2349 Y72.5258 
G01 X19.0608 Y72.5824 
G01 X18.8978 Y72.6655 
G01 X18.7497 Y72.7731 
G01 X18.6203 Y72.9025 
G00 Z5.0000 
G00 X26.2403 Y72.9025 
G01 Z-0.1778 F200.00 
G01 X26.1327 Y73.0506 F100.00 
G01 X26.0496 Y73.2136 
G01 X25.9930 Y73.3877 
G01 X25.9644 Y73.5685 
G01 X25.9644 Y73.7515 
G01 X25.9930 Y73.9323 
G01 X26.0496 Y74.1064 
G01 X26.1327 Y74.2694 
G01 X26.2403 Y74.4175 
G01 X26.3697 Y74.5469 
G01 X26.5178 Y74.6545 
G01 X26.6808 Y74.7376 
G01 X26.8549 Y74.7942 
G01 X27.0357 Y74.8228 
G01 X28.8443 Y74.8228 
G01 X29.0251 Y74.7942 
G01 X29.1992 Y74.7376 
G01 X29.3622 Y74.6545 
G01 X29.5103 Y74.5469 
G01 X29.6397 Y74.4175 
G01 X29.7473 Y74.2694 
G01 X29.8304 Y74.1064 
G01 X29.8870 Y73.9323 
G01 X29.9156 Y73.7515 
G01 X29.9156 Y73.5685 
G01 X29.8870 Y73.3877 
G01 X29.8304 Y73.2136 
G01 X29.7473 Y73.0506 
G01 X29.6397 Y72.9025 
G01 X29.5103 Y72.7731 
G01 X29.3622 Y72.6655 
G01 X29.1992 Y72.5824 
G01 X29.0251 Y72.5258 
G01 X28.8443 Y72.4972 
G01 X27.0357 Y72.4972 
G01 X26.8549 Y72.5258 
G01 X26.6808 Y72.5824 
G01 X26.5178 Y72.6655 
G01 X26.3697 Y72.7731 
G01 X26.2403 Y72.9025 
G00 Z5.0000 
G00 X26.3697 Y72.0069 
G01 Z-0.1778 F200.00 
G01 X26.5178 Y72.1145 F100.00 
G01 X26.6808 Y72.1976 
G01 X26.8549 Y72.2542 
G01 X27.0357 Y72.2828 
G01 X28.8443 Y72.2828 
G01 X29.0251 Y72.2542 
G01 X29.1992 Y72.1976 
G01 X29.3622 Y72.1145 
G01 X29.5103 Y72.0069 
G01 X29.6397 Y71.8775 
G01 X29.7473 Y71.7294 
G01 X29.8304 Y71.5664 
G01 X29.8870 Y71.3923 
G01 X29.9156 Y71.2115 
G01 X29.9156 Y71.0285 
G01 X29.8870 Y70.8477 
G01 X29.8304 Y70.6736 
G01 X29.7473 Y70.5106 
G01 X29.6397 Y70.3625 
G01 X29.5103 Y70.2331 
G01 X29.3622 Y70.1255 
G01 X29.1992 Y70.0424 
G01 X29.0251 Y69.9858 
G01 X28.8443 Y69.9572 
G01 X27.0357 Y69.9572 
G01 X26.8549 Y69.9858 
G01 X26.6808 Y70.0424 
G01 X26.5178 Y70.1255 
G01 X26.3697 Y70.2331 
G01 X26.2403 Y70.3625 
G01 X26.1327 Y70.5106 
G01 X26.0496 Y70.6736 
G01 X25.9930 Y70.8477 
G01 X25.9644 Y71.0285 
G01 X25.9644 Y71.2115 
G01 X25.9930 Y71.3923 
G01 X26.0496 Y71.5664 
G01 X26.1327 Y71.7294 
G01 X26.2403 Y71.8775 
G01 X26.3697 Y72.0069 
G00 Z5.0000 
G00 X26.3697 Y69.4669 
G01 Z-0.1778 F200.00 
G01 X26.5178 Y69.5745 F100.00 
G01 X26.6808 Y69.6576 
G01 X26.8549 Y69.7142 
G01 X27.0357 Y69.7428 
G01 X28.8443 Y69.7428 
G01 X29.0251 Y69.7142 
G01 X29.1992 Y69.6576 
G01 X29.3622 Y69.5745 
G01 X29.5103 Y69.4669 
G01 X29.6397 Y69.3375 
G01 X29.7473 Y69.1894 
G01 X29.8304 Y69.0264 
G01 X29.8870 Y68.8523 
G01 X29.9156 Y68.6715 
G01 X29.9156 Y68.4885 
G01 X29.8870 Y68.3077 
G01 X29.8304 Y68.1336 
G01 X29.7473 Y67.9706 
G01 X29.6397 Y67.8225 
G01 X29.5103 Y67.6931 
G01 X29.3622 Y67.5855 
G01 X29.1992 Y67.5024 
G01 X29.0251 Y67.4458 
G01 X28.8443 Y67.4172 
G01 X27.0357 Y67.4172 
G01 X26.8549 Y67.4458 
G01 X26.6808 Y67.5024 
G01 X26.5178 Y67.5855 
G01 X26.3697 Y67.6931 
G01 X26.2403 Y67.8225 
G01 X26.1327 Y67.9706 
G01 X26.0496 Y68.1336 
G01 X25.9930 Y68.3077 
G01 X25.9644 Y68.4885 
G01 X25.9644 Y68.6715 
G01 X25.9930 Y68.8523 
G01 X26.0496 Y69.0264 
G01 X26.1327 Y69.1894 
G01 X26.2403 Y69.3375 
G01 X26.3697 Y69.4669 
G00 Z5.0000 
G00 X26.3697 Y66.9269 
G01 Z-0.1778 F200.00 
G01 X26.5178 Y67.0345 F100.00 
G01 X26.6808 Y67.1176 
G01 X26.8549 Y67.1742 
G01 X27.0357 Y67.2028 
G01 X28.8443 Y67.2028 
G01 X29.0251 Y67.1742 
G01 X29.1992 Y67.1176 
G01 X29.3622 Y67.0345 
G01 X29.5103 Y66.9269 
G01 X29.6397 Y66.7975 
G01 X29.7473 Y66.6494 
G01 X29.8304 Y66.4864 
G01 X29.8870 Y66.3123 
G01 X29.9156 Y66.1315 
G01 X29.9156 Y65.9485 
G01 X29.8870 Y65.7677 
G01 X29.8304 Y65.5936 
G01 X29.7473 Y65.4306 
G01 X29.6397 Y65.2825 
G01 X29.5103 Y65.1531 
G01 X29.3622 Y65.0455 
G01 X29.1992 Y64.9624 
G01 X29.0251 Y64.9058 
G01 X28.8443 Y64.8772 
G01 X27.0357 Y64.8772 
G01 X26.8549 Y64.9058 
G01 X26.6808 Y64.9624 
G01 X26.5178 Y65.0455 
G01 X26.3697 Y65.1531 
G01 X26.2403 Y65.2825 
G01 X26.1327 Y65.4306 
G01 X26.0496 Y65.5936 
G01 X25.9930 Y65.7677 
G01 X25.9644 Y65.9485 
G01 X25.9644 Y66.1315 
G01 X25.9930 Y66.3123 
G01 X26.0496 Y66.4864 
G01 X26.1327 Y66.6494 
G01 X26.2403 Y66.7975 
G01 X26.3697 Y66.9269 
G00 Z5.0000 
G00 X30.6960 Y68.1434 
G01 Z-0.1778 F200.00 
G01 X30.6960 Y69.0166 F100.00 
G01 X31.3134 Y69.6340 
G01 X32.1866 Y69.6340 
G01 X32.8040 Y69.0166 
G01 X32.8040 Y68.1434 
G01 X32.3032 Y67.6426 
G01 X32.3032 Y58.6491 
G01 X34.5191 Y56.4332 
G01 X70.0288 Y56.4332 
G01 X70.6384 Y57.0428 
G01 X71.6016 Y57.0428 
G01 X72.2828 Y56.3616 
G01 X72.2828 Y55.3984 
G01 X71.6016 Y54.7172 
G01 X70.6384 Y54.7172 
G01 X70.0288 Y55.3268 
G01 X34.2172 Y55.3268 
G01 X34.0765 Y55.3645 
G01 X33.9503 Y55.4373 
G01 X31.4103 Y57.9773 
G01 X31.3073 Y58.0803 
G01 X31.2345 Y58.2065 
G01 X31.1968 Y58.3472 
G01 X31.1968 Y67.6426 
G01 X30.6960 Y68.1434 
G00 Z5.0000 
G00 X33.6696 Y68.1336 
G01 Z-0.1778 F200.00 
G01 X33.6130 Y68.3077 F100.00 
G01 X33.5844 Y68.4885 
G01 X33.5844 Y68.6715 
G01 X33.6130 Y68.8523 
G01 X33.6696 Y69.0264 
G01 X33.7527 Y69.1894 
G01 X33.8603 Y69.3375 
G01 X33.9897 Y69.4669 
G01 X34.1378 Y69.5745 
G01 X34.3008 Y69.6576 
G01 X34.4749 Y69.7142 
G01 X34.6557 Y69.7428 
G01 X36.4643 Y69.7428 
G01 X36.6451 Y69.7142 
G01 X36.8192 Y69.6576 
G01 X36.9822 Y69.5745 
G01 X37.1303 Y69.4669 
G01 X37.2597 Y69.3375 
G01 X37.3673 Y69.1894 
G01 X37.4504 Y69.0264 
G01 X37.5070 Y68.8523 
G01 X37.5356 Y68.6715 
G01 X37.5356 Y68.4885 
G01 X37.5070 Y68.3077 
G01 X37.4504 Y68.1336 
G01 X37.3673 Y67.9706 
G01 X37.2597 Y67.8225 
G01 X37.1303 Y67.6931 
G01 X36.9822 Y67.5855 
G01 X36.8192 Y67.5024 
G01 X36.6451 Y67.4458 
G01 X36.4643 Y67.4172 
G01 X34.6557 Y67.4172 
G01 X34.4749 Y67.4458 
G01 X34.3008 Y67.5024 
G01 X34.1378 Y67.5855 
G01 X33.9897 Y67.6931 
G01 X33.8603 Y67.8225 
G01 X33.7527 Y67.9706 
G01 X33.6696 Y68.1336 
G00 Z5.0000 
G00 X33.9897 Y66.9269 
G01 Z-0.1778 F200.00 
G01 X34.1378 Y67.0345 F100.00 
G01 X34.3008 Y67.1176 
G01 X34.4749 Y67.1742 
G01 X34.6557 Y67.2028 
G01 X36.4643 Y67.2028 
G01 X36.6451 Y67.1742 
G01 X36.8192 Y67.1176 
G01 X36.9822 Y67.0345 
G01 X37.1303 Y66.9269 
G01 X37.2597 Y66.7975 
G01 X37.3673 Y66.6494 
G01 X37.4504 Y66.4864 
G01 X37.5070 Y66.3123 
G01 X37.5356 Y66.1315 
G01 X37.5356 Y65.9485 
G01 X37.5070 Y65.7677 
G01 X37.4504 Y65.5936 
G01 X37.3673 Y65.4306 
G01 X37.2597 Y65.2825 
G01 X37.1303 Y65.1531 
G01 X36.9822 Y65.0455 
G01 X36.8192 Y64.9624 
G01 X36.6451 Y64.9058 
G01 X36.4643 Y64.8772 
G01 X34.6557 Y64.8772 
G01 X34.4749 Y64.9058 
G01 X34.3008 Y64.9624 
G01 X34.1378 Y65.0455 
G01 X33.9897 Y65.1531 
G01 X33.8603 Y65.2825 
G01 X33.7527 Y65.4306 
G01 X33.6696 Y65.5936 
G01 X33.6130 Y65.7677 
G01 X33.5844 Y65.9485 
G01 X33.5844 Y66.1315 
G01 X33.6130 Y66.3123 
G01 X33.6696 Y66.4864 
G01 X33.7527 Y66.6494 
G01 X33.8603 Y66.7975 
G01 X33.9897 Y66.9269 
G00 Z5.0000 
G00 X33.9897 Y70.2331 
G01 Z-0.1778 F200.00 
G01 X33.8603 Y70.3625 F100.00 
G01 X33.7527 Y70.5106 
G01 X33.6696 Y70.6736 
G01 X33.6130 Y70.8477 
G01 X33.5844 Y71.0285 
G01 X33.5844 Y71.2115 
G01 X33.6130 Y71.3923 
G01 X33.6696 Y71.5664 
G01 X33.7527 Y71.7294 
G01 X33.8603 Y71.8775 
G01 X33.9897 Y72.0069 
G01 X34.1378 Y72.1145 
G01 X34.3008 Y72.1976 
G01 X34.4749 Y72.2542 
G01 X34.6557 Y72.2828 
G01 X36.4643 Y72.2828 
G01 X36.6451 Y72.2542 
G01 X36.8192 Y72.1976 
G01 X36.9822 Y72.1145 
G01 X37.1303 Y72.0069 
G01 X37.2597 Y71.8775 
G01 X37.3673 Y71.7294 
G01 X37.4504 Y71.5664 
G01 X37.5070 Y71.3923 
G01 X37.5356 Y71.2115 
G01 X37.5356 Y71.0285 
G01 X37.5070 Y70.8477 
G01 X37.4504 Y70.6736 
G01 X37.3673 Y70.5106 
G01 X37.2597 Y70.3625 
G01 X37.1303 Y70.2331 
G01 X36.9822 Y70.1255 
G01 X36.8192 Y70.0424 
G01 X36.6451 Y69.9858 
G01 X36.4643 Y69.9572 
G01 X34.6557 Y69.9572 
G01 X34.4749 Y69.9858 
G01 X34.3008 Y70.0424 
G01 X34.1378 Y70.1255 
G01 X33.9897 Y70.2331 
G00 Z5.0000 
G00 X33.9897 Y72.7731 
G01 Z-0.1778 F200.00 
G01 X33.8603 Y72.9025 F100.00 
G01 X33.7527 Y73.0506 
G01 X33.6696 Y73.2136 
G01 X33.6130 Y73.3877 
G01 X33.5844 Y73.5685 
G01 X33.5844 Y73.7515 
G01 X33.6130 Y73.9323 
G01 X33.6696 Y74.1064 
G01 X33.7527 Y74.2694 
G01 X33.8603 Y74.4175 
G01 X33.9897 Y74.5469 
G01 X34.1378 Y74.6545 
G01 X34.3008 Y74.7376 
G01 X34.4749 Y74.7942 
G01 X34.6557 Y74.8228 
G01 X36.4643 Y74.8228 
G01 X36.6451 Y74.7942 
G01 X36.8192 Y74.7376 
G01 X36.9822 Y74.6545 
G01 X37.1303 Y74.5469 
G01 X37.2597 Y74.4175 
G01 X37.3673 Y74.2694 
G01 X37.4504 Y74.1064 
G01 X37.5070 Y73.9323 
G01 X37.5356 Y73.7515 
G01 X37.5356 Y73.5685 
G01 X37.5070 Y73.3877 
G01 X37.4504 Y73.2136 
G01 X37.3673 Y73.0506 
G01 X37.2597 Y72.9025 
G01 X37.1303 Y72.7731 
G01 X36.9822 Y72.6655 
G01 X36.8192 Y72.5824 
G01 X36.6451 Y72.5258 
G01 X36.4643 Y72.4972 
G01 X34.6557 Y72.4972 
G01 X34.4749 Y72.5258 
G01 X34.3008 Y72.5824 
G01 X34.1378 Y72.6655 
G01 X33.9897 Y72.7731 
G00 Z5.0000 
G00 X38.9334 Y72.1740 
G01 Z-0.1778 F200.00 
G01 X39.8066 Y72.1740 F100.00 
G01 X40.4240 Y71.5566 
G01 X40.4240 Y70.6834 
G01 X39.9232 Y70.1826 
G01 X39.9232 Y61.1891 
G01 X42.1391 Y58.9732 
G01 X70.0288 Y58.9732 
G01 X70.6384 Y59.5828 
G01 X71.6016 Y59.5828 
G01 X72.2828 Y58.9016 
G01 X72.2828 Y57.9384 
G01 X71.6016 Y57.2572 
G01 X70.6384 Y57.2572 
G01 X70.0288 Y57.8668 
G01 X41.8372 Y57.8668 
G01 X41.6965 Y57.9045 
G01 X41.5703 Y57.9773 
G01 X39.0303 Y60.5173 
G01 X38.9273 Y60.6203 
G01 X38.8545 Y60.7465 
G01 X38.8168 Y60.8872 
G01 X38.8168 Y70.1826 
G01 X38.3160 Y70.6834 
G01 X38.3160 Y71.5566 
G01 X38.9334 Y72.1740 
G00 Z5.0000 
G00 X46.2325 Y71.5497 
G01 Z-0.1778 F200.00 
G01 X46.3806 Y71.6573 F100.00 
G01 X46.5436 Y71.7404 
G01 X46.7177 Y71.7970 
G01 X46.8985 Y71.8256 
G01 X47.0815 Y71.8256 
G01 X47.2623 Y71.7970 
G01 X47.4364 Y71.7404 
G01 X47.5994 Y71.6573 
G01 X47.7475 Y71.5497 
G01 X47.8769 Y71.4203 
G01 X47.9845 Y71.2722 
G01 X48.0676 Y71.1092 
G01 X48.1242 Y70.9351 
G01 X48.1528 Y70.7543 
G01 X48.1528 Y68.9457 
G01 X48.1242 Y68.7649 
G01 X48.0676 Y68.5908 
G01 X47.9845 Y68.4278 
G01 X47.8769 Y68.2797 
G01 X47.7475 Y68.1503 
G01 X47.5994 Y68.0427 
G01 X47.5432 Y68.0140 
G01 X47.5432 Y67.2372 
G01 X47.5055 Y67.0965 
G01 X47.4327 Y66.9703 
G01 X47.3297 Y66.8673 
G01 X46.7740 Y66.3117 
G01 X46.7740 Y65.6034 
G01 X46.1566 Y64.9860 
G01 X45.2834 Y64.9860 
G01 X44.6660 Y65.6034 
G01 X44.6660 Y66.4766 
G01 X45.2834 Y67.0940 
G01 X45.9917 Y67.0940 
G01 X46.4368 Y67.5391 
G01 X46.4368 Y68.0140 
G01 X46.3806 Y68.0427 
G01 X46.2325 Y68.1503 
G01 X46.1031 Y68.2797 
G01 X45.9955 Y68.4278 
G01 X45.9124 Y68.5908 
G01 X45.8558 Y68.7649 
G01 X45.8272 Y68.9457 
G01 X45.8272 Y70.7543 
G01 X45.8558 Y70.9351 
G01 X45.9124 Y71.1092 
G01 X45.9955 Y71.2722 
G01 X46.1031 Y71.4203 
G01 X46.2325 Y71.5497 
G00 Z5.0000 
G00 X48.7725 Y71.5497 
G01 Z-0.1778 F200.00 
G01 X48.9206 Y71.6573 F100.00 
G01 X48.9800 Y71.6876 
G01 X48.9800 Y75.2960 
G01 X48.9299 Y75.2960 
G01 X48.8409 Y75.3199 
G01 X48.7611 Y75.3659 
G01 X48.6959 Y75.4311 
G01 X48.6499 Y75.5109 
G01 X48.6260 Y75.5999 
G01 X48.6260 Y76.8001 
G01 X48.6499 Y76.8891 
G01 X48.6959 Y76.9689 
G01 X48.7611 Y77.0341 
G01 X48.8409 Y77.0801 
G01 X48.9299 Y77.1040 
G01 X50.1301 Y77.1040 
G01 X50.2191 Y77.0801 
G01 X50.2989 Y77.0341 
G01 X50.3641 Y76.9689 
G01 X50.4101 Y76.8891 
G01 X50.4340 Y76.8001 
G01 X50.4340 Y76.3629 
G01 X52.1998 Y75.4800 
G01 X88.8823 Y75.4800 
G01 X88.9369 Y75.4835 
G01 X88.9545 Y75.4800 
G01 X88.9724 Y75.4800 
G01 X89.0252 Y75.4658 
G01 X89.0789 Y75.4551 
G01 X89.0949 Y75.4472 
G01 X89.1123 Y75.4425 
G01 X89.1597 Y75.4152 
G01 X89.2087 Y75.3909 
G01 X89.2222 Y75.3791 
G01 X89.2377 Y75.3701 
G01 X89.2764 Y75.3314 
G01 X89.3175 Y75.2953 
G01 X89.3274 Y75.2804 
G01 X89.3401 Y75.2677 
G01 X89.3675 Y75.2203 
G01 X91.8674 Y71.4704 
G01 X91.8801 Y71.4577 
G01 X91.9075 Y71.4103 
G01 X91.9378 Y71.3648 
G01 X91.9435 Y71.3478 
G01 X91.9525 Y71.3323 
G01 X91.9667 Y71.2795 
G01 X91.9842 Y71.2277 
G01 X91.9853 Y71.2097 
G01 X91.9900 Y71.1924 
G01 X91.9900 Y71.1377 
G01 X91.9935 Y71.0831 
G01 X91.9900 Y71.0655 
G01 X91.9900 Y70.7540 
G01 X92.0401 Y70.7540 
G01 X92.1291 Y70.7301 
G01 X92.2089 Y70.6841 
G01 X92.2741 Y70.6189 
G01 X92.3201 Y70.5391 
G01 X92.3440 Y70.4501 
G01 X92.3440 Y69.2499 
G01 X92.3201 Y69.1609 
G01 X92.2741 Y69.0811 
G01 X92.2089 Y69.0159 
G01 X92.1291 Y68.9699 
G01 X92.0401 Y68.9460 
G01 X91.3138 Y68.9460 
G01 X89.3183 Y66.9505 
G01 X89.3389 Y66.8870 
G01 X89.3675 Y66.7062 
G01 X89.3675 Y66.5232 
G01 X89.3389 Y66.3424 
G01 X89.2823 Y66.1684 
G01 X89.1992 Y66.0053 
G01 X89.0917 Y65.8572 
G01 X87.8128 Y64.5783 
G01 X87.6647 Y64.4707 
G01 X87.5016 Y64.3877 
G01 X87.3276 Y64.3311 
G01 X87.1468 Y64.3025 
G01 X86.9637 Y64.3025 
G01 X86.7830 Y64.3311 
G01 X86.6089 Y64.3877 
G01 X86.4458 Y64.4707 
G01 X86.2977 Y64.5783 
G01 X86.1683 Y64.7078 
G01 X86.0607 Y64.8558 
G01 X85.9777 Y65.0189 
G01 X85.9211 Y65.1930 
G01 X85.8925 Y65.3737 
G01 X85.8925 Y65.5568 
G01 X85.9211 Y65.7376 
G01 X85.9777 Y65.9116 
G01 X86.0607 Y66.0747 
G01 X86.1683 Y66.2228 
G01 X87.4472 Y67.5017 
G01 X87.5953 Y67.6092 
G01 X87.7584 Y67.6923 
G01 X87.9324 Y67.7489 
G01 X88.1132 Y67.7775 
G01 X88.2963 Y67.7775 
G01 X88.4770 Y67.7489 
G01 X88.5405 Y67.7283 
G01 X90.5360 Y69.7238 
G01 X90.5360 Y70.4501 
G01 X90.5599 Y70.5391 
G01 X90.6059 Y70.6189 
G01 X90.6711 Y70.6841 
G01 X90.7509 Y70.7301 
G01 X90.8399 Y70.7540 
G01 X90.8900 Y70.7540 
G01 X90.8900 Y70.9535 
G01 X88.6056 Y74.3800 
G01 X52.0865 Y74.3800 
G01 X52.0307 Y74.3766 
G01 X52.0143 Y74.3800 
G01 X51.9976 Y74.3800 
G01 X51.9436 Y74.3945 
G01 X51.8888 Y74.4057 
G01 X51.8738 Y74.4132 
G01 X51.8577 Y74.4175 
G01 X51.8093 Y74.4454 
G01 X50.1082 Y75.2960 
G01 X50.0800 Y75.2960 
G01 X50.0800 Y71.6876 
G01 X50.1394 Y71.6573 
G01 X50.2875 Y71.5497 
G01 X50.4169 Y71.4203 
G01 X50.5245 Y71.2722 
G01 X50.6076 Y71.1092 
G01 X50.6642 Y70.9351 
G01 X50.6928 Y70.7543 
G01 X50.6928 Y68.9457 
G01 X50.6642 Y68.7649 
G01 X50.6076 Y68.5908 
G01 X50.5245 Y68.4278 
G01 X50.4169 Y68.2797 
G01 X50.2875 Y68.1503 
G01 X50.1394 Y68.0427 
G01 X50.0800 Y68.0124 
G01 X50.0800 Y63.7278 
G01 X52.2978 Y61.5100 
G01 X62.3200 Y61.5100 
G01 X62.3200 Y61.8061 
G01 X62.3439 Y61.8951 
G01 X62.3899 Y61.9749 
G01 X62.4551 Y62.0401 
G01 X62.5349 Y62.0861 
G01 X62.6239 Y62.1100 
G01 X64.1161 Y62.1100 
G01 X64.2051 Y62.0861 
G01 X64.2849 Y62.0401 
G01 X64.3501 Y61.9749 
G01 X64.3961 Y61.8951 
G01 X64.4200 Y61.8061 
G01 X64.4200 Y60.1139 
G01 X64.3961 Y60.0249 
G01 X64.3501 Y59.9451 
G01 X64.2849 Y59.8799 
G01 X64.2051 Y59.8339 
G01 X64.1161 Y59.8100 
G01 X62.6239 Y59.8100 
G01 X62.5349 Y59.8339 
G01 X62.4551 Y59.8799 
G01 X62.3899 Y59.9451 
G01 X62.3439 Y60.0249 
G01 X62.3200 Y60.1139 
G01 X62.3200 Y60.4100 
G01 X51.9976 Y60.4100 
G01 X51.8577 Y60.4475 
G01 X51.7323 Y60.5199 
G01 X49.1923 Y63.0599 
G01 X49.0899 Y63.1623 
G01 X49.0175 Y63.2877 
G01 X48.9800 Y63.4276 
G01 X48.9800 Y68.0124 
G01 X48.9206 Y68.0427 
G01 X48.7725 Y68.1503 
G01 X48.6431 Y68.2797 
G01 X48.5355 Y68.4278 
G01 X48.4524 Y68.5908 
G01 X48.3958 Y68.7649 
G01 X48.3672 Y68.9457 
G01 X48.3672 Y70.7543 
G01 X48.3958 Y70.9351 
G01 X48.4524 Y71.1092 
G01 X48.5355 Y71.2722 
G01 X48.6431 Y71.4203 
G01 X48.7725 Y71.5497 
G00 Z5.0000 
G00 X51.3125 Y71.5497 
G01 Z-0.1778 F200.00 
G01 X51.4606 Y71.6573 F100.00 
G01 X51.6236 Y71.7404 
G01 X51.7977 Y71.7970 
G01 X51.9785 Y71.8256 
G01 X52.1615 Y71.8256 
G01 X52.3423 Y71.7970 
G01 X52.5164 Y71.7404 
G01 X52.6794 Y71.6573 
G01 X52.8275 Y71.5497 
G01 X52.9569 Y71.4203 
G01 X53.0645 Y71.2722 
G01 X53.1476 Y71.1092 
G01 X53.2042 Y70.9351 
G01 X53.2328 Y70.7543 
G01 X53.2328 Y68.9457 
G01 X53.2042 Y68.7649 
G01 X53.1476 Y68.5908 
G01 X53.0645 Y68.4278 
G01 X53.0393 Y68.3930 
G01 X53.5691 Y67.8632 
G01 X81.3528 Y67.8632 
G01 X81.4935 Y67.8255 
G01 X81.6197 Y67.7527 
G01 X82.8897 Y66.4827 
G01 X82.9927 Y66.3797 
G01 X83.0655 Y66.2535 
G01 X83.1032 Y66.1128 
G01 X83.1032 Y62.4591 
G01 X85.3191 Y60.2432 
G01 X92.7828 Y60.2432 
G01 X92.9235 Y60.2055 
G01 X93.0497 Y60.1327 
G01 X93.1527 Y60.0297 
G01 X94.4227 Y58.7597 
G01 X94.4955 Y58.6335 
G01 X94.5332 Y58.4928 
G01 X94.5332 Y49.4572 
G01 X94.4955 Y49.3165 
G01 X94.4227 Y49.1903 
G01 X94.3197 Y49.0873 
G01 X93.0497 Y47.8173 
G01 X92.9235 Y47.7445 
G01 X92.7828 Y47.7068 
G01 X87.9261 Y47.7068 
G01 X85.5602 Y44.1580 
G01 X85.5327 Y44.1103 
G01 X85.5199 Y44.0975 
G01 X85.5099 Y44.0825 
G01 X85.4686 Y44.0463 
G01 X85.4297 Y44.0073 
G01 X85.4140 Y43.9983 
G01 X85.4005 Y43.9864 
G01 X85.3512 Y43.9620 
G01 X85.3035 Y43.9345 
G01 X85.2861 Y43.9298 
G01 X85.2699 Y43.9218 
G01 X85.2160 Y43.9110 
G01 X85.1628 Y43.8968 
G01 X85.1448 Y43.8968 
G01 X85.1271 Y43.8933 
G01 X85.0722 Y43.8968 
G01 X78.6672 Y43.8968 
G01 X78.5265 Y43.9345 
G01 X78.4003 Y44.0073 
G01 X78.2973 Y44.1103 
G01 X77.0273 Y45.3803 
G01 X76.9545 Y45.5065 
G01 X76.9168 Y45.6472 
G01 X76.9168 Y46.7609 
G01 X75.9709 Y47.7068 
G01 X74.7512 Y47.7068 
G01 X74.1416 Y47.0972 
G01 X73.1784 Y47.0972 
G01 X72.4972 Y47.7784 
G01 X72.4972 Y48.7416 
G01 X73.1784 Y49.4228 
G01 X74.1416 Y49.4228 
G01 X74.7512 Y48.8132 
G01 X76.2728 Y48.8132 
G01 X76.4135 Y48.7755 
G01 X76.5397 Y48.7027 
G01 X77.8097 Y47.4327 
G01 X77.9127 Y47.3297 
G01 X77.9855 Y47.2035 
G01 X78.0232 Y47.0628 
G01 X78.0232 Y45.9491 
G01 X78.9691 Y45.0032 
G01 X84.7939 Y45.0032 
G01 X87.1598 Y48.5520 
G01 X87.1873 Y48.5997 
G01 X87.2001 Y48.6124 
G01 X87.2101 Y48.6275 
G01 X87.2514 Y48.6637 
G01 X87.2903 Y48.7027 
G01 X87.3060 Y48.7117 
G01 X87.3195 Y48.7236 
G01 X87.3688 Y48.7480 
G01 X87.4165 Y48.7755 
G01 X87.4339 Y48.7802 
G01 X87.4501 Y48.7882 
G01 X87.5040 Y48.7990 
G01 X87.5572 Y48.8132 
G01 X87.5752 Y48.8132 
G01 X87.5929 Y48.8167 
G01 X87.6478 Y48.8132 
G01 X92.4809 Y48.8132 
G01 X93.4268 Y49.7591 
G01 X93.4268 Y58.1909 
G01 X92.4809 Y59.1368 
G01 X85.0172 Y59.1368 
G01 X84.8765 Y59.1745 
G01 X84.7503 Y59.2473 
G01 X84.6473 Y59.3503 
G01 X82.1073 Y61.8903 
G01 X82.0345 Y62.0165 
G01 X81.9968 Y62.1572 
G01 X81.9968 Y65.8109 
G01 X81.0509 Y66.7568 
G01 X53.2672 Y66.7568 
G01 X53.1265 Y66.7945 
G01 X53.0003 Y66.8673 
G01 X52.8973 Y66.9703 
G01 X51.9933 Y67.8744 
G01 X51.9785 Y67.8744 
G01 X51.7977 Y67.9030 
G01 X51.6236 Y67.9596 
G01 X51.4606 Y68.0427 
G01 X51.3125 Y68.1503 
G01 X51.1831 Y68.2797 
G01 X51.0755 Y68.4278 
G01 X50.9924 Y68.5908 
G01 X50.9358 Y68.7649 
G01 X50.9072 Y68.9457 
G01 X50.9072 Y70.7543 
G01 X50.9358 Y70.9351 
G01 X50.9924 Y71.1092 
G01 X51.0755 Y71.2722 
G01 X51.1831 Y71.4203 
G01 X51.3125 Y71.5497 
G00 Z5.0000 
G00 X58.5272 Y72.0243 
G01 Z-0.1778 F200.00 
G01 X58.5558 Y72.2051 F100.00 
G01 X58.6124 Y72.3792 
G01 X58.6955 Y72.5422 
G01 X58.8031 Y72.6903 
G01 X58.9325 Y72.8197 
G01 X59.0806 Y72.9273 
G01 X59.2436 Y73.0104 
G01 X59.4177 Y73.0670 
G01 X59.5985 Y73.0956 
G01 X59.7815 Y73.0956 
G01 X59.9623 Y73.0670 
G01 X60.1364 Y73.0104 
G01 X60.2994 Y72.9273 
G01 X60.4475 Y72.8197 
G01 X60.5769 Y72.6903 
G01 X60.6845 Y72.5422 
G01 X60.7676 Y72.3792 
G01 X60.8242 Y72.2051 
G01 X60.8528 Y72.0243 
G01 X60.8528 Y70.2157 
G01 X60.8242 Y70.0349 
G01 X60.7676 Y69.8608 
G01 X60.6845 Y69.6978 
G01 X60.5769 Y69.5497 
G01 X60.4475 Y69.4203 
G01 X60.2994 Y69.3127 
G01 X60.1364 Y69.2296 
G01 X59.9623 Y69.1730 
G01 X59.7815 Y69.1444 
G01 X59.5985 Y69.1444 
G01 X59.4177 Y69.1730 
G01 X59.2436 Y69.2296 
G01 X59.0806 Y69.3127 
G01 X58.9325 Y69.4203 
G01 X58.8031 Y69.5497 
G01 X58.6955 Y69.6978 
G01 X58.6124 Y69.8608 
G01 X58.5558 Y70.0349 
G01 X58.5272 Y70.2157 
G01 X58.5272 Y72.0243 
G00 Z5.0000 
G00 X61.0672 Y72.0243 
G01 Z-0.1778 F200.00 
G01 X61.0958 Y72.2051 F100.00 
G01 X61.1524 Y72.3792 
G01 X61.2355 Y72.5422 
G01 X61.3431 Y72.6903 
G01 X61.4725 Y72.8197 
G01 X61.6206 Y72.9273 
G01 X61.7836 Y73.0104 
G01 X61.9577 Y73.0670 
G01 X62.1385 Y73.0956 
G01 X62.3215 Y73.0956 
G01 X62.5023 Y73.0670 
G01 X62.6764 Y73.0104 
G01 X62.8394 Y72.9273 
G01 X62.9875 Y72.8197 
G01 X63.1169 Y72.6903 
G01 X63.2245 Y72.5422 
G01 X63.3076 Y72.3792 
G01 X63.3642 Y72.2051 
G01 X63.3928 Y72.0243 
G01 X63.3928 Y70.2157 
G01 X63.3642 Y70.0349 
G01 X63.3076 Y69.8608 
G01 X63.2245 Y69.6978 
G01 X63.1169 Y69.5497 
G01 X62.9875 Y69.4203 
G01 X62.8394 Y69.3127 
G01 X62.6764 Y69.2296 
G01 X62.5023 Y69.1730 
G01 X62.3215 Y69.1444 
G01 X62.1385 Y69.1444 
G01 X61.9577 Y69.1730 
G01 X61.7836 Y69.2296 
G01 X61.6206 Y69.3127 
G01 X61.4725 Y69.4203 
G01 X61.3431 Y69.5497 
G01 X61.2355 Y69.6978 
G01 X61.1524 Y69.8608 
G01 X61.0958 Y70.0349 
G01 X61.0672 Y70.2157 
G01 X61.0672 Y72.0243 
G00 Z5.0000 
G00 X63.6072 Y72.0243 
G01 Z-0.1778 F200.00 
G01 X63.6358 Y72.2051 F100.00 
G01 X63.6924 Y72.3792 
G01 X63.7755 Y72.5422 
G01 X63.8831 Y72.6903 
G01 X64.0125 Y72.8197 
G01 X64.1606 Y72.9273 
G01 X64.3236 Y73.0104 
G01 X64.4977 Y73.0670 
G01 X64.6785 Y73.0956 
G01 X64.8615 Y73.0956 
G01 X65.0423 Y73.0670 
G01 X65.2164 Y73.0104 
G01 X65.3794 Y72.9273 
G01 X65.5275 Y72.8197 
G01 X65.6569 Y72.6903 
G01 X65.7645 Y72.5422 
G01 X65.8476 Y72.3792 
G01 X65.9042 Y72.2051 
G01 X65.9328 Y72.0243 
G01 X65.9328 Y70.2157 
G01 X65.9042 Y70.0349 
G01 X65.8476 Y69.8608 
G01 X65.7645 Y69.6978 
G01 X65.6569 Y69.5497 
G01 X65.5275 Y69.4203 
G01 X65.3794 Y69.3127 
G01 X65.2164 Y69.2296 
G01 X65.0423 Y69.1730 
G01 X64.8615 Y69.1444 
G01 X64.6785 Y69.1444 
G01 X64.4977 Y69.1730 
G01 X64.3236 Y69.2296 
G01 X64.1606 Y69.3127 
G01 X64.0125 Y69.4203 
G01 X63.8831 Y69.5497 
G01 X63.7755 Y69.6978 
G01 X63.6924 Y69.8608 
G01 X63.6358 Y70.0349 
G01 X63.6072 Y70.2157 
G01 X63.6072 Y72.0243 
G00 Z5.0000 
G00 X66.1472 Y72.0243 
G01 Z-0.1778 F200.00 
G01 X66.1758 Y72.2051 F100.00 
G01 X66.2324 Y72.3792 
G01 X66.3155 Y72.5422 
G01 X66.4231 Y72.6903 
G01 X66.5525 Y72.8197 
G01 X66.7006 Y72.9273 
G01 X66.8636 Y73.0104 
G01 X67.0377 Y73.0670 
G01 X67.2185 Y73.0956 
G01 X67.4015 Y73.0956 
G01 X67.5823 Y73.0670 
G01 X67.7564 Y73.0104 
G01 X67.9194 Y72.9273 
G01 X68.0675 Y72.8197 
G01 X68.1969 Y72.6903 
G01 X68.3045 Y72.5422 
G01 X68.3876 Y72.3792 
G01 X68.4442 Y72.2051 
G01 X68.4728 Y72.0243 
G01 X68.4728 Y70.2157 
G01 X68.4442 Y70.0349 
G01 X68.3876 Y69.8608 
G01 X68.3045 Y69.6978 
G01 X68.1969 Y69.5497 
G01 X68.0675 Y69.4203 
G01 X67.9194 Y69.3127 
G01 X67.7564 Y69.2296 
G01 X67.5823 Y69.1730 
G01 X67.4015 Y69.1444 
G01 X67.2185 Y69.1444 
G01 X67.0377 Y69.1730 
G01 X66.8636 Y69.2296 
G01 X66.7006 Y69.3127 
G01 X66.5525 Y69.4203 
G01 X66.4231 Y69.5497 
G01 X66.3155 Y69.6978 
G01 X66.2324 Y69.8608 
G01 X66.1758 Y70.0349 
G01 X66.1472 Y70.2157 
G01 X66.1472 Y72.0243 
G00 Z5.0000 
G00 X68.6872 Y72.0243 
G01 Z-0.1778 F200.00 
G01 X68.7158 Y72.2051 F100.00 
G01 X68.7724 Y72.3792 
G01 X68.8555 Y72.5422 
G01 X68.9631 Y72.6903 
G01 X69.0925 Y72.8197 
G01 X69.2406 Y72.9273 
G01 X69.4036 Y73.0104 
G01 X69.5777 Y73.0670 
G01 X69.7585 Y73.0956 
G01 X69.9415 Y73.0956 
G01 X70.1223 Y73.0670 
G01 X70.2964 Y73.0104 
G01 X70.4594 Y72.9273 
G01 X70.6075 Y72.8197 
G01 X70.7369 Y72.6903 
G01 X70.8445 Y72.5422 
G01 X70.9276 Y72.3792 
G01 X70.9842 Y72.2051 
G01 X71.0128 Y72.0243 
G01 X71.0128 Y70.2157 
G01 X70.9842 Y70.0349 
G01 X70.9276 Y69.8608 
G01 X70.8445 Y69.6978 
G01 X70.7369 Y69.5497 
G01 X70.6075 Y69.4203 
G01 X70.4594 Y69.3127 
G01 X70.2964 Y69.2296 
G01 X70.1223 Y69.1730 
G01 X69.9415 Y69.1444 
G01 X69.7585 Y69.1444 
G01 X69.5777 Y69.1730 
G01 X69.4036 Y69.2296 
G01 X69.2406 Y69.3127 
G01 X69.0925 Y69.4203 
G01 X68.9631 Y69.5497 
G01 X68.8555 Y69.6978 
G01 X68.7724 Y69.8608 
G01 X68.7158 Y70.0349 
G01 X68.6872 Y70.2157 
G01 X68.6872 Y72.0243 
G00 Z5.0000 
G00 X71.2272 Y72.0243 
G01 Z-0.1778 F200.00 
G01 X71.2558 Y72.2051 F100.00 
G01 X71.3124 Y72.3792 
G01 X71.3955 Y72.5422 
G01 X71.5031 Y72.6903 
G01 X71.6325 Y72.8197 
G01 X71.7806 Y72.9273 
G01 X71.9436 Y73.0104 
G01 X72.1177 Y73.0670 
G01 X72.2985 Y73.0956 
G01 X72.4815 Y73.0956 
G01 X72.6623 Y73.0670 
G01 X72.8364 Y73.0104 
G01 X72.9994 Y72.9273 
G01 X73.1475 Y72.8197 
G01 X73.2769 Y72.6903 
G01 X73.3845 Y72.5422 
G01 X73.4676 Y72.3792 
G01 X73.5242 Y72.2051 
G01 X73.5528 Y72.0243 
G01 X73.5528 Y70.2157 
G01 X73.5242 Y70.0349 
G01 X73.4676 Y69.8608 
G01 X73.3845 Y69.6978 
G01 X73.2769 Y69.5497 
G01 X73.1475 Y69.4203 
G01 X72.9994 Y69.3127 
G01 X72.8364 Y69.2296 
G01 X72.6623 Y69.1730 
G01 X72.4815 Y69.1444 
G01 X72.2985 Y69.1444 
G01 X72.1177 Y69.1730 
G01 X71.9436 Y69.2296 
G01 X71.7806 Y69.3127 
G01 X71.6325 Y69.4203 
G01 X71.5031 Y69.5497 
G01 X71.3955 Y69.6978 
G01 X71.3124 Y69.8608 
G01 X71.2558 Y70.0349 
G01 X71.2272 Y70.2157 
G01 X71.2272 Y72.0243 
G00 Z5.0000 
G00 X71.5566 Y64.5540 
G01 Z-0.1778 F200.00 
G01 X72.1740 Y63.9366 F100.00 
G01 X72.1740 Y63.0634 
G01 X71.6732 Y62.5626 
G01 X71.6732 Y62.0512 
G01 X72.2828 Y61.4416 
G01 X72.2828 Y60.4784 
G01 X71.6016 Y59.7972 
G01 X70.6384 Y59.7972 
G01 X70.0288 Y60.4068 
G01 X67.2200 Y60.4068 
G01 X67.2200 Y60.1139 
G01 X67.1961 Y60.0249 
G01 X67.1501 Y59.9451 
G01 X67.0849 Y59.8799 
G01 X67.0051 Y59.8339 
G01 X66.9161 Y59.8100 
G01 X65.4239 Y59.8100 
G01 X65.3349 Y59.8339 
G01 X65.2551 Y59.8799 
G01 X65.1899 Y59.9451 
G01 X65.1439 Y60.0249 
G01 X65.1200 Y60.1139 
G01 X65.1200 Y61.8061 
G01 X65.1439 Y61.8951 
G01 X65.1899 Y61.9749 
G01 X65.2551 Y62.0401 
G01 X65.3349 Y62.0861 
G01 X65.4239 Y62.1100 
G01 X66.9161 Y62.1100 
G01 X67.0051 Y62.0861 
G01 X67.0849 Y62.0401 
G01 X67.1501 Y61.9749 
G01 X67.1961 Y61.8951 
G01 X67.2200 Y61.8061 
G01 X67.2200 Y61.5132 
G01 X70.0288 Y61.5132 
G01 X70.5668 Y62.0512 
G01 X70.5668 Y62.5626 
G01 X70.0660 Y63.0634 
G01 X70.0660 Y63.9366 
G01 X70.6834 Y64.5540 
G01 X71.5566 Y64.5540 
G00 Z5.0000 
G00 X73.1784 Y62.1228 
G01 Z-0.1778 F200.00 
G01 X74.1416 Y62.1228 F100.00 
G01 X74.8228 Y61.4416 
G01 X74.8228 Y60.4784 
G01 X74.2132 Y59.8688 
G01 X74.2132 Y59.5112 
G01 X74.7512 Y58.9732 
G01 X75.9709 Y58.9732 
G01 X77.0273 Y60.0297 
G01 X77.1303 Y60.1327 
G01 X77.2565 Y60.2055 
G01 X77.3972 Y60.2432 
G01 X78.1868 Y60.2432 
G01 X78.1868 Y63.2709 
G01 X75.9709 Y65.4868 
G01 X61.1891 Y65.4868 
G01 X60.0297 Y64.3273 
G01 X59.9035 Y64.2545 
G01 X59.7628 Y64.2168 
G01 X59.3574 Y64.2168 
G01 X58.8566 Y63.7160 
G01 X57.9834 Y63.7160 
G01 X57.3660 Y64.3334 
G01 X57.3660 Y65.2066 
G01 X57.9834 Y65.8240 
G01 X58.8566 Y65.8240 
G01 X59.3574 Y65.3232 
G01 X59.4609 Y65.3232 
G01 X60.5173 Y66.3797 
G01 X60.6203 Y66.4827 
G01 X60.7465 Y66.5555 
G01 X60.8872 Y66.5932 
G01 X76.2728 Y66.5932 
G01 X76.4135 Y66.5555 
G01 X76.5397 Y66.4827 
G01 X79.0797 Y63.9427 
G01 X79.1827 Y63.8397 
G01 X79.2555 Y63.7135 
G01 X79.2932 Y63.5728 
G01 X79.2932 Y60.2432 
G01 X80.3426 Y60.2432 
G01 X80.8434 Y60.7440 
G01 X81.7166 Y60.7440 
G01 X82.3340 Y60.1266 
G01 X82.3340 Y59.2534 
G01 X81.7166 Y58.6360 
G01 X80.8434 Y58.6360 
G01 X80.3426 Y59.1368 
G01 X77.6991 Y59.1368 
G01 X76.5397 Y57.9773 
G01 X76.4135 Y57.9045 
G01 X76.2728 Y57.8668 
G01 X74.7512 Y57.8668 
G01 X74.1416 Y57.2572 
G01 X73.1784 Y57.2572 
G01 X72.4972 Y57.9384 
G01 X72.4972 Y58.9016 
G01 X73.1068 Y59.5112 
G01 X73.1068 Y59.8688 
G01 X72.4972 Y60.4784 
G01 X72.4972 Y61.4416 
G01 X73.1784 Y62.1228 
G00 Z5.0000 
G00 X73.1784 Y57.0428 
G01 Z-0.1778 F200.00 
G01 X74.1416 Y57.0428 F100.00 
G01 X74.8228 Y56.3616 
G01 X74.8228 Y55.3984 
G01 X74.1416 Y54.7172 
G01 X73.1784 Y54.7172 
G01 X72.4972 Y55.3984 
G01 X72.4972 Y56.3616 
G01 X73.1784 Y57.0428 
G00 Z5.0000 
G00 X73.1784 Y54.5028 
G01 Z-0.1778 F200.00 
G01 X74.1416 Y54.5028 F100.00 
G01 X74.7512 Y53.8932 
G01 X77.8900 Y53.8932 
G01 X77.8900 Y54.3561 
G01 X77.9139 Y54.4451 
G01 X77.9599 Y54.5249 
G01 X78.0251 Y54.5901 
G01 X78.0596 Y54.6100 
G01 X78.0251 Y54.6299 
G01 X77.9599 Y54.6951 
G01 X77.9139 Y54.7749 
G01 X77.8900 Y54.8639 
G01 X77.8900 Y56.0561 
G01 X77.9139 Y56.1451 
G01 X77.9599 Y56.2249 
G01 X78.0251 Y56.2901 
G01 X78.1049 Y56.3361 
G01 X78.1868 Y56.3581 
G01 X78.1868 Y56.8298 
G01 X78.2245 Y56.9705 
G01 X78.2830 Y57.0719 
G01 X78.2830 Y57.5658 
G01 X78.3171 Y57.6930 
G01 X78.3829 Y57.8070 
G01 X78.4760 Y57.9001 
G01 X78.5900 Y57.9659 
G01 X78.7172 Y58.0000 
G01 X79.5488 Y58.0000 
G01 X79.6760 Y57.9659 
G01 X79.7900 Y57.9001 
G01 X79.8831 Y57.8070 
G01 X79.9489 Y57.6930 
G01 X79.9830 Y57.5658 
G01 X79.9830 Y56.7342 
G01 X79.9489 Y56.6070 
G01 X79.8831 Y56.4930 
G01 X79.7900 Y56.3999 
G01 X79.6760 Y56.3341 
G01 X79.5488 Y56.3000 
G01 X79.4377 Y56.3000 
G01 X79.4549 Y56.2901 
G01 X79.5201 Y56.2249 
G01 X79.5661 Y56.1451 
G01 X79.5900 Y56.0561 
G01 X79.5900 Y54.8639 
G01 X79.5661 Y54.7749 
G01 X79.5201 Y54.6951 
G01 X79.4549 Y54.6299 
G01 X79.4204 Y54.6100 
G01 X79.4549 Y54.5901 
G01 X79.5201 Y54.5249 
G01 X79.5661 Y54.4451 
G01 X79.5900 Y54.3561 
G01 X79.5900 Y53.8932 
G01 X85.4226 Y53.8932 
G01 X85.6646 Y54.1352 
G01 X85.6025 Y54.1803 
G01 X85.4731 Y54.3097 
G01 X85.3655 Y54.4578 
G01 X85.2824 Y54.6208 
G01 X85.2258 Y54.7949 
G01 X85.1972 Y54.9757 
G01 X85.1972 Y56.7843 
G01 X85.2258 Y56.9651 
G01 X85.2824 Y57.1392 
G01 X85.3655 Y57.3022 
G01 X85.4731 Y57.4503 
G01 X85.6025 Y57.5797 
G01 X85.7506 Y57.6873 
G01 X85.9136 Y57.7704 
G01 X86.0877 Y57.8270 
G01 X86.2685 Y57.8556 
G01 X86.4515 Y57.8556 
G01 X86.6323 Y57.8270 
G01 X86.8064 Y57.7704 
G01 X86.9694 Y57.6873 
G01 X87.1175 Y57.5797 
G01 X87.2469 Y57.4503 
G01 X87.3545 Y57.3022 
G01 X87.4376 Y57.1392 
G01 X87.4942 Y56.9651 
G01 X87.5228 Y56.7843 
G01 X87.5228 Y54.9757 
G01 X87.4942 Y54.7949 
G01 X87.4376 Y54.6208 
G01 X87.3545 Y54.4578 
G01 X87.2469 Y54.3097 
G01 X87.1175 Y54.1803 
G01 X87.0554 Y54.1352 
G01 X87.4140 Y53.7766 
G01 X87.4140 Y52.9034 
G01 X86.7966 Y52.2860 
G01 X85.9234 Y52.2860 
G01 X85.4226 Y52.7868 
G01 X79.0872 Y52.7868 
G01 X78.9465 Y52.8245 
G01 X78.8850 Y52.8600 
G01 X78.5950 Y52.8600 
G01 X78.5335 Y52.8245 
G01 X78.3928 Y52.7868 
G01 X74.7512 Y52.7868 
G01 X74.1416 Y52.1772 
G01 X73.1784 Y52.1772 
G01 X72.4972 Y52.8584 
G01 X72.4972 Y53.8216 
G01 X73.1784 Y54.5028 
G00 Z5.0000 
G00 X72.2828 Y53.8216 
G01 Z-0.1778 F200.00 
G01 X72.2828 Y52.8584 F100.00 
G01 X71.6016 Y52.1772 
G01 X70.6384 Y52.1772 
G01 X69.9572 Y52.8584 
G01 X69.9572 Y53.8216 
G01 X70.6384 Y54.5028 
G01 X71.6016 Y54.5028 
G01 X72.2828 Y53.8216 
G00 Z5.0000 
G00 X72.2828 Y51.2816 
G01 Z-0.1778 F200.00 
G01 X72.2828 Y50.3184 F100.00 
G01 X71.6016 Y49.6372 
G01 X70.6384 Y49.6372 
G01 X69.9572 Y50.3184 
G01 X69.9572 Y51.2816 
G01 X70.6384 Y51.9628 
G01 X71.6016 Y51.9628 
G01 X72.2828 Y51.2816 
G00 Z5.0000 
G00 X72.4972 Y51.2816 
G01 Z-0.1778 F200.00 
G01 X73.1784 Y51.9628 F100.00 
G01 X74.1416 Y51.9628 
G01 X74.7512 Y51.3532 
G01 X77.6609 Y51.3532 
G01 X77.8900 Y51.5823 
G01 X77.8900 Y52.2461 
G01 X77.9139 Y52.3351 
G01 X77.9599 Y52.4149 
G01 X78.0251 Y52.4801 
G01 X78.1049 Y52.5261 
G01 X78.1939 Y52.5500 
G01 X79.2861 Y52.5500 
G01 X79.3751 Y52.5261 
G01 X79.4549 Y52.4801 
G01 X79.5201 Y52.4149 
G01 X79.5661 Y52.3351 
G01 X79.5900 Y52.2461 
G01 X79.5900 Y51.8417 
G01 X80.5613 Y51.3532 
G01 X87.4009 Y51.3532 
G01 X88.5603 Y52.5127 
G01 X88.6865 Y52.5855 
G01 X88.8272 Y52.6232 
G01 X89.2326 Y52.6232 
G01 X89.7334 Y53.1240 
G01 X90.6066 Y53.1240 
G01 X91.2240 Y52.5066 
G01 X91.2240 Y51.6334 
G01 X90.6066 Y51.0160 
G01 X89.7334 Y51.0160 
G01 X89.2326 Y51.5168 
G01 X89.1291 Y51.5168 
G01 X88.0727 Y50.4603 
G01 X87.9697 Y50.3573 
G01 X87.8435 Y50.2845 
G01 X87.7028 Y50.2468 
G01 X80.4459 Y50.2468 
G01 X80.3891 Y50.2435 
G01 X80.3733 Y50.2468 
G01 X80.3572 Y50.2468 
G01 X80.3022 Y50.2615 
G01 X80.2465 Y50.2731 
G01 X80.2321 Y50.2803 
G01 X80.2165 Y50.2845 
G01 X80.1672 Y50.3130 
G01 X79.5723 Y50.6122 
G01 X79.5900 Y50.5461 
G01 X79.5900 Y49.3539 
G01 X79.5661 Y49.2649 
G01 X79.5201 Y49.1851 
G01 X79.4549 Y49.1199 
G01 X79.4377 Y49.1100 
G01 X79.5488 Y49.1100 
G01 X79.6760 Y49.0759 
G01 X79.7900 Y49.0101 
G01 X79.8831 Y48.9170 
G01 X79.9489 Y48.8030 
G01 X79.9830 Y48.6758 
G01 X79.9830 Y47.8442 
G01 X79.9489 Y47.7170 
G01 X79.8831 Y47.6030 
G01 X79.7900 Y47.5099 
G01 X79.6760 Y47.4441 
G01 X79.5488 Y47.4100 
G01 X78.7172 Y47.4100 
G01 X78.5900 Y47.4441 
G01 X78.4760 Y47.5099 
G01 X78.3829 Y47.6030 
G01 X78.3171 Y47.7170 
G01 X78.2830 Y47.8442 
G01 X78.2830 Y48.3381 
G01 X78.2245 Y48.4395 
G01 X78.1868 Y48.5802 
G01 X78.1868 Y49.0519 
G01 X78.1049 Y49.0739 
G01 X78.0251 Y49.1199 
G01 X77.9599 Y49.1851 
G01 X77.9139 Y49.2649 
G01 X77.8900 Y49.3539 
G01 X77.8900 Y50.2468 
G01 X74.7512 Y50.2468 
G01 X74.1416 Y49.6372 
G01 X73.1784 Y49.6372 
G01 X72.4972 Y50.3184 
G01 X72.4972 Y51.2816 
G00 Z5.0000 
G00 X73.1784 Y46.8828 
G01 Z-0.1778 F200.00 
G01 X74.1416 Y46.8828 F100.00 
G01 X74.8228 Y46.2016 
G01 X74.8228 Y45.2384 
G01 X74.1416 Y44.5572 
G01 X73.1784 Y44.5572 
G01 X72.4972 Y45.2384 
G01 X72.4972 Y46.2016 
G01 X73.1784 Y46.8828 
G00 Z5.0000 
G00 X73.1784 Y44.3428 
G01 Z-0.1778 F200.00 
G01 X74.1416 Y44.3428 F100.00 
G01 X74.7512 Y43.7332 
G01 X86.0639 Y43.7332 
G01 X88.4298 Y47.2820 
G01 X88.4573 Y47.3297 
G01 X88.4701 Y47.3424 
G01 X88.4801 Y47.3575 
G01 X88.5214 Y47.3937 
G01 X88.5603 Y47.4327 
G01 X88.5760 Y47.4417 
G01 X88.5895 Y47.4536 
G01 X88.6388 Y47.4780 
G01 X88.6865 Y47.5055 
G01 X88.7039 Y47.5102 
G01 X88.7201 Y47.5182 
G01 X88.7740 Y47.5290 
G01 X88.8272 Y47.5432 
G01 X88.8452 Y47.5432 
G01 X88.8629 Y47.5467 
G01 X88.9178 Y47.5432 
G01 X93.7509 Y47.5432 
G01 X94.6968 Y48.4891 
G01 X94.6968 Y59.4609 
G01 X93.7509 Y60.4068 
G01 X86.2872 Y60.4068 
G01 X86.1465 Y60.4445 
G01 X86.0203 Y60.5173 
G01 X84.7503 Y61.7873 
G01 X84.6473 Y61.8903 
G01 X84.5745 Y62.0165 
G01 X84.5368 Y62.1572 
G01 X84.5368 Y64.7211 
G01 X84.5326 Y64.7447 
G01 X84.5368 Y64.7937 
G01 X84.5368 Y64.8428 
G01 X84.5430 Y64.8660 
G01 X84.6626 Y66.2603 
G01 X84.6498 Y66.2668 
G01 X84.5017 Y66.3744 
G01 X84.3723 Y66.5038 
G01 X84.2647 Y66.6519 
G01 X84.1816 Y66.8150 
G01 X84.1250 Y66.9890 
G01 X84.0964 Y67.1698 
G01 X84.0964 Y67.3528 
G01 X84.1250 Y67.5336 
G01 X84.1816 Y67.7077 
G01 X84.2647 Y67.8708 
G01 X84.3723 Y68.0188 
G01 X85.6512 Y69.2977 
G01 X85.7992 Y69.4053 
G01 X85.9623 Y69.4884 
G01 X86.1364 Y69.5450 
G01 X86.3172 Y69.5736 
G01 X86.5002 Y69.5736 
G01 X86.6810 Y69.5450 
G01 X86.8550 Y69.4884 
G01 X87.0181 Y69.4053 
G01 X87.1662 Y69.2977 
G01 X87.2956 Y69.1683 
G01 X87.4032 Y69.0202 
G01 X87.4863 Y68.8571 
G01 X87.5428 Y68.6831 
G01 X87.5715 Y68.5023 
G01 X87.5715 Y68.3193 
G01 X87.5428 Y68.1385 
G01 X87.4863 Y67.9644 
G01 X87.4032 Y67.8013 
G01 X87.2956 Y67.6533 
G01 X86.0167 Y66.3744 
G01 X85.8687 Y66.2668 
G01 X85.7693 Y66.2162 
G01 X85.6432 Y64.7463 
G01 X85.6432 Y62.4591 
G01 X86.5891 Y61.5132 
G01 X94.0528 Y61.5132 
G01 X94.1935 Y61.4755 
G01 X94.3197 Y61.4027 
G01 X94.4227 Y61.2997 
G01 X95.5897 Y60.1327 
G01 X95.6927 Y60.0297 
G01 X95.7655 Y59.9035 
G01 X95.8032 Y59.7628 
G01 X95.8032 Y48.1872 
G01 X95.7655 Y48.0465 
G01 X95.6927 Y47.9203 
G01 X95.5897 Y47.8173 
G01 X94.3197 Y46.5473 
G01 X94.1935 Y46.4745 
G01 X94.0528 Y46.4368 
G01 X89.1961 Y46.4368 
G01 X86.8302 Y42.8880 
G01 X86.8027 Y42.8403 
G01 X86.7899 Y42.8276 
G01 X86.7799 Y42.8125 
G01 X86.7386 Y42.7762 
G01 X86.6997 Y42.7373 
G01 X86.6840 Y42.7283 
G01 X86.6705 Y42.7164 
G01 X86.6212 Y42.6920 
G01 X86.5735 Y42.6645 
G01 X86.5561 Y42.6598 
G01 X86.5399 Y42.6518 
G01 X86.4860 Y42.6410 
G01 X86.4328 Y42.6268 
G01 X86.4148 Y42.6268 
G01 X86.3971 Y42.6233 
G01 X86.3422 Y42.6268 
G01 X74.7512 Y42.6268 
G01 X74.1416 Y42.0172 
G01 X73.1784 Y42.0172 
G01 X72.4972 Y42.6984 
G01 X72.4972 Y43.6616 
G01 X73.1784 Y44.3428 
G00 Z5.0000 
G00 X72.2828 Y43.6616 
G01 Z-0.1778 F200.00 
G01 X72.2828 Y42.6984 F100.00 
G01 X71.6016 Y42.0172 
G01 X70.6384 Y42.0172 
G01 X70.0288 Y42.6268 
G01 X69.0581 Y42.6268 
G01 X69.0361 Y42.5449 
G01 X68.9901 Y42.4651 
G01 X68.9249 Y42.3999 
G01 X68.8451 Y42.3539 
G01 X68.7561 Y42.3300 
G01 X67.5639 Y42.3300 
G01 X67.4749 Y42.3539 
G01 X67.3951 Y42.3999 
G01 X67.3299 Y42.4651 
G01 X67.3100 Y42.4996 
G01 X67.2901 Y42.4651 
G01 X67.2249 Y42.3999 
G01 X67.1451 Y42.3539 
G01 X67.0561 Y42.3300 
G01 X65.8639 Y42.3300 
G01 X65.7749 Y42.3539 
G01 X65.6951 Y42.3999 
G01 X65.6299 Y42.4651 
G01 X65.5839 Y42.5449 
G01 X65.5619 Y42.6268 
G01 X65.1870 Y42.6268 
G01 X65.1271 Y42.5230 
G01 X65.0340 Y42.4299 
G01 X64.9200 Y42.3641 
G01 X64.7928 Y42.3300 
G01 X63.9612 Y42.3300 
G01 X63.8340 Y42.3641 
G01 X63.7200 Y42.4299 
G01 X63.6269 Y42.5230 
G01 X63.5611 Y42.6370 
G01 X63.5270 Y42.7642 
G01 X63.5270 Y43.5958 
G01 X63.5611 Y43.7230 
G01 X63.6269 Y43.8370 
G01 X63.7200 Y43.9301 
G01 X63.8340 Y43.9959 
G01 X63.9612 Y44.0300 
G01 X64.7928 Y44.0300 
G01 X64.9200 Y43.9959 
G01 X65.0340 Y43.9301 
G01 X65.1271 Y43.8370 
G01 X65.1870 Y43.7332 
G01 X65.5619 Y43.7332 
G01 X65.5839 Y43.8151 
G01 X65.6299 Y43.8949 
G01 X65.6951 Y43.9601 
G01 X65.7749 Y44.0061 
G01 X65.8639 Y44.0300 
G01 X67.0561 Y44.0300 
G01 X67.1451 Y44.0061 
G01 X67.2249 Y43.9601 
G01 X67.2901 Y43.8949 
G01 X67.3100 Y43.8604 
G01 X67.3299 Y43.8949 
G01 X67.3951 Y43.9601 
G01 X67.4749 Y44.0061 
G01 X67.5639 Y44.0300 
G01 X68.7561 Y44.0300 
G01 X68.8451 Y44.0061 
G01 X68.9249 Y43.9601 
G01 X68.9901 Y43.8949 
G01 X69.0361 Y43.8151 
G01 X69.0581 Y43.7332 
G01 X70.0288 Y43.7332 
G01 X70.6384 Y44.3428 
G01 X71.6016 Y44.3428 
G01 X72.2828 Y43.6616 
G00 Z5.0000 
G00 X73.1784 Y41.8028 
G01 Z-0.1778 F200.00 
G01 X74.1416 Y41.8028 F100.00 
G01 X74.7512 Y41.1932 
G01 X86.0639 Y41.1932 
G01 X88.4298 Y44.7420 
G01 X88.4573 Y44.7897 
G01 X88.4701 Y44.8024 
G01 X88.4801 Y44.8175 
G01 X88.5214 Y44.8537 
G01 X88.5603 Y44.8927 
G01 X88.5760 Y44.9017 
G01 X88.5895 Y44.9136 
G01 X88.6388 Y44.9380 
G01 X88.6865 Y44.9655 
G01 X88.7039 Y44.9702 
G01 X88.7201 Y44.9782 
G01 X88.7740 Y44.9890 
G01 X88.8272 Y45.0032 
G01 X88.8452 Y45.0032 
G01 X88.8629 Y45.0067 
G01 X88.9178 Y45.0032 
G01 X89.6040 Y45.0032 
G01 X89.6327 Y45.0594 
G01 X89.7403 Y45.2075 
G01 X89.8697 Y45.3369 
G01 X90.0178 Y45.4445 
G01 X90.1808 Y45.5276 
G01 X90.3549 Y45.5842 
G01 X90.5357 Y45.6128 
G01 X92.3443 Y45.6128 
G01 X92.5251 Y45.5842 
G01 X92.6992 Y45.5276 
G01 X92.8622 Y45.4445 
G01 X93.0103 Y45.3369 
G01 X93.1397 Y45.2075 
G01 X93.2473 Y45.0594 
G01 X93.3304 Y44.8964 
G01 X93.3870 Y44.7223 
G01 X93.4156 Y44.5415 
G01 X93.4156 Y44.3585 
G01 X93.3870 Y44.1777 
G01 X93.3304 Y44.0036 
G01 X93.2473 Y43.8406 
G01 X93.1397 Y43.6925 
G01 X93.0103 Y43.5631 
G01 X92.8622 Y43.4555 
G01 X92.6992 Y43.3724 
G01 X92.5251 Y43.3158 
G01 X92.3443 Y43.2872 
G01 X90.5357 Y43.2872 
G01 X90.3549 Y43.3158 
G01 X90.1808 Y43.3724 
G01 X90.0178 Y43.4555 
G01 X89.8697 Y43.5631 
G01 X89.7403 Y43.6925 
G01 X89.6327 Y43.8406 
G01 X89.6040 Y43.8968 
G01 X89.1961 Y43.8968 
G01 X86.8302 Y40.3480 
G01 X86.8027 Y40.3003 
G01 X86.7899 Y40.2876 
G01 X86.7799 Y40.2725 
G01 X86.7386 Y40.2363 
G01 X86.6997 Y40.1973 
G01 X86.6840 Y40.1883 
G01 X86.6705 Y40.1764 
G01 X86.6212 Y40.1520 
G01 X86.5735 Y40.1245 
G01 X86.5561 Y40.1198 
G01 X86.5399 Y40.1118 
G01 X86.4860 Y40.1010 
G01 X86.4328 Y40.0868 
G01 X86.4148 Y40.0868 
G01 X86.3971 Y40.0833 
G01 X86.3422 Y40.0868 
G01 X74.7512 Y40.0868 
G01 X74.1416 Y39.4772 
G01 X73.1784 Y39.4772 
G01 X72.4972 Y40.1584 
G01 X72.4972 Y41.1216 
G01 X73.1784 Y41.8028 
G00 Z5.0000 
G00 X73.1784 Y39.2628 
G01 Z-0.1778 F200.00 
G01 X74.1416 Y39.2628 F100.00 
G01 X74.7544 Y38.6500 
G01 X75.0024 Y38.6500 
G01 X75.1423 Y38.6125 
G01 X75.2677 Y38.5401 
G01 X77.6978 Y36.1100 
G01 X80.3760 Y36.1100 
G01 X80.3760 Y36.1601 
G01 X80.3999 Y36.2491 
G01 X80.4459 Y36.3289 
G01 X80.5111 Y36.3941 
G01 X80.5909 Y36.4401 
G01 X80.6799 Y36.4640 
G01 X81.8801 Y36.4640 
G01 X81.9691 Y36.4401 
G01 X82.0489 Y36.3941 
G01 X82.1141 Y36.3289 
G01 X82.1601 Y36.2491 
G01 X82.1840 Y36.1601 
G01 X82.1840 Y34.9599 
G01 X82.1601 Y34.8709 
G01 X82.1141 Y34.7911 
G01 X82.0489 Y34.7259 
G01 X81.9691 Y34.6799 
G01 X81.8801 Y34.6560 
G01 X80.6799 Y34.6560 
G01 X80.5909 Y34.6799 
G01 X80.5111 Y34.7259 
G01 X80.4459 Y34.7911 
G01 X80.3999 Y34.8709 
G01 X80.3760 Y34.9599 
G01 X80.3760 Y35.0100 
G01 X78.0200 Y35.0100 
G01 X78.0200 Y20.8700 
G01 X87.0800 Y20.8700 
G01 X87.0800 Y39.4424 
G01 X87.1175 Y39.5823 
G01 X87.1899 Y39.7077 
G01 X87.2923 Y39.8101 
G01 X88.3500 Y40.8678 
G01 X88.3500 Y41.9824 
G01 X88.3875 Y42.1223 
G01 X88.4599 Y42.2477 
G01 X88.5623 Y42.3501 
G01 X88.6877 Y42.4225 
G01 X88.8276 Y42.4600 
G01 X89.6024 Y42.4600 
G01 X89.6327 Y42.5194 
G01 X89.7403 Y42.6675 
G01 X89.8697 Y42.7969 
G01 X90.0178 Y42.9045 
G01 X90.1808 Y42.9876 
G01 X90.3549 Y43.0442 
G01 X90.5357 Y43.0728 
G01 X92.3443 Y43.0728 
G01 X92.5251 Y43.0442 
G01 X92.6992 Y42.9876 
G01 X92.8622 Y42.9045 
G01 X93.0103 Y42.7969 
G01 X93.1397 Y42.6675 
G01 X93.2473 Y42.5194 
G01 X93.3304 Y42.3564 
G01 X93.3870 Y42.1823 
G01 X93.4156 Y42.0015 
G01 X93.4156 Y41.8185 
G01 X93.3870 Y41.6377 
G01 X93.3304 Y41.4636 
G01 X93.2473 Y41.3006 
G01 X93.1397 Y41.1525 
G01 X93.0103 Y41.0231 
G01 X92.8622 Y40.9155 
G01 X92.6992 Y40.8324 
G01 X92.5251 Y40.7758 
G01 X92.3443 Y40.7472 
G01 X90.5357 Y40.7472 
G01 X90.3549 Y40.7758 
G01 X90.1808 Y40.8324 
G01 X90.0178 Y40.9155 
G01 X89.8697 Y41.0231 
G01 X89.7403 Y41.1525 
G01 X89.6327 Y41.3006 
G01 X89.6024 Y41.3600 
G01 X89.4500 Y41.3600 
G01 X89.4500 Y40.5676 
G01 X89.4125 Y40.4277 
G01 X89.3401 Y40.3023 
G01 X88.1800 Y39.1422 
G01 X88.1800 Y20.8700 
G01 X92.7824 Y20.8700 
G01 X92.9223 Y20.8325 
G01 X93.0477 Y20.7601 
G01 X94.3177 Y19.4901 
G01 X94.4201 Y19.3877 
G01 X94.4925 Y19.2623 
G01 X94.5300 Y19.1224 
G01 X94.5300 Y10.0876 
G01 X94.4925 Y9.9477 
G01 X94.4201 Y9.8223 
G01 X94.3177 Y9.7199 
G01 X94.1923 Y9.6475 
G01 X94.0524 Y9.6100 
G01 X88.8276 Y9.6100 
G01 X88.6877 Y9.6475 
G01 X88.5623 Y9.7199 
G01 X88.5405 Y9.7417 
G01 X88.4770 Y9.7211 
G01 X88.2963 Y9.6925 
G01 X88.1132 Y9.6925 
G01 X87.9324 Y9.7211 
G01 X87.7584 Y9.7777 
G01 X87.5953 Y9.8607 
G01 X87.4472 Y9.9683 
G01 X86.1683 Y11.2472 
G01 X86.0607 Y11.3953 
G01 X85.9777 Y11.5584 
G01 X85.9211 Y11.7324 
G01 X85.8925 Y11.9132 
G01 X85.8925 Y12.0962 
G01 X85.9211 Y12.2770 
G01 X85.9777 Y12.4511 
G01 X86.0607 Y12.6142 
G01 X86.1683 Y12.7622 
G01 X86.2977 Y12.8917 
G01 X86.4458 Y12.9992 
G01 X86.6089 Y13.0823 
G01 X86.7830 Y13.1389 
G01 X86.9637 Y13.1675 
G01 X87.1468 Y13.1675 
G01 X87.3276 Y13.1389 
G01 X87.5016 Y13.0823 
G01 X87.6647 Y12.9992 
G01 X87.8128 Y12.8917 
G01 X89.0917 Y11.6128 
G01 X89.1992 Y11.4647 
G01 X89.2823 Y11.3016 
G01 X89.3389 Y11.1276 
G01 X89.3675 Y10.9468 
G01 X89.3675 Y10.7637 
G01 X89.3590 Y10.7100 
G01 X93.4300 Y10.7100 
G01 X93.4300 Y18.8222 
G01 X92.4822 Y19.7700 
G01 X74.7544 Y19.7700 
G01 X74.1416 Y19.1572 
G01 X73.1784 Y19.1572 
G01 X72.4972 Y19.8384 
G01 X72.4972 Y20.8016 
G01 X73.1784 Y21.4828 
G01 X74.1416 Y21.4828 
G01 X74.7544 Y20.8700 
G01 X76.9200 Y20.8700 
G01 X76.9200 Y23.9022 
G01 X75.9722 Y24.8500 
G01 X74.7544 Y24.8500 
G01 X74.1416 Y24.2372 
G01 X73.1784 Y24.2372 
G01 X72.4972 Y24.9184 
G01 X72.4972 Y25.8816 
G01 X73.1784 Y26.5628 
G01 X74.1416 Y26.5628 
G01 X74.7544 Y25.9500 
G01 X76.2724 Y25.9500 
G01 X76.4123 Y25.9125 
G01 X76.5377 Y25.8401 
G01 X76.9200 Y25.4578 
G01 X76.9200 Y35.3322 
G01 X74.7283 Y37.5239 
G01 X74.1416 Y36.9372 
G01 X73.1784 Y36.9372 
G01 X72.4972 Y37.6184 
G01 X72.4972 Y38.5816 
G01 X73.1784 Y39.2628 
G00 Z5.0000 
G00 X72.2828 Y38.5816 
G01 Z-0.1778 F200.00 
G01 X72.2828 Y37.6184 F100.00 
G01 X71.6016 Y36.9372 
G01 X70.6384 Y36.9372 
G01 X69.9572 Y37.6184 
G01 X69.9572 Y38.5816 
G01 X70.6384 Y39.2628 
G01 X71.6016 Y39.2628 
G01 X72.2828 Y38.5816 
G00 Z5.0000 
G00 X72.2828 Y36.0416 
G01 Z-0.1778 F200.00 
G01 X72.2828 Y35.0784 F100.00 
G01 X71.6016 Y34.3972 
G01 X70.6384 Y34.3972 
G01 X69.9572 Y35.0784 
G01 X69.9572 Y36.0416 
G01 X70.6384 Y36.7228 
G01 X71.6016 Y36.7228 
G01 X72.2828 Y36.0416 
G00 Z5.0000 
G00 X72.4972 Y36.0416 
G01 Z-0.1778 F200.00 
G01 X73.1784 Y36.7228 F100.00 
G01 X74.1416 Y36.7228 
G01 X74.8228 Y36.0416 
G01 X74.8228 Y35.0784 
G01 X74.1416 Y34.3972 
G01 X73.1784 Y34.3972 
G01 X72.4972 Y35.0784 
G01 X72.4972 Y36.0416 
G00 Z5.0000 
G00 X73.1784 Y34.1828 
G01 Z-0.1778 F200.00 
G01 X74.1416 Y34.1828 F100.00 
G01 X74.8228 Y33.5016 
G01 X74.8228 Y32.5384 
G01 X74.1416 Y31.8572 
G01 X73.1784 Y31.8572 
G01 X72.4972 Y32.5384 
G01 X72.4972 Y33.5016 
G01 X73.1784 Y34.1828 
G00 Z5.0000 
G00 X72.2828 Y33.5016 
G01 Z-0.1778 F200.00 
G01 X72.2828 Y32.5384 F100.00 
G01 X71.6016 Y31.8572 
G01 X70.6384 Y31.8572 
G01 X69.9572 Y32.5384 
G01 X69.9572 Y33.5016 
G01 X70.6384 Y34.1828 
G01 X71.6016 Y34.1828 
G01 X72.2828 Y33.5016 
G00 Z5.0000 
G00 X72.2828 Y30.9616 
G01 Z-0.1778 F200.00 
G01 X72.2828 Y29.9984 F100.00 
G01 X71.6016 Y29.3172 
G01 X70.6384 Y29.3172 
G01 X70.0256 Y29.9300 
G01 X69.7776 Y29.9300 
G01 X69.6377 Y29.9675 
G01 X69.5123 Y30.0399 
G01 X68.2423 Y31.3099 
G01 X68.1399 Y31.4123 
G01 X68.0675 Y31.5377 
G01 X68.0300 Y31.6776 
G01 X68.0300 Y34.0622 
G01 X66.6750 Y35.4172 
G01 X66.4801 Y35.2223 
G01 X66.3777 Y35.1199 
G01 X66.2523 Y35.0475 
G01 X66.1124 Y35.0100 
G01 X63.7278 Y35.0100 
G01 X62.7800 Y34.0622 
G01 X62.7800 Y10.7100 
G01 X68.3522 Y10.7100 
G01 X69.9572 Y12.3150 
G01 X69.9572 Y13.1816 
G01 X70.6384 Y13.8628 
G01 X71.6016 Y13.8628 
G01 X72.2828 Y13.1816 
G01 X72.2828 Y12.2184 
G01 X71.6016 Y11.5372 
G01 X70.7350 Y11.5372 
G01 X69.0201 Y9.8223 
G01 X68.9177 Y9.7199 
G01 X68.7923 Y9.6475 
G01 X68.6524 Y9.6100 
G01 X55.5140 Y9.6100 
G01 X55.5140 Y9.5599 
G01 X55.4901 Y9.4709 
G01 X55.4441 Y9.3911 
G01 X55.3789 Y9.3259 
G01 X55.2991 Y9.2799 
G01 X55.2101 Y9.2560 
G01 X54.4838 Y9.2560 
G01 X53.6777 Y8.4499 
G01 X53.5523 Y8.3775 
G01 X53.4124 Y8.3400 
G01 X50.7276 Y8.3400 
G01 X50.5877 Y8.3775 
G01 X50.4623 Y8.4499 
G01 X50.3599 Y8.5523 
G01 X49.0899 Y9.8223 
G01 X49.0175 Y9.9477 
G01 X48.9800 Y10.0876 
G01 X48.9800 Y10.8624 
G01 X48.9206 Y10.8927 
G01 X48.7725 Y11.0003 
G01 X48.6431 Y11.1297 
G01 X48.5355 Y11.2778 
G01 X48.4524 Y11.4408 
G01 X48.3958 Y11.6149 
G01 X48.3672 Y11.7957 
G01 X48.3672 Y13.6043 
G01 X48.3958 Y13.7851 
G01 X48.4524 Y13.9592 
G01 X48.5355 Y14.1222 
G01 X48.6431 Y14.2703 
G01 X48.7725 Y14.3997 
G01 X48.9206 Y14.5073 
G01 X49.0836 Y14.5904 
G01 X49.2577 Y14.6470 
G01 X49.4385 Y14.6756 
G01 X49.6215 Y14.6756 
G01 X49.8023 Y14.6470 
G01 X49.9764 Y14.5904 
G01 X50.1394 Y14.5073 
G01 X50.2875 Y14.3997 
G01 X50.4169 Y14.2703 
G01 X50.5245 Y14.1222 
G01 X50.6076 Y13.9592 
G01 X50.6642 Y13.7851 
G01 X50.6928 Y13.6043 
G01 X50.6928 Y11.7957 
G01 X50.6642 Y11.6149 
G01 X50.6076 Y11.4408 
G01 X50.5245 Y11.2778 
G01 X50.4169 Y11.1297 
G01 X50.2875 Y11.0003 
G01 X50.1394 Y10.8927 
G01 X50.0800 Y10.8624 
G01 X50.0800 Y10.3878 
G01 X51.0278 Y9.4400 
G01 X53.1122 Y9.4400 
G01 X53.7060 Y10.0338 
G01 X53.7060 Y10.7601 
G01 X53.7299 Y10.8491 
G01 X53.7759 Y10.9289 
G01 X53.8411 Y10.9941 
G01 X53.9209 Y11.0401 
G01 X54.0099 Y11.0640 
G01 X55.2101 Y11.0640 
G01 X55.2991 Y11.0401 
G01 X55.3789 Y10.9941 
G01 X55.4441 Y10.9289 
G01 X55.4901 Y10.8491 
G01 X55.5140 Y10.7601 
G01 X55.5140 Y10.7100 
G01 X61.6800 Y10.7100 
G01 X61.6800 Y34.3624 
G01 X61.7175 Y34.5023 
G01 X61.7899 Y34.6277 
G01 X61.8923 Y34.7301 
G01 X63.1623 Y36.0001 
G01 X63.2877 Y36.0725 
G01 X63.4276 Y36.1100 
G01 X65.8122 Y36.1100 
G01 X66.2349 Y36.5327 
G01 X66.3373 Y36.6351 
G01 X66.3400 Y36.6378 
G01 X66.3400 Y37.2500 
G01 X66.2939 Y37.2500 
G01 X66.2049 Y37.2739 
G01 X66.1251 Y37.3199 
G01 X66.0599 Y37.3851 
G01 X66.0400 Y37.4196 
G01 X66.0201 Y37.3851 
G01 X65.9549 Y37.3199 
G01 X65.8751 Y37.2739 
G01 X65.7861 Y37.2500 
G01 X64.5939 Y37.2500 
G01 X64.5049 Y37.2739 
G01 X64.4251 Y37.3199 
G01 X64.3599 Y37.3851 
G01 X64.3139 Y37.4649 
G01 X64.2919 Y37.5468 
G01 X62.6470 Y37.5468 
G01 X62.5871 Y37.4430 
G01 X62.4940 Y37.3499 
G01 X62.3800 Y37.2841 
G01 X62.2528 Y37.2500 
G01 X61.4212 Y37.2500 
G01 X61.2940 Y37.2841 
G01 X61.1800 Y37.3499 
G01 X61.0869 Y37.4430 
G01 X61.0211 Y37.5570 
G01 X60.9870 Y37.6842 
G01 X60.9870 Y38.5158 
G01 X61.0211 Y38.6430 
G01 X61.0869 Y38.7570 
G01 X61.1800 Y38.8501 
G01 X61.2940 Y38.9159 
G01 X61.4212 Y38.9500 
G01 X62.2528 Y38.9500 
G01 X62.3800 Y38.9159 
G01 X62.4940 Y38.8501 
G01 X62.5871 Y38.7570 
G01 X62.6470 Y38.6532 
G01 X64.2919 Y38.6532 
G01 X64.3139 Y38.7351 
G01 X64.3599 Y38.8149 
G01 X64.4251 Y38.8801 
G01 X64.5049 Y38.9261 
G01 X64.5939 Y38.9500 
G01 X65.7861 Y38.9500 
G01 X65.8751 Y38.9261 
G01 X65.9549 Y38.8801 
G01 X66.0201 Y38.8149 
G01 X66.0400 Y38.7804 
G01 X66.0599 Y38.8149 
G01 X66.1251 Y38.8801 
G01 X66.2049 Y38.9261 
G01 X66.2939 Y38.9500 
G01 X67.4861 Y38.9500 
G01 X67.5751 Y38.9261 
G01 X67.6549 Y38.8801 
G01 X67.7201 Y38.8149 
G01 X67.7661 Y38.7351 
G01 X67.7900 Y38.6461 
G01 X67.7900 Y37.5539 
G01 X67.7661 Y37.4649 
G01 X67.7201 Y37.3851 
G01 X67.6549 Y37.3199 
G01 X67.5751 Y37.2739 
G01 X67.4861 Y37.2500 
G01 X67.4400 Y37.2500 
G01 X67.4400 Y36.3376 
G01 X67.4126 Y36.2352 
G01 X69.0201 Y34.6277 
G01 X69.0925 Y34.5023 
G01 X69.1300 Y34.3624 
G01 X69.1300 Y31.9778 
G01 X70.0517 Y31.0561 
G01 X70.6384 Y31.6428 
G01 X71.6016 Y31.6428 
G01 X72.2828 Y30.9616 
G00 Z5.0000 
G00 X72.4972 Y30.9616 
G01 Z-0.1778 F200.00 
G01 X73.1784 Y31.6428 F100.00 
G01 X74.1416 Y31.6428 
G01 X74.8228 Y30.9616 
G01 X74.8228 Y29.9984 
G01 X74.1416 Y29.3172 
G01 X73.1784 Y29.3172 
G01 X72.4972 Y29.9984 
G01 X72.4972 Y30.9616 
G00 Z5.0000 
G00 X73.1784 Y29.1028 
G01 Z-0.1778 F200.00 
G01 X74.1416 Y29.1028 F100.00 
G01 X74.8228 Y28.4216 
G01 X74.8228 Y27.4584 
G01 X74.1416 Y26.7772 
G01 X73.1784 Y26.7772 
G01 X72.4972 Y27.4584 
G01 X72.4972 Y28.4216 
G01 X73.1784 Y29.1028 
G00 Z5.0000 
G00 X72.2828 Y28.4216 
G01 Z-0.1778 F200.00 
G01 X72.2828 Y27.4584 F100.00 
G01 X71.6016 Y26.7772 
G01 X70.6384 Y26.7772 
G01 X69.9572 Y27.4584 
G01 X69.9572 Y28.4216 
G01 X70.6384 Y29.1028 
G01 X71.6016 Y29.1028 
G01 X72.2828 Y28.4216 
G00 Z5.0000 
G00 X72.2828 Y25.8816 
G01 Z-0.1778 F200.00 
G01 X72.2828 Y24.9184 F100.00 
G01 X71.6016 Y24.2372 
G01 X70.6384 Y24.2372 
G01 X69.9572 Y24.9184 
G01 X69.9572 Y25.7805 
G01 X66.9703 Y28.7673 
G01 X66.8673 Y28.8703 
G01 X66.7945 Y28.9965 
G01 X66.7568 Y29.1372 
G01 X66.7568 Y32.2462 
G01 X66.4766 Y31.9660 
G01 X65.6034 Y31.9660 
G01 X64.9860 Y32.5834 
G01 X64.9860 Y33.4566 
G01 X65.6034 Y34.0740 
G01 X66.4766 Y34.0740 
G01 X66.9774 Y33.5732 
G01 X67.3828 Y33.5732 
G01 X67.5235 Y33.5355 
G01 X67.6497 Y33.4627 
G01 X67.7527 Y33.3597 
G01 X67.8255 Y33.2335 
G01 X67.8632 Y33.0928 
G01 X67.8632 Y29.4391 
G01 X70.7395 Y26.5628 
G01 X71.6016 Y26.5628 
G01 X72.2828 Y25.8816 
G00 Z5.0000 
G00 X72.2828 Y23.3416 
G01 Z-0.1778 F200.00 
G01 X72.2828 Y22.3784 F100.00 
G01 X71.6016 Y21.6972 
G01 X70.6384 Y21.6972 
G01 X69.9572 Y22.3784 
G01 X69.9572 Y23.0818 
G01 X65.2019 Y26.8860 
G01 X64.3334 Y26.8860 
G01 X63.7160 Y27.5034 
G01 X63.7160 Y28.3766 
G01 X64.3334 Y28.9940 
G01 X65.2066 Y28.9940 
G01 X65.8240 Y28.3766 
G01 X65.8240 Y27.8052 
G01 X70.6000 Y23.9844 
G01 X70.6384 Y24.0228 
G01 X71.6016 Y24.0228 
G01 X72.2828 Y23.3416 
G00 Z5.0000 
G00 X72.4972 Y23.3416 
G01 Z-0.1778 F200.00 
G01 X73.1784 Y24.0228 F100.00 
G01 X74.1416 Y24.0228 
G01 X74.8228 Y23.3416 
G01 X74.8228 Y22.3784 
G01 X74.1416 Y21.6972 
G01 X73.1784 Y21.6972 
G01 X72.4972 Y22.3784 
G01 X72.4972 Y23.3416 
G00 Z5.0000 
G00 X72.2828 Y20.8016 
G01 Z-0.1778 F200.00 
G01 X72.2828 Y19.8384 F100.00 
G01 X71.6016 Y19.1572 
G01 X70.6384 Y19.1572 
G01 X70.0288 Y19.7668 
G01 X68.5072 Y19.7668 
G01 X68.3665 Y19.8045 
G01 X68.2403 Y19.8773 
G01 X66.3117 Y21.8060 
G01 X65.6034 Y21.8060 
G01 X64.9860 Y22.4234 
G01 X64.9860 Y23.2966 
G01 X65.6034 Y23.9140 
G01 X66.4766 Y23.9140 
G01 X67.0940 Y23.2966 
G01 X67.0940 Y22.5883 
G01 X68.8091 Y20.8732 
G01 X70.0288 Y20.8732 
G01 X70.6384 Y21.4828 
G01 X71.6016 Y21.4828 
G01 X72.2828 Y20.8016 
G00 Z5.0000 
G00 X72.2828 Y18.2616 
G01 Z-0.1778 F200.00 
G01 X72.2828 Y17.2984 F100.00 
G01 X71.6016 Y16.6172 
G01 X70.6384 Y16.6172 
G01 X70.0288 Y17.2268 
G01 X66.9774 Y17.2268 
G01 X66.4766 Y16.7260 
G01 X65.6034 Y16.7260 
G01 X64.9860 Y17.3434 
G01 X64.9860 Y18.2166 
G01 X65.6034 Y18.8340 
G01 X66.4766 Y18.8340 
G01 X66.9774 Y18.3332 
G01 X70.0288 Y18.3332 
G01 X70.6384 Y18.9428 
G01 X71.6016 Y18.9428 
G01 X72.2828 Y18.2616 
G00 Z5.0000 
G00 X72.4972 Y18.2616 
G01 Z-0.1778 F200.00 
G01 X73.1784 Y18.9428 F100.00 
G01 X74.1416 Y18.9428 
G01 X74.7512 Y18.3332 
G01 X86.4328 Y18.3332 
G01 X86.5735 Y18.2955 
G01 X86.6997 Y18.2227 
G01 X87.9697 Y16.9527 
G01 X88.0727 Y16.8497 
G01 X88.1455 Y16.7235 
G01 X88.1832 Y16.5828 
G01 X88.1832 Y15.2512 
G01 X88.5190 Y14.9154 
G01 X88.5790 Y14.9350 
G01 X88.7598 Y14.9636 
G01 X88.9428 Y14.9636 
G01 X89.1236 Y14.9350 
G01 X89.2977 Y14.8784 
G01 X89.4608 Y14.7953 
G01 X89.6088 Y14.6877 
G01 X90.8877 Y13.4088 
G01 X90.9953 Y13.2608 
G01 X91.0784 Y13.0977 
G01 X91.1350 Y12.9236 
G01 X91.1636 Y12.7428 
G01 X91.1636 Y12.5598 
G01 X91.1350 Y12.3790 
G01 X91.0784 Y12.2050 
G01 X90.9953 Y12.0419 
G01 X90.8877 Y11.8938 
G01 X90.7583 Y11.7644 
G01 X90.6102 Y11.6568 
G01 X90.4471 Y11.5737 
G01 X90.2731 Y11.5171 
G01 X90.0923 Y11.4885 
G01 X89.9093 Y11.4885 
G01 X89.7285 Y11.5171 
G01 X89.5544 Y11.5737 
G01 X89.3913 Y11.6568 
G01 X89.2433 Y11.7644 
G01 X87.9644 Y13.0433 
G01 X87.8568 Y13.1913 
G01 X87.7737 Y13.3544 
G01 X87.7171 Y13.5285 
G01 X87.6885 Y13.7093 
G01 X87.6885 Y13.8923 
G01 X87.7171 Y14.0731 
G01 X87.7367 Y14.1331 
G01 X87.2903 Y14.5794 
G01 X87.1873 Y14.6824 
G01 X87.1145 Y14.8086 
G01 X87.0768 Y14.9493 
G01 X87.0768 Y16.2809 
G01 X86.1309 Y17.2268 
G01 X74.7512 Y17.2268 
G01 X74.1416 Y16.6172 
G01 X73.1784 Y16.6172 
G01 X72.4972 Y17.2984 
G01 X72.4972 Y18.2616 
G00 Z5.0000 
G00 X72.2828 Y15.7216 
G01 Z-0.1778 F200.00 
G01 X72.2828 Y14.7584 F100.00 
G01 X71.6016 Y14.0772 
G01 X70.6384 Y14.0772 
G01 X69.9572 Y14.7584 
G01 X69.9572 Y15.7216 
G01 X70.6384 Y16.4028 
G01 X71.6016 Y16.4028 
G01 X72.2828 Y15.7216 
G00 Z5.0000 
G00 X73.1784 Y13.8628 
G01 Z-0.1778 F200.00 
G01 X74.1416 Y13.8628 F100.00 
G01 X74.7512 Y13.2532 
G01 X75.0028 Y13.2532 
G01 X75.1435 Y13.2155 
G01 X75.2697 Y13.1427 
G01 X76.5397 Y11.8727 
G01 X76.6427 Y11.7697 
G01 X76.7155 Y11.6435 
G01 X76.7532 Y11.5028 
G01 X76.7532 Y10.0872 
G01 X76.7155 Y9.9465 
G01 X76.6427 Y9.8203 
G01 X72.8327 Y6.0103 
G01 X72.7297 Y5.9073 
G01 X72.6035 Y5.8345 
G01 X72.4628 Y5.7968 
G01 X49.4572 Y5.7968 
G01 X49.3165 Y5.8345 
G01 X49.1903 Y5.9073 
G01 X46.6503 Y8.4473 
G01 X46.5473 Y8.5503 
G01 X46.4745 Y8.6765 
G01 X46.4368 Y8.8172 
G01 X46.4368 Y10.8640 
G01 X46.3806 Y10.8927 
G01 X46.2325 Y11.0003 
G01 X46.1031 Y11.1297 
G01 X45.9955 Y11.2778 
G01 X45.9124 Y11.4408 
G01 X45.8558 Y11.6149 
G01 X45.8272 Y11.7957 
G01 X45.8272 Y13.6043 
G01 X45.8558 Y13.7851 
G01 X45.9124 Y13.9592 
G01 X45.9955 Y14.1222 
G01 X46.1031 Y14.2703 
G01 X46.2325 Y14.3997 
G01 X46.3806 Y14.5073 
G01 X46.5436 Y14.5904 
G01 X46.7177 Y14.6470 
G01 X46.8985 Y14.6756 
G01 X47.0815 Y14.6756 
G01 X47.2623 Y14.6470 
G01 X47.4364 Y14.5904 
G01 X47.5994 Y14.5073 
G01 X47.7475 Y14.3997 
G01 X47.8769 Y14.2703 
G01 X47.9845 Y14.1222 
G01 X48.0676 Y13.9592 
G01 X48.1242 Y13.7851 
G01 X48.1528 Y13.6043 
G01 X48.1528 Y11.7957 
G01 X48.1242 Y11.6149 
G01 X48.0676 Y11.4408 
G01 X47.9845 Y11.2778 
G01 X47.8769 Y11.1297 
G01 X47.7475 Y11.0003 
G01 X47.5994 Y10.8927 
G01 X47.5432 Y10.8640 
G01 X47.5432 Y9.1191 
G01 X49.7591 Y6.9032 
G01 X72.1609 Y6.9032 
G01 X75.6468 Y10.3891 
G01 X75.6468 Y11.2009 
G01 X74.7260 Y12.1216 
G01 X74.1416 Y11.5372 
G01 X73.1784 Y11.5372 
G01 X72.4972 Y12.2184 
G01 X72.4972 Y13.1816 
G01 X73.1784 Y13.8628 
G00 Z5.0000 
G00 X60.4475 Y16.0803 
G01 Z-0.1778 F200.00 
G01 X60.2994 Y15.9727 F100.00 
G01 X60.1364 Y15.8896 
G01 X59.9623 Y15.8330 
G01 X59.7815 Y15.8044 
G01 X59.5985 Y15.8044 
G01 X59.4177 Y15.8330 
G01 X59.2436 Y15.8896 
G01 X59.0806 Y15.9727 
G01 X58.9325 Y16.0803 
G01 X58.8031 Y16.2097 
G01 X58.6955 Y16.3578 
G01 X58.6124 Y16.5208 
G01 X58.5558 Y16.6949 
G01 X58.5272 Y16.8757 
G01 X58.5272 Y18.6843 
G01 X58.5558 Y18.8651 
G01 X58.6124 Y19.0392 
G01 X58.6955 Y19.2022 
G01 X58.8031 Y19.3503 
G01 X58.9325 Y19.4797 
G01 X59.0806 Y19.5873 
G01 X59.2436 Y19.6704 
G01 X59.4177 Y19.7270 
G01 X59.5985 Y19.7556 
G01 X59.7815 Y19.7556 
G01 X59.9623 Y19.7270 
G01 X60.1364 Y19.6704 
G01 X60.2994 Y19.5873 
G01 X60.4475 Y19.4797 
G01 X60.5769 Y19.3503 
G01 X60.6845 Y19.2022 
G01 X60.7676 Y19.0392 
G01 X60.8242 Y18.8651 
G01 X60.8528 Y18.6843 
G01 X60.8528 Y16.8757 
G01 X60.8242 Y16.6949 
G01 X60.7676 Y16.5208 
G01 X60.6845 Y16.3578 
G01 X60.5769 Y16.2097 
G01 X60.4475 Y16.0803 
G00 Z5.0000 
G00 X57.9075 Y16.0803 
G01 Z-0.1778 F200.00 
G01 X57.7594 Y15.9727 F100.00 
G01 X57.5964 Y15.8896 
G01 X57.4223 Y15.8330 
G01 X57.2415 Y15.8044 
G01 X57.0585 Y15.8044 
G01 X56.8777 Y15.8330 
G01 X56.7036 Y15.8896 
G01 X56.5406 Y15.9727 
G01 X56.3925 Y16.0803 
G01 X56.2631 Y16.2097 
G01 X56.1555 Y16.3578 
G01 X56.0724 Y16.5208 
G01 X56.0158 Y16.6949 
G01 X55.9872 Y16.8757 
G01 X55.9872 Y18.6843 
G01 X56.0158 Y18.8651 
G01 X56.0724 Y19.0392 
G01 X56.1555 Y19.2022 
G01 X56.2631 Y19.3503 
G01 X56.3925 Y19.4797 
G01 X56.5406 Y19.5873 
G01 X56.7036 Y19.6704 
G01 X56.8777 Y19.7270 
G01 X57.0585 Y19.7556 
G01 X57.2415 Y19.7556 
G01 X57.4223 Y19.7270 
G01 X57.5964 Y19.6704 
G01 X57.7594 Y19.5873 
G01 X57.9075 Y19.4797 
G01 X58.0369 Y19.3503 
G01 X58.1445 Y19.2022 
G01 X58.2276 Y19.0392 
G01 X58.2842 Y18.8651 
G01 X58.3128 Y18.6843 
G01 X58.3128 Y16.8757 
G01 X58.2842 Y16.6949 
G01 X58.2276 Y16.5208 
G01 X58.1445 Y16.3578 
G01 X58.0369 Y16.2097 
G01 X57.9075 Y16.0803 
G00 Z5.0000 
G00 X55.3675 Y16.0803 
G01 Z-0.1778 F200.00 
G01 X55.2194 Y15.9727 F100.00 
G01 X55.0564 Y15.8896 
G01 X54.8823 Y15.8330 
G01 X54.7015 Y15.8044 
G01 X54.5185 Y15.8044 
G01 X54.3377 Y15.8330 
G01 X54.1636 Y15.8896 
G01 X54.0006 Y15.9727 
G01 X53.8525 Y16.0803 
G01 X53.7231 Y16.2097 
G01 X53.6155 Y16.3578 
G01 X53.5324 Y16.5208 
G01 X53.4758 Y16.6949 
G01 X53.4472 Y16.8757 
G01 X53.4472 Y18.6843 
G01 X53.4758 Y18.8651 
G01 X53.5324 Y19.0392 
G01 X53.6155 Y19.2022 
G01 X53.7231 Y19.3503 
G01 X53.8525 Y19.4797 
G01 X54.0006 Y19.5873 
G01 X54.1636 Y19.6704 
G01 X54.3377 Y19.7270 
G01 X54.5185 Y19.7556 
G01 X54.7015 Y19.7556 
G01 X54.8823 Y19.7270 
G01 X55.0564 Y19.6704 
G01 X55.2194 Y19.5873 
G01 X55.3675 Y19.4797 
G01 X55.4969 Y19.3503 
G01 X55.6045 Y19.2022 
G01 X55.6876 Y19.0392 
G01 X55.7442 Y18.8651 
G01 X55.7728 Y18.6843 
G01 X55.7728 Y16.8757 
G01 X55.7442 Y16.6949 
G01 X55.6876 Y16.5208 
G01 X55.6045 Y16.3578 
G01 X55.4969 Y16.2097 
G01 X55.3675 Y16.0803 
G00 Z5.0000 
G00 X55.3675 Y21.1603 
G01 Z-0.1778 F200.00 
G01 X55.2194 Y21.0527 F100.00 
G01 X55.0564 Y20.9696 
G01 X54.8823 Y20.9130 
G01 X54.7015 Y20.8844 
G01 X54.5185 Y20.8844 
G01 X54.3377 Y20.9130 
G01 X54.1636 Y20.9696 
G01 X54.0006 Y21.0527 
G01 X53.8525 Y21.1603 
G01 X53.7231 Y21.2897 
G01 X53.6155 Y21.4378 
G01 X53.5324 Y21.6008 
G01 X53.4758 Y21.7749 
G01 X53.4472 Y21.9557 
G01 X53.4472 Y23.7643 
G01 X53.4758 Y23.9451 
G01 X53.5324 Y24.1192 
G01 X53.6155 Y24.2822 
G01 X53.7231 Y24.4303 
G01 X53.8525 Y24.5597 
G01 X54.0006 Y24.6673 
G01 X54.1636 Y24.7504 
G01 X54.3377 Y24.8070 
G01 X54.5185 Y24.8356 
G01 X54.7015 Y24.8356 
G01 X54.8823 Y24.8070 
G01 X55.0564 Y24.7504 
G01 X55.2194 Y24.6673 
G01 X55.3675 Y24.5597 
G01 X55.4969 Y24.4303 
G01 X55.6045 Y24.2822 
G01 X55.6876 Y24.1192 
G01 X55.7442 Y23.9451 
G01 X55.7728 Y23.7643 
G01 X55.7728 Y21.9557 
G01 X55.7442 Y21.7749 
G01 X55.6876 Y21.6008 
G01 X55.6045 Y21.4378 
G01 X55.4969 Y21.2897 
G01 X55.3675 Y21.1603 
G00 Z5.0000 
G00 X56.2631 Y21.2897 
G01 Z-0.1778 F200.00 
G01 X56.1555 Y21.4378 F100.00 
G01 X56.0724 Y21.6008 
G01 X56.0158 Y21.7749 
G01 X55.9872 Y21.9557 
G01 X55.9872 Y23.7643 
G01 X56.0158 Y23.9451 
G01 X56.0724 Y24.1192 
G01 X56.1555 Y24.2822 
G01 X56.2631 Y24.4303 
G01 X56.3925 Y24.5597 
G01 X56.5406 Y24.6673 
G01 X56.7036 Y24.7504 
G01 X56.8777 Y24.8070 
G01 X57.0585 Y24.8356 
G01 X57.2415 Y24.8356 
G01 X57.4223 Y24.8070 
G01 X57.5964 Y24.7504 
G01 X57.7594 Y24.6673 
G01 X57.9075 Y24.5597 
G01 X58.0369 Y24.4303 
G01 X58.1445 Y24.2822 
G01 X58.2276 Y24.1192 
G01 X58.2842 Y23.9451 
G01 X58.3128 Y23.7643 
G01 X58.3128 Y21.9557 
G01 X58.2842 Y21.7749 
G01 X58.2276 Y21.6008 
G01 X58.1445 Y21.4378 
G01 X58.0369 Y21.2897 
G01 X57.9075 Y21.1603 
G01 X57.7594 Y21.0527 
G01 X57.5964 Y20.9696 
G01 X57.4223 Y20.9130 
G01 X57.2415 Y20.8844 
G01 X57.0585 Y20.8844 
G01 X56.8777 Y20.9130 
G01 X56.7036 Y20.9696 
G01 X56.5406 Y21.0527 
G01 X56.3925 Y21.1603 
G01 X56.2631 Y21.2897 
G00 Z5.0000 
G00 X58.8031 Y21.2897 
G01 Z-0.1778 F200.00 
G01 X58.6955 Y21.4378 F100.00 
G01 X58.6124 Y21.6008 
G01 X58.5558 Y21.7749 
G01 X58.5272 Y21.9557 
G01 X58.5272 Y23.7643 
G01 X58.5558 Y23.9451 
G01 X58.6124 Y24.1192 
G01 X58.6955 Y24.2822 
G01 X58.8031 Y24.4303 
G01 X58.9325 Y24.5597 
G01 X59.0806 Y24.6673 
G01 X59.2436 Y24.7504 
G01 X59.4177 Y24.8070 
G01 X59.5985 Y24.8356 
G01 X59.7815 Y24.8356 
G01 X59.9623 Y24.8070 
G01 X60.1364 Y24.7504 
G01 X60.2994 Y24.6673 
G01 X60.4475 Y24.5597 
G01 X60.5769 Y24.4303 
G01 X60.6845 Y24.2822 
G01 X60.7676 Y24.1192 
G01 X60.8242 Y23.9451 
G01 X60.8528 Y23.7643 
G01 X60.8528 Y21.9557 
G01 X60.8242 Y21.7749 
G01 X60.7676 Y21.6008 
G01 X60.6845 Y21.4378 
G01 X60.5769 Y21.2897 
G01 X60.4475 Y21.1603 
G01 X60.2994 Y21.0527 
G01 X60.1364 Y20.9696 
G01 X59.9623 Y20.9130 
G01 X59.7815 Y20.8844 
G01 X59.5985 Y20.8844 
G01 X59.4177 Y20.9130 
G01 X59.2436 Y20.9696 
G01 X59.0806 Y21.0527 
G01 X58.9325 Y21.1603 
G01 X58.8031 Y21.2897 
G00 Z5.0000 
G00 X58.8031 Y26.3697 
G01 Z-0.1778 F200.00 
G01 X58.6955 Y26.5178 F100.00 
G01 X58.6124 Y26.6808 
G01 X58.5558 Y26.8549 
G01 X58.5272 Y27.0357 
G01 X58.5272 Y28.8443 
G01 X58.5558 Y29.0251 
G01 X58.6124 Y29.1992 
G01 X58.6955 Y29.3622 
G01 X58.8031 Y29.5103 
G01 X58.9325 Y29.6397 
G01 X59.0806 Y29.7473 
G01 X59.2436 Y29.8304 
G01 X59.4177 Y29.8870 
G01 X59.5985 Y29.9156 
G01 X59.7815 Y29.9156 
G01 X59.9623 Y29.8870 
G01 X60.1364 Y29.8304 
G01 X60.2994 Y29.7473 
G01 X60.4475 Y29.6397 
G01 X60.5769 Y29.5103 
G01 X60.6845 Y29.3622 
G01 X60.7676 Y29.1992 
G01 X60.8242 Y29.0251 
G01 X60.8528 Y28.8443 
G01 X60.8528 Y27.0357 
G01 X60.8242 Y26.8549 
G01 X60.7676 Y26.6808 
G01 X60.6845 Y26.5178 
G01 X60.5769 Y26.3697 
G01 X60.4475 Y26.2403 
G01 X60.2994 Y26.1327 
G01 X60.1364 Y26.0496 
G01 X59.9623 Y25.9930 
G01 X59.7815 Y25.9644 
G01 X59.5985 Y25.9644 
G01 X59.4177 Y25.9930 
G01 X59.2436 Y26.0496 
G01 X59.0806 Y26.1327 
G01 X58.9325 Y26.2403 
G01 X58.8031 Y26.3697 
G00 Z5.0000 
G00 X58.0369 Y26.3697 
G01 Z-0.1778 F200.00 
G01 X57.9075 Y26.2403 F100.00 
G01 X57.7594 Y26.1327 
G01 X57.5964 Y26.0496 
G01 X57.4223 Y25.9930 
G01 X57.2415 Y25.9644 
G01 X57.0585 Y25.9644 
G01 X56.8777 Y25.9930 
G01 X56.7036 Y26.0496 
G01 X56.5406 Y26.1327 
G01 X56.3925 Y26.2403 
G01 X56.2631 Y26.3697 
G01 X56.1555 Y26.5178 
G01 X56.0724 Y26.6808 
G01 X56.0158 Y26.8549 
G01 X55.9872 Y27.0357 
G01 X55.9872 Y28.8443 
G01 X56.0158 Y29.0251 
G01 X56.0724 Y29.1992 
G01 X56.1555 Y29.3622 
G01 X56.2631 Y29.5103 
G01 X56.3925 Y29.6397 
G01 X56.5406 Y29.7473 
G01 X56.7036 Y29.8304 
G01 X56.8777 Y29.8870 
G01 X57.0585 Y29.9156 
G01 X57.2415 Y29.9156 
G01 X57.4223 Y29.8870 
G01 X57.5964 Y29.8304 
G01 X57.7594 Y29.7473 
G01 X57.9075 Y29.6397 
G01 X58.0369 Y29.5103 
G01 X58.1445 Y29.3622 
G01 X58.2276 Y29.1992 
G01 X58.2842 Y29.0251 
G01 X58.3128 Y28.8443 
G01 X58.3128 Y27.0357 
G01 X58.2842 Y26.8549 
G01 X58.2276 Y26.6808 
G01 X58.1445 Y26.5178 
G01 X58.0369 Y26.3697 
G00 Z5.0000 
G00 X55.4969 Y26.3697 
G01 Z-0.1778 F200.00 
G01 X55.3675 Y26.2403 F100.00 
G01 X55.2194 Y26.1327 
G01 X55.0564 Y26.0496 
G01 X54.8823 Y25.9930 
G01 X54.7015 Y25.9644 
G01 X54.5185 Y25.9644 
G01 X54.3377 Y25.9930 
G01 X54.1636 Y26.0496 
G01 X54.0006 Y26.1327 
G01 X53.8525 Y26.2403 
G01 X53.7231 Y26.3697 
G01 X53.6155 Y26.5178 
G01 X53.5324 Y26.6808 
G01 X53.4758 Y26.8549 
G01 X53.4472 Y27.0357 
G01 X53.4472 Y28.8443 
G01 X53.4758 Y29.0251 
G01 X53.5324 Y29.1992 
G01 X53.6155 Y29.3622 
G01 X53.7231 Y29.5103 
G01 X53.8525 Y29.6397 
G01 X54.0006 Y29.7473 
G01 X54.1636 Y29.8304 
G01 X54.3377 Y29.8870 
G01 X54.5185 Y29.9156 
G01 X54.7015 Y29.9156 
G01 X54.8823 Y29.8870 
G01 X55.0564 Y29.8304 
G01 X55.2194 Y29.7473 
G01 X55.3675 Y29.6397 
G01 X55.4969 Y29.5103 
G01 X55.6045 Y29.3622 
G01 X55.6876 Y29.1992 
G01 X55.7442 Y29.0251 
G01 X55.7728 Y28.8443 
G01 X55.7728 Y27.0357 
G01 X55.7442 Y26.8549 
G01 X55.6876 Y26.6808 
G01 X55.6045 Y26.5178 
G01 X55.4969 Y26.3697 
G00 Z5.0000 
G00 X55.3675 Y31.3203 
G01 Z-0.1778 F200.00 
G01 X55.2194 Y31.2127 F100.00 
G01 X55.0564 Y31.1296 
G01 X54.8823 Y31.0730 
G01 X54.7015 Y31.0444 
G01 X54.5185 Y31.0444 
G01 X54.3377 Y31.0730 
G01 X54.1636 Y31.1296 
G01 X54.0006 Y31.2127 
G01 X53.8525 Y31.3203 
G01 X53.7231 Y31.4497 
G01 X53.6155 Y31.5978 
G01 X53.5324 Y31.7608 
G01 X53.4758 Y31.9349 
G01 X53.4472 Y32.1157 
G01 X53.4472 Y33.9243 
G01 X53.4758 Y34.1051 
G01 X53.5324 Y34.2792 
G01 X53.6155 Y34.4422 
G01 X53.7231 Y34.5903 
G01 X53.8525 Y34.7197 
G01 X54.0006 Y34.8273 
G01 X54.1636 Y34.9104 
G01 X54.3377 Y34.9670 
G01 X54.5185 Y34.9956 
G01 X54.7015 Y34.9956 
G01 X54.8823 Y34.9670 
G01 X55.0564 Y34.9104 
G01 X55.2194 Y34.8273 
G01 X55.3675 Y34.7197 
G01 X55.4969 Y34.5903 
G01 X55.6045 Y34.4422 
G01 X55.6876 Y34.2792 
G01 X55.7442 Y34.1051 
G01 X55.7728 Y33.9243 
G01 X55.7728 Y32.1157 
G01 X55.7442 Y31.9349 
G01 X55.6876 Y31.7608 
G01 X55.6045 Y31.5978 
G01 X55.4969 Y31.4497 
G01 X55.3675 Y31.3203 
G00 Z5.0000 
G00 X56.2631 Y31.4497 
G01 Z-0.1778 F200.00 
G01 X56.1555 Y31.5978 F100.00 
G01 X56.0724 Y31.7608 
G01 X56.0158 Y31.9349 
G01 X55.9872 Y32.1157 
G01 X55.9872 Y33.9243 
G01 X56.0158 Y34.1051 
G01 X56.0724 Y34.2792 
G01 X56.1555 Y34.4422 
G01 X56.2631 Y34.5903 
G01 X56.3925 Y34.7197 
G01 X56.5406 Y34.8273 
G01 X56.7036 Y34.9104 
G01 X56.8777 Y34.9670 
G01 X57.0585 Y34.9956 
G01 X57.2415 Y34.9956 
G01 X57.4223 Y34.9670 
G01 X57.5964 Y34.9104 
G01 X57.7594 Y34.8273 
G01 X57.9075 Y34.7197 
G01 X58.0369 Y34.5903 
G01 X58.1445 Y34.4422 
G01 X58.2276 Y34.2792 
G01 X58.2842 Y34.1051 
G01 X58.3128 Y33.9243 
G01 X58.3128 Y32.1157 
G01 X58.2842 Y31.9349 
G01 X58.2276 Y31.7608 
G01 X58.1445 Y31.5978 
G01 X58.0369 Y31.4497 
G01 X57.9075 Y31.3203 
G01 X57.7594 Y31.2127 
G01 X57.5964 Y31.1296 
G01 X57.4223 Y31.0730 
G01 X57.2415 Y31.0444 
G01 X57.0585 Y31.0444 
G01 X56.8777 Y31.0730 
G01 X56.7036 Y31.1296 
G01 X56.5406 Y31.2127 
G01 X56.3925 Y31.3203 
G01 X56.2631 Y31.4497 
G00 Z5.0000 
G00 X58.8031 Y31.4497 
G01 Z-0.1778 F200.00 
G01 X58.6955 Y31.5978 F100.00 
G01 X58.6124 Y31.7608 
G01 X58.5558 Y31.9349 
G01 X58.5272 Y32.1157 
G01 X58.5272 Y33.9243 
G01 X58.5558 Y34.1051 
G01 X58.6124 Y34.2792 
G01 X58.6955 Y34.4422 
G01 X58.8031 Y34.5903 
G01 X58.9325 Y34.7197 
G01 X59.0806 Y34.8273 
G01 X59.2436 Y34.9104 
G01 X59.4177 Y34.9670 
G01 X59.5985 Y34.9956 
G01 X59.7815 Y34.9956 
G01 X59.9623 Y34.9670 
G01 X60.1364 Y34.9104 
G01 X60.2994 Y34.8273 
G01 X60.4475 Y34.7197 
G01 X60.5769 Y34.5903 
G01 X60.6845 Y34.4422 
G01 X60.7676 Y34.2792 
G01 X60.8242 Y34.1051 
G01 X60.8528 Y33.9243 
G01 X60.8528 Y32.1157 
G01 X60.8242 Y31.9349 
G01 X60.7676 Y31.7608 
G01 X60.6845 Y31.5978 
G01 X60.5769 Y31.4497 
G01 X60.4475 Y31.3203 
G01 X60.2994 Y31.2127 
G01 X60.1364 Y31.1296 
G01 X59.9623 Y31.0730 
G01 X59.7815 Y31.0444 
G01 X59.5985 Y31.0444 
G01 X59.4177 Y31.0730 
G01 X59.2436 Y31.1296 
G01 X59.0806 Y31.2127 
G01 X58.9325 Y31.3203 
G01 X58.8031 Y31.4497 
G00 Z5.0000 
G00 X58.8566 Y37.0460 
G01 Z-0.1778 F200.00 
G01 X57.9834 Y37.0460 F100.00 
G01 X57.3660 Y37.6634 
G01 X57.3660 Y38.5366 
G01 X57.9834 Y39.1540 
G01 X58.8566 Y39.1540 
G01 X59.3039 Y38.7067 
G01 X59.3329 Y38.7570 
G01 X59.4260 Y38.8501 
G01 X59.5400 Y38.9159 
G01 X59.6672 Y38.9500 
G01 X60.4988 Y38.9500 
G01 X60.6260 Y38.9159 
G01 X60.7400 Y38.8501 
G01 X60.8331 Y38.7570 
G01 X60.8989 Y38.6430 
G01 X60.9330 Y38.5158 
G01 X60.9330 Y37.6842 
G01 X60.8989 Y37.5570 
G01 X60.8331 Y37.4430 
G01 X60.7400 Y37.3499 
G01 X60.6260 Y37.2841 
G01 X60.4988 Y37.2500 
G01 X59.6672 Y37.2500 
G01 X59.5400 Y37.2841 
G01 X59.4260 Y37.3499 
G01 X59.3329 Y37.4430 
G01 X59.3039 Y37.4933 
G01 X58.8566 Y37.0460 
G00 Z5.0000 
G00 X80.1369 Y47.6030 
G01 Z-0.1778 F200.00 
G01 X80.0711 Y47.7170 F100.00 
G01 X80.0370 Y47.8442 
G01 X80.0370 Y48.6758 
G01 X80.0711 Y48.8030 
G01 X80.1369 Y48.9170 
G01 X80.2300 Y49.0101 
G01 X80.3440 Y49.0759 
G01 X80.4712 Y49.1100 
G01 X81.3028 Y49.1100 
G01 X81.4300 Y49.0759 
G01 X81.5440 Y49.0101 
G01 X81.6371 Y48.9170 
G01 X81.7029 Y48.8030 
G01 X81.7370 Y48.6758 
G01 X81.7370 Y48.5808 
G01 X82.4238 Y47.8940 
G01 X83.1501 Y47.8940 
G01 X83.2391 Y47.8701 
G01 X83.3189 Y47.8241 
G01 X83.3841 Y47.7589 
G01 X83.4301 Y47.6791 
G01 X83.4540 Y47.5901 
G01 X83.4540 Y46.3899 
G01 X83.4301 Y46.3009 
G01 X83.3841 Y46.2211 
G01 X83.3189 Y46.1559 
G01 X83.2391 Y46.1099 
G01 X83.1501 Y46.0860 
G01 X81.9499 Y46.0860 
G01 X81.8609 Y46.1099 
G01 X81.7811 Y46.1559 
G01 X81.7159 Y46.2211 
G01 X81.6699 Y46.3009 
G01 X81.6460 Y46.3899 
G01 X81.6460 Y47.1162 
G01 X81.3418 Y47.4204 
G01 X81.3028 Y47.4100 
G01 X80.4712 Y47.4100 
G01 X80.3440 Y47.4441 
G01 X80.2300 Y47.5099 
G01 X80.1369 Y47.6030 
G00 Z5.0000 
G00 X80.4459 Y55.1111 
G01 Z-0.1778 F200.00 
G01 X80.3999 Y55.1909 F100.00 
G01 X80.3760 Y55.2799 
G01 X80.3760 Y56.0581 
G01 X80.3745 Y56.0607 
G01 X80.3370 Y56.2006 
G01 X80.3370 Y56.3381 
G01 X80.2300 Y56.3999 
G01 X80.1369 Y56.4930 
G01 X80.0711 Y56.6070 
G01 X80.0370 Y56.7342 
G01 X80.0370 Y57.5658 
G01 X80.0711 Y57.6930 
G01 X80.1369 Y57.8070 
G01 X80.2300 Y57.9001 
G01 X80.3440 Y57.9659 
G01 X80.4712 Y58.0000 
G01 X81.3028 Y58.0000 
G01 X81.4300 Y57.9659 
G01 X81.5440 Y57.9001 
G01 X81.6371 Y57.8070 
G01 X81.7029 Y57.6930 
G01 X81.7370 Y57.5658 
G01 X81.7370 Y56.7840 
G01 X81.8801 Y56.7840 
G01 X81.9691 Y56.7601 
G01 X82.0489 Y56.7141 
G01 X82.1141 Y56.6489 
G01 X82.1601 Y56.5691 
G01 X82.1840 Y56.4801 
G01 X82.1840 Y55.2799 
G01 X82.1601 Y55.1909 
G01 X82.1141 Y55.1111 
G01 X82.0489 Y55.0459 
G01 X81.9691 Y54.9999 
G01 X81.8801 Y54.9760 
G01 X80.6799 Y54.9760 
G01 X80.5909 Y54.9999 
G01 X80.5111 Y55.0459 
G01 X80.4459 Y55.1111 
G00 Z5.0000 
G00 X82.6572 Y54.9757 
G01 Z-0.1778 F200.00 
G01 X82.6572 Y56.7843 F100.00 
G01 X82.6858 Y56.9651 
G01 X82.7424 Y57.1392 
G01 X82.8255 Y57.3022 
G01 X82.9331 Y57.4503 
G01 X83.0625 Y57.5797 
G01 X83.2106 Y57.6873 
G01 X83.3736 Y57.7704 
G01 X83.5477 Y57.8270 
G01 X83.7285 Y57.8556 
G01 X83.9115 Y57.8556 
G01 X84.0923 Y57.8270 
G01 X84.2664 Y57.7704 
G01 X84.4294 Y57.6873 
G01 X84.5775 Y57.5797 
G01 X84.7069 Y57.4503 
G01 X84.8145 Y57.3022 
G01 X84.8976 Y57.1392 
G01 X84.9542 Y56.9651 
G01 X84.9828 Y56.7843 
G01 X84.9828 Y54.9757 
G01 X84.9542 Y54.7949 
G01 X84.8976 Y54.6208 
G01 X84.8145 Y54.4578 
G01 X84.7069 Y54.3097 
G01 X84.5775 Y54.1803 
G01 X84.4294 Y54.0727 
G01 X84.2664 Y53.9896 
G01 X84.0923 Y53.9330 
G01 X83.9115 Y53.9044 
G01 X83.7285 Y53.9044 
G01 X83.5477 Y53.9330 
G01 X83.3736 Y53.9896 
G01 X83.2106 Y54.0727 
G01 X83.0625 Y54.1803 
G01 X82.9331 Y54.3097 
G01 X82.8255 Y54.4578 
G01 X82.7424 Y54.6208 
G01 X82.6858 Y54.7949 
G01 X82.6572 Y54.9757 
G00 Z5.0000 
G00 X87.7372 Y54.9757 
G01 Z-0.1778 F200.00 
G01 X87.7372 Y56.7843 F100.00 
G01 X87.7658 Y56.9651 
G01 X87.8224 Y57.1392 
G01 X87.9055 Y57.3022 
G01 X88.0131 Y57.4503 
G01 X88.1425 Y57.5797 
G01 X88.2906 Y57.6873 
G01 X88.4536 Y57.7704 
G01 X88.6277 Y57.8270 
G01 X88.8085 Y57.8556 
G01 X88.9915 Y57.8556 
G01 X89.1723 Y57.8270 
G01 X89.3464 Y57.7704 
G01 X89.5094 Y57.6873 
G01 X89.6575 Y57.5797 
G01 X89.7869 Y57.4503 
G01 X89.8945 Y57.3022 
G01 X89.9776 Y57.1392 
G01 X90.0342 Y56.9651 
G01 X90.0628 Y56.7843 
G01 X90.0628 Y54.9757 
G01 X90.0342 Y54.7949 
G01 X89.9776 Y54.6208 
G01 X89.8945 Y54.4578 
G01 X89.7869 Y54.3097 
G01 X89.6575 Y54.1803 
G01 X89.5094 Y54.0727 
G01 X89.3464 Y53.9896 
G01 X89.1723 Y53.9330 
G01 X88.9915 Y53.9044 
G01 X88.8085 Y53.9044 
G01 X88.6277 Y53.9330 
G01 X88.4536 Y53.9896 
G01 X88.2906 Y54.0727 
G01 X88.1425 Y54.1803 
G01 X88.0131 Y54.3097 
G01 X87.9055 Y54.4578 
G01 X87.8224 Y54.6208 
G01 X87.7658 Y54.7949 
G01 X87.7372 Y54.9757 
G00 Z5.0000 
G00 X90.2772 Y54.9757 
G01 Z-0.1778 F200.00 
G01 X90.2772 Y56.7843 F100.00 
G01 X90.3058 Y56.9651 
G01 X90.3624 Y57.1392 
G01 X90.4455 Y57.3022 
G01 X90.5531 Y57.4503 
G01 X90.6825 Y57.5797 
G01 X90.8306 Y57.6873 
G01 X90.9936 Y57.7704 
G01 X91.1677 Y57.8270 
G01 X91.3485 Y57.8556 
G01 X91.5315 Y57.8556 
G01 X91.7123 Y57.8270 
G01 X91.8864 Y57.7704 
G01 X92.0494 Y57.6873 
G01 X92.1975 Y57.5797 
G01 X92.3269 Y57.4503 
G01 X92.4345 Y57.3022 
G01 X92.5176 Y57.1392 
G01 X92.5742 Y56.9651 
G01 X92.6028 Y56.7843 
G01 X92.6028 Y54.9757 
G01 X92.5742 Y54.7949 
G01 X92.5176 Y54.6208 
G01 X92.4345 Y54.4578 
G01 X92.3269 Y54.3097 
G01 X92.1975 Y54.1803 
G01 X92.0494 Y54.0727 
G01 X91.8864 Y53.9896 
G01 X91.7123 Y53.9330 
G01 X91.5315 Y53.9044 
G01 X91.3485 Y53.9044 
G01 X91.1677 Y53.9330 
G01 X90.9936 Y53.9896 
G01 X90.8306 Y54.0727 
G01 X90.6825 Y54.1803 
G01 X90.5531 Y54.3097 
G01 X90.4455 Y54.4578 
G01 X90.3624 Y54.6208 
G01 X90.3058 Y54.7949 
G01 X90.2772 Y54.9757 
G00 Z5.0000 
G00 Z4.999990
G00 X81.2800 Y59.6900 
G01 Z-0.2794 F508.00 
G01 Z4.999990
(R5.0000  P1.000000)
G00 X58.4200 Y64.7700 
G01 Z-1.599997
G01 Z4.999990
G00 X58.4200 Y38.1000 
G01 Z-1.599997
G01 Z4.999990
G00 X5.0800 Y40.6400 
G01 Z-1.599997
G01 Z4.999990
G00 X7.6200 Y7.6200 
G01 Z-1.599997
G01 Z4.999990
G00 X91.4400 Y69.8500 
G01 Z-1.599997
G01 Z4.999990
G00 X54.6100 Y10.1600 
G01 Z-1.599997
G01 Z4.999990
G00 X8.8900 Y69.8500 
G01 Z-1.599997
G01 Z4.999990
G00 X49.5300 Y76.2000 
G01 Z-1.599997
G01 Z4.999990
G00 X82.5500 Y46.9900 
G01 Z-1.599997
G01 Z4.999990
G00 X81.2800 Y35.5600 
G01 Z-1.599997
G01 Z4.999990
G00 X81.2800 Y55.8800 
G01 Z-1.599997
G01 Z4.999990
G00 X66.0400 Y33.0200 
G01 Z-1.599997
G01 Z4.999990
G00 X64.7700 Y27.9400 
G01 Z-1.599997
G01 Z4.999990
G00 X66.0400 Y22.8600 
G01 Z-1.599997
G01 Z4.999990
G00 X66.0400 Y17.7800 
G01 Z-1.599997
G01 Z4.999990
G00 X90.1700 Y52.0700 
G01 Z-1.599997
G01 Z4.999990
G00 X31.7500 Y68.5800 
G01 Z-1.599997
G01 Z4.999990
G00 X39.3700 Y71.1200 
G01 Z-1.599997
G01 Z4.999990
G00 X86.3600 Y53.3400 
G01 Z-1.599997
G01 Z4.999990
G00 X45.7200 Y66.0400 
G01 Z-1.599997
G01 Z4.999990
G00 X72.3900 Y77.4700 
G01 Z-1.599997
G01 Z4.999990
G00 X71.1200 Y63.5000 
G01 Z-1.599997
G01 Z4.999990
G00 X16.5100 Y68.5800 
G01 Z-1.599997
G01 Z4.999990
G00 X59.6900 Y71.1200 
G01 Z-1.599997
G01 Z4.999990
G00 X62.2300 Y71.1200 
G01 Z-1.599997
G01 Z4.999990
G00 X64.7700 Y71.1200 
G01 Z-1.599997
G01 Z4.999990
G00 X67.3100 Y71.1200 
G01 Z-1.599997
G01 Z4.999990
G00 X69.8500 Y71.1200 
G01 Z-1.599997
G01 Z4.999990
G00 X72.3900 Y71.1200 
G01 Z-1.599997
G01 Z4.999990
G00 X46.9900 Y69.8500 
G01 Z-1.599997
G01 Z4.999990
G00 X49.5300 Y69.8500 
G01 Z-1.599997
G01 Z4.999990
G00 X52.0700 Y69.8500 
G01 Z-1.599997
G01 Z4.999990
G00 X9.6339 Y64.2439 
G01 Z-1.599997
G01 Z4.999990
G00 X11.4300 Y66.0400 
G01 Z-1.599997
G01 Z4.999990
G00 X13.2261 Y67.8361 
G01 Z-1.599997
G01 Z4.999990
G00 X89.4261 Y64.2439 
G01 Z-1.599997
G01 Z4.999990
G00 X87.6300 Y66.0400 
G01 Z-1.599997
G01 Z4.999990
G00 X85.8339 Y67.8361 
G01 Z-1.599997
G01 Z4.999990
G00 X20.3200 Y66.0400 
G01 Z-1.599997
G01 Z4.999990
G00 X20.3200 Y68.5800 
G01 Z-1.599997
G01 Z4.999990
G00 X20.3200 Y71.1200 
G01 Z-1.599997
G01 Z4.999990
G00 X20.3200 Y73.6600 
G01 Z-1.599997
G01 Z4.999990
G00 X27.9400 Y66.0400 
G01 Z-1.599997
G01 Z4.999990
G00 X27.9400 Y68.5800 
G01 Z-1.599997
G01 Z4.999990
G00 X27.9400 Y71.1200 
G01 Z-1.599997
G01 Z4.999990
G00 X27.9400 Y73.6600 
G01 Z-1.599997
G01 Z4.999990
G00 X35.5600 Y66.0400 
G01 Z-1.599997
G01 Z4.999990
