(.../Tools/pcb/gcode/pcb-gcode.ulp)
(Copyright 2005 - 2012 by John Johnson)
(See readme.txt for licensing terms.)
(This file generated from the board:)
(.../BaseProximity/BaseProximity.brd)
(Current profile is .../pcb/gcode/profiles/generic.pp  )
(This file generated 3/19/2017 17:30)
(Settings from pcb-machine.h)
(spindle on time = 3.0000)
(spindle speed = 20000.0000)
(tool change at 0.0000 0.0000 25.4000 )
(feed rate xy = F0.00  )
(feed rate z  = F508.00 )
(Z Axis Settings)
(  High     Up        Down     Drill)
(12.7000 	2.5400 	-0.1778 	-0.8128 )
(Settings from pcb-defaults.h)
(isolate min = 0.0254)
(isolate max = 0.5080)
(isolate step = 0.1270)
(Generated top outlines, top drill, bottom outlines, bottom drill, )
(Unit of measure: mm)
( Tool|       Size       |  Min Sub |  Max Sub |   Count )
( T01  0.600mm 0.0236in 0.0000in 0.0000in )
( T02  0.813mm 0.0320in 0.0000in 0.0000in )
( T03  0.900mm 0.0354in 0.0000in 0.0000in )
( T04  1.016mm 0.0400in 0.0000in 0.0000in )
( T05  3.302mm 0.1300in 0.0000in 0.0000in )
(Metric Mode)
G21
(Absolute Coordinates)
G90
S20000
G00 Z12.7000 
G00 X0.0000 Y0.0000 
M03
G04 P3.000000
M05
G00 Z25.4000 
M06 T01  ; 0.6000 
G01 Z0.0000 F508.00 
M06 
G00 Z2.5400 
M03
G04 P3.000000
G00 Z2.540000
G00 X-3.8100 Y48.2600 
G01 Z-0.8128 F508.00 
G01 Z2.540000
(R2.5400  P1.000000)
G00 X-20.3200 Y53.3400 
G01 Z-0.812800
G01 Z2.540000
G00 X-22.8600 Y52.0700 
G01 Z-0.812800
G01 Z2.540000
G00 X-30.4800 Y53.3400 
G01 Z-0.812800
G01 Z2.540000
G00 X-45.7200 Y55.8800 
G01 Z-0.812800
G01 Z2.540000
G00 X-68.5800 Y54.6100 
G01 Z-0.812800
G01 Z2.540000
G00 X-73.6600 Y49.5300 
G01 Z-0.812800
G01 Z2.540000
G00 X-71.1200 Y43.1800 
G01 Z-0.812800
G01 Z2.540000
G00 X-69.8500 Y40.6400 
G01 Z-0.812800
G01 Z2.540000
G00 X-67.3100 Y41.9100 
G01 Z-0.812800
G01 Z2.540000
G00 X-71.1200 Y27.9400 
G01 Z-0.812800
G01 Z2.540000
G00 X-59.6900 Y19.0500 
G01 Z-0.812800
G01 Z2.540000
G00 X-59.6900 Y16.5100 
G01 Z-0.812800
G01 Z2.540000
G00 X-59.6900 Y13.9700 
G01 Z-0.812800
G01 Z2.540000
G00 X-59.6900 Y11.4300 
G01 Z-0.812800
G01 Z2.540000
G00 X-54.6100 Y5.0800 
G01 Z-0.812800
G01 Z2.540000
G00 X-71.1200 Y8.8900 
G01 Z-0.812800
G01 Z2.540000
G00 X-20.3200 Y36.8300 
G01 Z-0.812800
G01 Z2.540000
G00 X-7.6200 Y26.6700 
G01 Z-0.812800
G01 Z2.540000
G00 X-11.4300 Y5.0800 
G01 Z-0.812800
G01 Z2.540000
M05
G00 Z25.4000 
G00 X0.0000 Y0.0000 
M06 T02  ; 0.8128 
G01 Z0.0000 F508.00 
M06 
G00 Z2.5400 
M03
G04 P3.000000
G00 Z2.540000
G00 X-45.7200 Y8.8900 
G01 Z-0.8128 F508.00 
G01 Z2.540000
(R2.5400  P1.000000)
G00 X-47.6250 Y10.1600 
G01 Z-0.812800
G01 Z2.540000
G00 X-45.7200 Y11.4300 
G01 Z-0.812800
G01 Z2.540000
M05
G00 Z25.4000 
G00 X0.0000 Y0.0000 
M06 T03  ; 0.9000 
G01 Z0.0000 F508.00 
M06 
G00 Z2.5400 
M03
G04 P3.000000
G00 Z2.540000
G00 X-50.8000 Y8.8900 
G01 Z-0.8128 F508.00 
G01 Z2.540000
(R2.5400  P1.000000)
G00 X-58.4200 Y8.8900 
G01 Z-0.812800
G01 Z2.540000
M05
G00 Z25.4000 
G00 X0.0000 Y0.0000 
M06 T04  ; 1.0160 
G01 Z0.0000 F508.00 
M06 
G00 Z2.5400 
M03
G04 P3.000000
G00 Z2.540000
G00 X-3.8100 Y26.6700 
G01 Z-0.8128 F508.00 
G01 Z2.540000
(R2.5400  P1.000000)
G00 X-3.8100 Y29.2100 
G01 Z-0.812800
G01 Z2.540000
G00 X-3.8100 Y31.7500 
G01 Z-0.812800
G01 Z2.540000
G00 X-7.6200 Y38.1000 
G01 Z-0.812800
G01 Z2.540000
G00 X-10.1600 Y38.1000 
G01 Z-0.812800
G01 Z2.540000
G00 X-12.7000 Y38.1000 
G01 Z-0.812800
G01 Z2.540000
G00 X-15.2400 Y38.1000 
G01 Z-0.812800
G01 Z2.540000
G00 X-15.2400 Y41.9100 
G01 Z-0.812800
G01 Z2.540000
G00 X-12.7000 Y41.9100 
G01 Z-0.812800
G01 Z2.540000
G00 X-10.1600 Y41.9100 
G01 Z-0.812800
G01 Z2.540000
G00 X-7.6200 Y41.9100 
G01 Z-0.812800
G01 Z2.540000
G00 X-7.6200 Y45.7200 
G01 Z-0.812800
G01 Z2.540000
G00 X-10.1600 Y45.7200 
G01 Z-0.812800
G01 Z2.540000
G00 X-12.7000 Y45.7200 
G01 Z-0.812800
G01 Z2.540000
G00 X-15.2400 Y45.7200 
G01 Z-0.812800
G01 Z2.540000
G00 X-13.9700 Y55.8800 
G01 Z-0.812800
G01 Z2.540000
G00 X-16.5100 Y55.8800 
G01 Z-0.812800
G01 Z2.540000
G00 X-19.0500 Y55.8800 
G01 Z-0.812800
G01 Z2.540000
G00 X-21.5900 Y55.8800 
G01 Z-0.812800
G01 Z2.540000
G00 X-24.1300 Y55.8800 
G01 Z-0.812800
G01 Z2.540000
G00 X-26.6700 Y55.8800 
G01 Z-0.812800
G01 Z2.540000
G00 X-37.4600 Y55.8800 
G01 Z-0.812800
G01 Z2.540000
G00 X-40.0000 Y55.8800 
G01 Z-0.812800
G01 Z2.540000
G00 X-42.5400 Y55.8800 
G01 Z-0.812800
G01 Z2.540000
G00 X-62.7300 Y54.6100 
G01 Z-0.812800
G01 Z2.540000
G00 X-62.7300 Y52.0700 
G01 Z-0.812800
G01 Z2.540000
G00 X-62.7300 Y49.5300 
G01 Z-0.812800
G01 Z2.540000
G00 X-62.7300 Y46.9900 
G01 Z-0.812800
G01 Z2.540000
G00 X-62.7300 Y44.4500 
G01 Z-0.812800
G01 Z2.540000
G00 X-65.2700 Y44.4500 
G01 Z-0.812800
G01 Z2.540000
G00 X-65.2700 Y46.9900 
G01 Z-0.812800
G01 Z2.540000
G00 X-65.2700 Y49.5300 
G01 Z-0.812800
G01 Z2.540000
G00 X-65.2700 Y52.0700 
G01 Z-0.812800
G01 Z2.540000
G00 X-65.2700 Y54.6100 
G01 Z-0.812800
G01 Z2.540000
G00 X-71.8639 Y55.1360 
G01 Z-0.812800
G01 Z2.540000
G00 X-73.6600 Y53.3400 
G01 Z-0.812800
G01 Z2.540000
G00 X-75.4561 Y51.5439 
G01 Z-0.812800
G01 Z2.540000
G00 X-74.9300 Y45.7200 
G01 Z-0.812800
G01 Z2.540000
G00 X-74.9300 Y43.1800 
G01 Z-0.812800
G01 Z2.540000
G00 X-74.9300 Y40.6400 
G01 Z-0.812800
G01 Z2.540000
G00 X-74.9300 Y38.1000 
G01 Z-0.812800
G01 Z2.540000
G00 X-74.9300 Y33.0200 
G01 Z-0.812800
G01 Z2.540000
G00 X-74.9300 Y30.4800 
G01 Z-0.812800
G01 Z2.540000
G00 X-74.9300 Y27.9400 
G01 Z-0.812800
G01 Z2.540000
G00 X-65.2700 Y26.6700 
G01 Z-0.812800
G01 Z2.540000
G00 X-62.7300 Y26.6700 
G01 Z-0.812800
G01 Z2.540000
G00 X-62.7300 Y29.2100 
G01 Z-0.812800
G01 Z2.540000
G00 X-62.7300 Y31.7500 
G01 Z-0.812800
G01 Z2.540000
G00 X-62.7300 Y34.2900 
G01 Z-0.812800
G01 Z2.540000
G00 X-62.7300 Y36.8300 
G01 Z-0.812800
G01 Z2.540000
G00 X-62.7300 Y39.3700 
G01 Z-0.812800
G01 Z2.540000
G00 X-62.7300 Y41.9100 
G01 Z-0.812800
G01 Z2.540000
G00 X-65.2700 Y41.9100 
G01 Z-0.812800
G01 Z2.540000
G00 X-65.2700 Y39.3700 
G01 Z-0.812800
G01 Z2.540000
G00 X-65.2700 Y36.8300 
G01 Z-0.812800
G01 Z2.540000
G00 X-65.2700 Y34.2900 
G01 Z-0.812800
G01 Z2.540000
G00 X-65.2700 Y31.7500 
G01 Z-0.812800
G01 Z2.540000
G00 X-65.2700 Y29.2100 
G01 Z-0.812800
G01 Z2.540000
G00 X-65.2700 Y24.1300 
G01 Z-0.812800
G01 Z2.540000
G00 X-65.2700 Y21.5900 
G01 Z-0.812800
G01 Z2.540000
G00 X-65.2700 Y19.0500 
G01 Z-0.812800
G01 Z2.540000
G00 X-65.2700 Y16.5100 
G01 Z-0.812800
G01 Z2.540000
G00 X-62.7300 Y16.5100 
G01 Z-0.812800
G01 Z2.540000
G00 X-62.7300 Y19.0500 
G01 Z-0.812800
G01 Z2.540000
G00 X-62.7300 Y21.5900 
G01 Z-0.812800
G01 Z2.540000
G00 X-62.7300 Y24.1300 
G01 Z-0.812800
G01 Z2.540000
G00 X-62.7300 Y13.9700 
G01 Z-0.812800
G01 Z2.540000
G00 X-65.2700 Y13.9700 
G01 Z-0.812800
G01 Z2.540000
G00 X-65.2700 Y11.4300 
G01 Z-0.812800
G01 Z2.540000
G00 X-65.2700 Y8.8900 
G01 Z-0.812800
G01 Z2.540000
G00 X-62.7300 Y8.8900 
G01 Z-0.812800
G01 Z2.540000
G00 X-62.7300 Y11.4300 
G01 Z-0.812800
G01 Z2.540000
G00 X-62.7300 Y6.3500 
G01 Z-0.812800
G01 Z2.540000
G00 X-65.2700 Y6.3500 
G01 Z-0.812800
G01 Z2.540000
G00 X-71.8639 Y4.5539 
G01 Z-0.812800
G01 Z2.540000
G00 X-73.6600 Y6.3500 
G01 Z-0.812800
G01 Z2.540000
G00 X-75.4561 Y8.1461 
G01 Z-0.812800
G01 Z2.540000
G00 X-42.5400 Y5.0800 
G01 Z-0.812800
G01 Z2.540000
G00 X-40.0000 Y5.0800 
G01 Z-0.812800
G01 Z2.540000
G00 X-37.4600 Y5.0800 
G01 Z-0.812800
G01 Z2.540000
G00 X-21.5900 Y12.7000 
G01 Z-0.812800
G01 Z2.540000
G00 X-19.0500 Y12.7000 
G01 Z-0.812800
G01 Z2.540000
G00 X-16.5100 Y12.7000 
G01 Z-0.812800
G01 Z2.540000
G00 X-16.5100 Y17.7800 
G01 Z-0.812800
G01 Z2.540000
G00 X-19.0500 Y17.7800 
G01 Z-0.812800
G01 Z2.540000
G00 X-21.5900 Y17.7800 
G01 Z-0.812800
G01 Z2.540000
G00 X-21.5900 Y22.8600 
G01 Z-0.812800
G01 Z2.540000
G00 X-19.0500 Y22.8600 
G01 Z-0.812800
G01 Z2.540000
G00 X-16.5100 Y22.8600 
G01 Z-0.812800
G01 Z2.540000
G00 X-16.5100 Y27.9400 
G01 Z-0.812800
G01 Z2.540000
G00 X-19.0500 Y27.9400 
G01 Z-0.812800
G01 Z2.540000
G00 X-21.5900 Y27.9400 
G01 Z-0.812800
G01 Z2.540000
G00 X-4.5539 Y8.1461 
G01 Z-0.812800
G01 Z2.540000
G00 X-6.3500 Y6.3500 
G01 Z-0.812800
G01 Z2.540000
G00 X-8.1461 Y4.5539 
G01 Z-0.812800
G01 Z2.540000
G00 X-4.5539 Y51.5439 
G01 Z-0.812800
G01 Z2.540000
G00 X-6.3500 Y53.3400 
G01 Z-0.812800
G01 Z2.540000
G00 X-8.1461 Y55.1360 
G01 Z-0.812800
G01 Z2.540000
M05
G00 Z25.4000 
G00 X0.0000 Y0.0000 
M06 T05  ; 3.3020 
G01 Z0.0000 F508.00 
M06 
G00 Z2.5400 
M03
G04 P3.000000
G00 Z2.540000
G00 X-40.0000 Y21.5000 
G01 Z-0.8128 F508.00 
G01 Z2.540000
(R2.5400  P1.000000)
G00 X-40.0000 Y49.0000 
G01 Z-0.812800
G01 Z2.540000
T01 
G00 Z12.7000 
M05
M02
